( This gcode generated by /Applications/EAGLE-6.4.0/ulp/pcb-gcode.ulp )
( Copyright 2005 by John Johnson. See readme.txt for licensing terms. )

( This file generated from the board /Users/thiago/Documents/IsThisArt/2013-04 -- Five42Lights/Five42Lights/Five42LightsEagle/Five42LightsEagle.brd )

( Settings from pcb-machine.h )
( tool size = 0.0080 )
( z high = 0.5000	z up = 0.1000	z down = -0.0100 )
( drill depth = -0.0700 )
( spindle on time = 3.0000 )
( milling depth = -0.0700 )
( tool change at X0.0000, Y0.0000, Z5.0000 )
( feed rate = 10.0000	feed rate z = 5.0000 )

( Settings from pcb-defaults.h )
( Default isolate = 0.0001 )
( isolate max = 0.0200 )
( isolate step = 0.0050 )
( Generated: bottom outlines, bottom drill,  )
( Unit of measure: inch )


G20

G90
G00 Z0.5000 
G00 X0 Y0
M03
G04 P3.000000
G00 Z0.1000 
G00 X-0.6066 Y0.5959 
G01 Z-0.0100 F10.00 
G01 X-0.6734 Y0.5959 
G01 X-0.6799 Y0.5972 
G01 X-0.6862 Y0.5998 
G01 X-0.6917 Y0.6035 
G01 X-0.6965 Y0.6083 
G01 X-0.7002 Y0.6138 
G01 X-0.7028 Y0.6201 
G01 X-0.7041 Y0.6266 
G01 X-0.7041 Y0.6334 
G01 X-0.7028 Y0.6399 
G01 X-0.7002 Y0.6462 
G01 X-0.6965 Y0.6517 
G01 X-0.6917 Y0.6565 
G01 X-0.6862 Y0.6602 
G01 X-0.6799 Y0.6628 
G01 X-0.6734 Y0.6641 
G01 X-0.6066 Y0.6641 
G01 X-0.6001 Y0.6628 
G01 X-0.5938 Y0.6602 
G01 X-0.5883 Y0.6565 
G01 X-0.5835 Y0.6517 
G01 X-0.5798 Y0.6462 
G01 X-0.5772 Y0.6399 
G01 X-0.5759 Y0.6334 
G01 X-0.5759 Y0.6266 
G01 X-0.5772 Y0.6201 
G01 X-0.5798 Y0.6138 
G01 X-0.5835 Y0.6083 
G01 X-0.5883 Y0.6035 
G01 X-0.5938 Y0.5998 
G01 X-0.6001 Y0.5972 
G01 X-0.6066 Y0.5959 
G00 Z0.1000 
G00 X-0.6066 Y0.6959 
G01 Z-0.0100 F10.00 
G01 X-0.6734 Y0.6959 
G01 X-0.6799 Y0.6972 
G01 X-0.6862 Y0.6998 
G01 X-0.6917 Y0.7035 
G01 X-0.6965 Y0.7083 
G01 X-0.7002 Y0.7138 
G01 X-0.7028 Y0.7201 
G01 X-0.7041 Y0.7266 
G01 X-0.7041 Y0.7334 
G01 X-0.7028 Y0.7399 
G01 X-0.7002 Y0.7462 
G01 X-0.6965 Y0.7517 
G01 X-0.6917 Y0.7565 
G01 X-0.6862 Y0.7602 
G01 X-0.6799 Y0.7628 
G01 X-0.6734 Y0.7641 
G01 X-0.6066 Y0.7641 
G01 X-0.6001 Y0.7628 
G01 X-0.5938 Y0.7602 
G01 X-0.5883 Y0.7565 
G01 X-0.5835 Y0.7517 
G01 X-0.5798 Y0.7462 
G01 X-0.5772 Y0.7399 
G01 X-0.5759 Y0.7334 
G01 X-0.5759 Y0.7266 
G01 X-0.5772 Y0.7201 
G01 X-0.5798 Y0.7138 
G01 X-0.5835 Y0.7083 
G01 X-0.5883 Y0.7035 
G01 X-0.5938 Y0.6998 
G01 X-0.6001 Y0.6972 
G01 X-0.6066 Y0.6959 
G00 Z0.1000 
G00 X-0.6066 Y0.7959 
G01 Z-0.0100 F10.00 
G01 X-0.6734 Y0.7959 
G01 X-0.6799 Y0.7972 
G01 X-0.6862 Y0.7998 
G01 X-0.6917 Y0.8035 
G01 X-0.6965 Y0.8083 
G01 X-0.7002 Y0.8138 
G01 X-0.7028 Y0.8201 
G01 X-0.7041 Y0.8266 
G01 X-0.7041 Y0.8334 
G01 X-0.7028 Y0.8399 
G01 X-0.7002 Y0.8462 
G01 X-0.6965 Y0.8517 
G01 X-0.6917 Y0.8565 
G01 X-0.6862 Y0.8602 
G01 X-0.6799 Y0.8628 
G01 X-0.6734 Y0.8641 
G01 X-0.6066 Y0.8641 
G01 X-0.6001 Y0.8628 
G01 X-0.5938 Y0.8602 
G01 X-0.5883 Y0.8565 
G01 X-0.5835 Y0.8517 
G01 X-0.5798 Y0.8462 
G01 X-0.5772 Y0.8399 
G01 X-0.5759 Y0.8334 
G01 X-0.5759 Y0.8266 
G01 X-0.5772 Y0.8201 
G01 X-0.5798 Y0.8138 
G01 X-0.5835 Y0.8083 
G01 X-0.5883 Y0.8035 
G01 X-0.5938 Y0.7998 
G01 X-0.6001 Y0.7972 
G01 X-0.6066 Y0.7959 
G00 Z0.1000 
G00 X-0.6066 Y0.8959 
G01 Z-0.0100 F10.00 
G01 X-0.6734 Y0.8959 
G01 X-0.6799 Y0.8972 
G01 X-0.6862 Y0.8998 
G01 X-0.6917 Y0.9035 
G01 X-0.6965 Y0.9083 
G01 X-0.7002 Y0.9138 
G01 X-0.7028 Y0.9201 
G01 X-0.7041 Y0.9266 
G01 X-0.7041 Y0.9334 
G01 X-0.7028 Y0.9399 
G01 X-0.7002 Y0.9462 
G01 X-0.6965 Y0.9517 
G01 X-0.6917 Y0.9565 
G01 X-0.6862 Y0.9602 
G01 X-0.6799 Y0.9628 
G01 X-0.6734 Y0.9641 
G01 X-0.6066 Y0.9641 
G01 X-0.6001 Y0.9628 
G01 X-0.5938 Y0.9602 
G01 X-0.5883 Y0.9565 
G01 X-0.5835 Y0.9517 
G01 X-0.5798 Y0.9462 
G01 X-0.5772 Y0.9399 
G01 X-0.5759 Y0.9334 
G01 X-0.5759 Y0.9266 
G01 X-0.5772 Y0.9201 
G01 X-0.5798 Y0.9138 
G01 X-0.5835 Y0.9083 
G01 X-0.5883 Y0.9035 
G01 X-0.5938 Y0.8998 
G01 X-0.6001 Y0.8972 
G01 X-0.6066 Y0.8959 
G00 Z0.1000 
G00 X-0.6066 Y0.9959 
G01 Z-0.0100 F10.00 
G01 X-0.6734 Y0.9959 
G01 X-0.6799 Y0.9972 
G01 X-0.6862 Y0.9998 
G01 X-0.6917 Y1.0035 
G01 X-0.6965 Y1.0083 
G01 X-0.7002 Y1.0138 
G01 X-0.7028 Y1.0201 
G01 X-0.7041 Y1.0266 
G01 X-0.7041 Y1.0334 
G01 X-0.7028 Y1.0399 
G01 X-0.7002 Y1.0462 
G01 X-0.6965 Y1.0517 
G01 X-0.6917 Y1.0565 
G01 X-0.6862 Y1.0602 
G01 X-0.6799 Y1.0628 
G01 X-0.6734 Y1.0641 
G01 X-0.6066 Y1.0641 
G01 X-0.6001 Y1.0628 
G01 X-0.5938 Y1.0602 
G01 X-0.5883 Y1.0565 
G01 X-0.5835 Y1.0517 
G01 X-0.5798 Y1.0462 
G01 X-0.5772 Y1.0399 
G01 X-0.5759 Y1.0334 
G01 X-0.5759 Y1.0266 
G01 X-0.5772 Y1.0201 
G01 X-0.5798 Y1.0138 
G01 X-0.5835 Y1.0083 
G01 X-0.5883 Y1.0035 
G01 X-0.5938 Y0.9998 
G01 X-0.6001 Y0.9972 
G01 X-0.6066 Y0.9959 
G00 Z0.1000 
G00 X-0.6066 Y1.0959 
G01 Z-0.0100 F10.00 
G01 X-0.6734 Y1.0959 
G01 X-0.6799 Y1.0972 
G01 X-0.6862 Y1.0998 
G01 X-0.6917 Y1.1035 
G01 X-0.6965 Y1.1083 
G01 X-0.7002 Y1.1138 
G01 X-0.7028 Y1.1201 
G01 X-0.7041 Y1.1266 
G01 X-0.7041 Y1.1334 
G01 X-0.7028 Y1.1399 
G01 X-0.7002 Y1.1462 
G01 X-0.6965 Y1.1517 
G01 X-0.6917 Y1.1565 
G01 X-0.6862 Y1.1602 
G01 X-0.6799 Y1.1628 
G01 X-0.6734 Y1.1641 
G01 X-0.6066 Y1.1641 
G01 X-0.6001 Y1.1628 
G01 X-0.5938 Y1.1602 
G01 X-0.5883 Y1.1565 
G01 X-0.5835 Y1.1517 
G01 X-0.5798 Y1.1462 
G01 X-0.5772 Y1.1399 
G01 X-0.5759 Y1.1334 
G01 X-0.5759 Y1.1266 
G01 X-0.5772 Y1.1201 
G01 X-0.5798 Y1.1138 
G01 X-0.5835 Y1.1083 
G01 X-0.5883 Y1.1035 
G01 X-0.5938 Y1.0998 
G01 X-0.6001 Y1.0972 
G01 X-0.6066 Y1.0959 
G00 Z0.1000 
G00 X-1.0391 Y0.2761 
G01 Z-0.0100 F10.00 
G01 X-1.0391 Y0.1979 
G01 X-1.0406 Y0.1903 
G01 X-1.0436 Y0.1831 
G01 X-1.0479 Y0.1767 
G01 X-1.0533 Y0.1712 
G01 X-1.0598 Y0.1669 
G01 X-1.0669 Y0.1639 
G01 X-1.0745 Y0.1624 
G01 X-1.0823 Y0.1624 
G01 X-1.0899 Y0.1639 
G01 X-1.0971 Y0.1669 
G01 X-1.1035 Y0.1712 
G01 X-1.1090 Y0.1767 
G01 X-1.1133 Y0.1831 
G01 X-1.1163 Y0.1903 
G01 X-1.1178 Y0.1979 
G01 X-1.1178 Y0.2259 
G01 X-1.2324 Y0.2259 
G01 X-1.2370 Y0.2268 
G01 X-1.2414 Y0.2286 
G01 X-1.2454 Y0.2313 
G01 X-1.2487 Y0.2346 
G01 X-1.3050 Y0.2909 
G01 X-1.3958 Y0.2909 
G01 X-1.3982 Y0.2885 
G01 X-1.4038 Y0.2848 
G01 X-1.4100 Y0.2822 
G01 X-1.4166 Y0.2809 
G01 X-1.4833 Y0.2809 
G01 X-1.4899 Y0.2822 
G01 X-1.4961 Y0.2848 
G01 X-1.5017 Y0.2885 
G01 X-1.5064 Y0.2933 
G01 X-1.5102 Y0.2988 
G01 X-1.5127 Y0.3051 
G01 X-1.5141 Y0.3116 
G01 X-1.5141 Y0.3184 
G01 X-1.5127 Y0.3249 
G01 X-1.5102 Y0.3312 
G01 X-1.5064 Y0.3367 
G01 X-1.5017 Y0.3415 
G01 X-1.4961 Y0.3452 
G01 X-1.4899 Y0.3478 
G01 X-1.4833 Y0.3491 
G01 X-1.4166 Y0.3491 
G01 X-1.4100 Y0.3478 
G01 X-1.4038 Y0.3452 
G01 X-1.3982 Y0.3415 
G01 X-1.3958 Y0.3391 
G01 X-1.2926 Y0.3391 
G01 X-1.2880 Y0.3382 
G01 X-1.2836 Y0.3364 
G01 X-1.2796 Y0.3337 
G01 X-1.2200 Y0.2741 
G01 X-1.1178 Y0.2741 
G01 X-1.1178 Y0.2761 
G01 X-1.1163 Y0.2837 
G01 X-1.1133 Y0.2909 
G01 X-1.1090 Y0.2973 
G01 X-1.1035 Y0.3028 
G01 X-1.0971 Y0.3071 
G01 X-1.0899 Y0.3101 
G01 X-1.0823 Y0.3116 
G01 X-1.0745 Y0.3116 
G01 X-1.0669 Y0.3101 
G01 X-1.0598 Y0.3071 
G01 X-1.0533 Y0.3028 
G01 X-1.0479 Y0.2973 
G01 X-1.0436 Y0.2909 
G01 X-1.0406 Y0.2837 
G01 X-1.0391 Y0.2761 
G00 Z0.1000 
G00 X-2.2578 Y2.6509 
G01 Z-0.0100 F10.00 
G01 X-2.2578 Y2.7291 
G01 X-2.2563 Y2.7367 
G01 X-2.2533 Y2.7439 
G01 X-2.2490 Y2.7503 
G01 X-2.2435 Y2.7558 
G01 X-2.2371 Y2.7601 
G01 X-2.2299 Y2.7631 
G01 X-2.2223 Y2.7646 
G01 X-2.2145 Y2.7646 
G01 X-2.2069 Y2.7631 
G01 X-2.1998 Y2.7601 
G01 X-2.1933 Y2.7558 
G01 X-2.1879 Y2.7503 
G01 X-2.1836 Y2.7439 
G01 X-2.1806 Y2.7367 
G01 X-2.1791 Y2.7291 
G01 X-2.1791 Y2.6509 
G01 X-2.1806 Y2.6433 
G01 X-2.1836 Y2.6361 
G01 X-2.1879 Y2.6297 
G01 X-2.1933 Y2.6242 
G01 X-2.1959 Y2.6225 
G01 X-2.1959 Y2.5376 
G01 X-2.1968 Y2.5330 
G01 X-2.1986 Y2.5286 
G01 X-2.2013 Y2.5246 
G01 X-2.2046 Y2.5213 
G01 X-2.2086 Y2.5186 
G01 X-2.2130 Y2.5168 
G01 X-2.2176 Y2.5159 
G01 X-2.3500 Y2.5159 
G01 X-2.4359 Y2.4300 
G01 X-2.4359 Y2.3000 
G01 X-2.3790 Y2.2431 
G01 X-2.3582 Y2.2431 
G01 X-2.3558 Y2.2455 
G01 X-2.3502 Y2.2492 
G01 X-2.3440 Y2.2518 
G01 X-2.3374 Y2.2531 
G01 X-2.2707 Y2.2531 
G01 X-2.2641 Y2.2518 
G01 X-2.2579 Y2.2492 
G01 X-2.2523 Y2.2455 
G01 X-2.2476 Y2.2407 
G01 X-2.2438 Y2.2352 
G01 X-2.2413 Y2.2289 
G01 X-2.2399 Y2.2224 
G01 X-2.2399 Y2.2156 
G01 X-2.2413 Y2.2091 
G01 X-2.2438 Y2.2028 
G01 X-2.2476 Y2.1973 
G01 X-2.2523 Y2.1925 
G01 X-2.2579 Y2.1888 
G01 X-2.2641 Y2.1862 
G01 X-2.2707 Y2.1849 
G01 X-2.3374 Y2.1849 
G01 X-2.3440 Y2.1862 
G01 X-2.3502 Y2.1888 
G01 X-2.3558 Y2.1925 
G01 X-2.3582 Y2.1949 
G01 X-2.3914 Y2.1949 
G01 X-2.3960 Y2.1958 
G01 X-2.4004 Y2.1976 
G01 X-2.4044 Y2.2003 
G01 X-2.4754 Y2.2713 
G01 X-2.4754 Y2.2713 
G01 X-2.4787 Y2.2746 
G01 X-2.4814 Y2.2786 
G01 X-2.4832 Y2.2830 
G01 X-2.4841 Y2.2876 
G01 X-2.4841 Y2.4424 
G01 X-2.4832 Y2.4470 
G01 X-2.4814 Y2.4514 
G01 X-2.4787 Y2.4554 
G01 X-2.3787 Y2.5554 
G01 X-2.3754 Y2.5587 
G01 X-2.3714 Y2.5614 
G01 X-2.3670 Y2.5632 
G01 X-2.3624 Y2.5641 
G01 X-2.2441 Y2.5641 
G01 X-2.2441 Y2.6248 
G01 X-2.2490 Y2.6297 
G01 X-2.2533 Y2.6361 
G01 X-2.2563 Y2.6433 
G01 X-2.2578 Y2.6509 
G00 Z0.1000 
G00 X-2.0609 Y2.6509 
G01 Z-0.0100 F10.00 
G01 X-2.0609 Y2.7291 
G01 X-2.0594 Y2.7367 
G01 X-2.0564 Y2.7439 
G01 X-2.0521 Y2.7503 
G01 X-2.0467 Y2.7558 
G01 X-2.0402 Y2.7601 
G01 X-2.0331 Y2.7631 
G01 X-2.0255 Y2.7646 
G01 X-2.0177 Y2.7646 
G01 X-2.0101 Y2.7631 
G01 X-2.0029 Y2.7601 
G01 X-1.9965 Y2.7558 
G01 X-1.9910 Y2.7503 
G01 X-1.9867 Y2.7439 
G01 X-1.9837 Y2.7367 
G01 X-1.9822 Y2.7291 
G01 X-1.9822 Y2.6847 
G01 X-1.8746 Y2.5771 
G01 X-1.8746 Y2.5771 
G01 X-1.8713 Y2.5738 
G01 X-1.8686 Y2.5698 
G01 X-1.8668 Y2.5655 
G01 X-1.8659 Y2.5608 
G01 X-1.8659 Y2.2176 
G01 X-1.8668 Y2.2130 
G01 X-1.8686 Y2.2086 
G01 X-1.8713 Y2.2046 
G01 X-1.8746 Y2.2013 
G01 X-1.8746 Y2.2013 
G01 X-1.8756 Y2.2003 
G01 X-1.8796 Y2.1976 
G01 X-1.8840 Y2.1958 
G01 X-1.8886 Y2.1949 
G01 X-1.9559 Y2.1949 
G01 X-1.9583 Y2.1925 
G01 X-1.9639 Y2.1888 
G01 X-1.9701 Y2.1862 
G01 X-1.9767 Y2.1849 
G01 X-2.0434 Y2.1849 
G01 X-2.0500 Y2.1862 
G01 X-2.0562 Y2.1888 
G01 X-2.0618 Y2.1925 
G01 X-2.0665 Y2.1973 
G01 X-2.0703 Y2.2028 
G01 X-2.0728 Y2.2091 
G01 X-2.0741 Y2.2156 
G01 X-2.0741 Y2.2224 
G01 X-2.0728 Y2.2289 
G01 X-2.0703 Y2.2352 
G01 X-2.0665 Y2.2407 
G01 X-2.0618 Y2.2455 
G01 X-2.0562 Y2.2492 
G01 X-2.0500 Y2.2518 
G01 X-2.0434 Y2.2531 
G01 X-1.9767 Y2.2531 
G01 X-1.9701 Y2.2518 
G01 X-1.9639 Y2.2492 
G01 X-1.9583 Y2.2455 
G01 X-1.9559 Y2.2431 
G01 X-1.9141 Y2.2431 
G01 X-1.9141 Y2.5484 
G01 X-1.9932 Y2.6275 
G01 X-1.9965 Y2.6242 
G01 X-2.0029 Y2.6199 
G01 X-2.0101 Y2.6169 
G01 X-2.0177 Y2.6154 
G01 X-2.0255 Y2.6154 
G01 X-2.0331 Y2.6169 
G01 X-2.0402 Y2.6199 
G01 X-2.0467 Y2.6242 
G01 X-2.0521 Y2.6297 
G01 X-2.0564 Y2.6361 
G01 X-2.0594 Y2.6433 
G01 X-2.0609 Y2.6509 
G00 Z0.1000 
G00 X-1.8641 Y2.6509 
G01 Z-0.0100 F10.00 
G01 X-1.8641 Y2.7291 
G01 X-1.8626 Y2.7367 
G01 X-1.8596 Y2.7439 
G01 X-1.8553 Y2.7503 
G01 X-1.8498 Y2.7558 
G01 X-1.8434 Y2.7601 
G01 X-1.8362 Y2.7631 
G01 X-1.8286 Y2.7646 
G01 X-1.8208 Y2.7646 
G01 X-1.8132 Y2.7631 
G01 X-1.8061 Y2.7601 
G01 X-1.7996 Y2.7558 
G01 X-1.7942 Y2.7503 
G01 X-1.7899 Y2.7439 
G01 X-1.7869 Y2.7367 
G01 X-1.7854 Y2.7291 
G01 X-1.7854 Y2.6847 
G01 X-1.7713 Y2.6706 
G01 X-1.7686 Y2.6667 
G01 X-1.7668 Y2.6623 
G01 X-1.7659 Y2.6576 
G01 X-1.7659 Y2.2800 
G01 X-1.7260 Y2.2401 
G01 X-1.7182 Y2.2401 
G01 X-1.7158 Y2.2425 
G01 X-1.7102 Y2.2462 
G01 X-1.7040 Y2.2488 
G01 X-1.6974 Y2.2501 
G01 X-1.6307 Y2.2501 
G01 X-1.6241 Y2.2488 
G01 X-1.6179 Y2.2462 
G01 X-1.6123 Y2.2425 
G01 X-1.6076 Y2.2377 
G01 X-1.6038 Y2.2322 
G01 X-1.6013 Y2.2259 
G01 X-1.5999 Y2.2194 
G01 X-1.5999 Y2.2126 
G01 X-1.6013 Y2.2061 
G01 X-1.6038 Y2.1998 
G01 X-1.6076 Y2.1943 
G01 X-1.6123 Y2.1895 
G01 X-1.6179 Y2.1858 
G01 X-1.6241 Y2.1832 
G01 X-1.6307 Y2.1819 
G01 X-1.6974 Y2.1819 
G01 X-1.7040 Y2.1832 
G01 X-1.7102 Y2.1858 
G01 X-1.7158 Y2.1895 
G01 X-1.7182 Y2.1919 
G01 X-1.7384 Y2.1919 
G01 X-1.7430 Y2.1928 
G01 X-1.7474 Y2.1946 
G01 X-1.7514 Y2.1973 
G01 X-1.8087 Y2.2546 
G01 X-1.8114 Y2.2586 
G01 X-1.8132 Y2.2630 
G01 X-1.8141 Y2.2676 
G01 X-1.8141 Y2.6167 
G01 X-1.8208 Y2.6154 
G01 X-1.8286 Y2.6154 
G01 X-1.8362 Y2.6169 
G01 X-1.8434 Y2.6199 
G01 X-1.8498 Y2.6242 
G01 X-1.8553 Y2.6297 
G01 X-1.8596 Y2.6361 
G01 X-1.8626 Y2.6433 
G01 X-1.8641 Y2.6509 
G00 Z0.1000 
G00 X-1.0678 Y2.6459 
G01 Z-0.0100 F10.00 
G01 X-1.0678 Y2.7241 
G01 X-1.0663 Y2.7317 
G01 X-1.0633 Y2.7389 
G01 X-1.0590 Y2.7453 
G01 X-1.0535 Y2.7508 
G01 X-1.0471 Y2.7551 
G01 X-1.0399 Y2.7581 
G01 X-1.0323 Y2.7596 
G01 X-1.0245 Y2.7596 
G01 X-1.0169 Y2.7581 
G01 X-1.0098 Y2.7551 
G01 X-1.0033 Y2.7508 
G01 X-0.9979 Y2.7453 
G01 X-0.9936 Y2.7389 
G01 X-0.9906 Y2.7317 
G01 X-0.9891 Y2.7241 
G01 X-0.9891 Y2.6459 
G01 X-0.9906 Y2.6383 
G01 X-0.9936 Y2.6311 
G01 X-0.9979 Y2.6247 
G01 X-1.0033 Y2.6192 
G01 X-1.0059 Y2.6175 
G01 X-1.0059 Y2.2976 
G01 X-1.0068 Y2.2930 
G01 X-1.0086 Y2.2886 
G01 X-1.0113 Y2.2846 
G01 X-1.0976 Y2.1983 
G01 X-1.1016 Y2.1956 
G01 X-1.1060 Y2.1938 
G01 X-1.1106 Y2.1929 
G01 X-1.1419 Y2.1929 
G01 X-1.1443 Y2.1905 
G01 X-1.1499 Y2.1868 
G01 X-1.1561 Y2.1842 
G01 X-1.1627 Y2.1829 
G01 X-1.2294 Y2.1829 
G01 X-1.2360 Y2.1842 
G01 X-1.2422 Y2.1868 
G01 X-1.2478 Y2.1905 
G01 X-1.2525 Y2.1953 
G01 X-1.2563 Y2.2008 
G01 X-1.2588 Y2.2071 
G01 X-1.2601 Y2.2136 
G01 X-1.2601 Y2.2204 
G01 X-1.2588 Y2.2269 
G01 X-1.2563 Y2.2332 
G01 X-1.2525 Y2.2387 
G01 X-1.2478 Y2.2435 
G01 X-1.2422 Y2.2472 
G01 X-1.2360 Y2.2498 
G01 X-1.2294 Y2.2511 
G01 X-1.1627 Y2.2511 
G01 X-1.1561 Y2.2498 
G01 X-1.1499 Y2.2472 
G01 X-1.1443 Y2.2435 
G01 X-1.1419 Y2.2411 
G01 X-1.1230 Y2.2411 
G01 X-1.0541 Y2.3100 
G01 X-1.0541 Y2.6198 
G01 X-1.0590 Y2.6247 
G01 X-1.0633 Y2.6311 
G01 X-1.0663 Y2.6383 
G01 X-1.0678 Y2.6459 
G00 Z0.1000 
G00 X-0.6741 Y2.6459 
G01 Z-0.0100 F10.00 
G01 X-0.6741 Y2.7241 
G01 X-0.6726 Y2.7317 
G01 X-0.6696 Y2.7389 
G01 X-0.6653 Y2.7453 
G01 X-0.6598 Y2.7508 
G01 X-0.6534 Y2.7551 
G01 X-0.6462 Y2.7581 
G01 X-0.6386 Y2.7596 
G01 X-0.6308 Y2.7596 
G01 X-0.6232 Y2.7581 
G01 X-0.6161 Y2.7551 
G01 X-0.6096 Y2.7508 
G01 X-0.6042 Y2.7453 
G01 X-0.5999 Y2.7389 
G01 X-0.5969 Y2.7317 
G01 X-0.5954 Y2.7241 
G01 X-0.5954 Y2.6795 
G01 X-0.5146 Y2.5987 
G01 X-0.5113 Y2.5954 
G01 X-0.5086 Y2.5914 
G01 X-0.5068 Y2.5870 
G01 X-0.5059 Y2.5824 
G01 X-0.5059 Y2.2800 
G01 X-0.4730 Y2.2471 
G01 X-0.4522 Y2.2471 
G01 X-0.4498 Y2.2495 
G01 X-0.4442 Y2.2532 
G01 X-0.4380 Y2.2558 
G01 X-0.4314 Y2.2571 
G01 X-0.3647 Y2.2571 
G01 X-0.3581 Y2.2558 
G01 X-0.3519 Y2.2532 
G01 X-0.3463 Y2.2495 
G01 X-0.3416 Y2.2447 
G01 X-0.3378 Y2.2392 
G01 X-0.3353 Y2.2329 
G01 X-0.3339 Y2.2264 
G01 X-0.3339 Y2.2196 
G01 X-0.3353 Y2.2131 
G01 X-0.3378 Y2.2068 
G01 X-0.3416 Y2.2013 
G01 X-0.3463 Y2.1965 
G01 X-0.3519 Y2.1928 
G01 X-0.3581 Y2.1902 
G01 X-0.3647 Y2.1889 
G01 X-0.4314 Y2.1889 
G01 X-0.4380 Y2.1902 
G01 X-0.4442 Y2.1928 
G01 X-0.4498 Y2.1965 
G01 X-0.4522 Y2.1989 
G01 X-0.4854 Y2.1989 
G01 X-0.4900 Y2.1998 
G01 X-0.4944 Y2.2016 
G01 X-0.4984 Y2.2043 
G01 X-0.5487 Y2.2546 
G01 X-0.5514 Y2.2586 
G01 X-0.5532 Y2.2630 
G01 X-0.5541 Y2.2676 
G01 X-0.5541 Y2.5700 
G01 X-0.6065 Y2.6224 
G01 X-0.6096 Y2.6192 
G01 X-0.6161 Y2.6149 
G01 X-0.6232 Y2.6119 
G01 X-0.6308 Y2.6104 
G01 X-0.6386 Y2.6104 
G01 X-0.6462 Y2.6119 
G01 X-0.6534 Y2.6149 
G01 X-0.6598 Y2.6192 
G01 X-0.6653 Y2.6247 
G01 X-0.6696 Y2.6311 
G01 X-0.6726 Y2.6383 
G01 X-0.6741 Y2.6459 
G00 Z0.1000 
G00 X-0.6066 Y1.2959 
G01 Z-0.0100 F10.00 
G01 X-0.6734 Y1.2959 
G01 X-0.6799 Y1.2972 
G01 X-0.6862 Y1.2998 
G01 X-0.6917 Y1.3035 
G01 X-0.6965 Y1.3083 
G01 X-0.7002 Y1.3138 
G01 X-0.7028 Y1.3201 
G01 X-0.7041 Y1.3266 
G01 X-0.7041 Y1.3334 
G01 X-0.7028 Y1.3399 
G01 X-0.7002 Y1.3462 
G01 X-0.6965 Y1.3517 
G01 X-0.6917 Y1.3565 
G01 X-0.6862 Y1.3602 
G01 X-0.6799 Y1.3628 
G01 X-0.6734 Y1.3641 
G01 X-0.6066 Y1.3641 
G01 X-0.6001 Y1.3628 
G01 X-0.5938 Y1.3602 
G01 X-0.5883 Y1.3565 
G01 X-0.5835 Y1.3517 
G01 X-0.5798 Y1.3462 
G01 X-0.5772 Y1.3399 
G01 X-0.5759 Y1.3334 
G01 X-0.5759 Y1.3266 
G01 X-0.5772 Y1.3201 
G01 X-0.5798 Y1.3138 
G01 X-0.5835 Y1.3083 
G01 X-0.5883 Y1.3035 
G01 X-0.5938 Y1.2998 
G01 X-0.6001 Y1.2972 
G01 X-0.6066 Y1.2959 
G00 Z0.1000 
G00 X-0.6066 Y1.4959 
G01 Z-0.0100 F10.00 
G01 X-0.6734 Y1.4959 
G01 X-0.6799 Y1.4972 
G01 X-0.6862 Y1.4998 
G01 X-0.6917 Y1.5035 
G01 X-0.6965 Y1.5083 
G01 X-0.7002 Y1.5138 
G01 X-0.7028 Y1.5201 
G01 X-0.7041 Y1.5266 
G01 X-0.7041 Y1.5334 
G01 X-0.7028 Y1.5399 
G01 X-0.7002 Y1.5462 
G01 X-0.6965 Y1.5517 
G01 X-0.6917 Y1.5565 
G01 X-0.6862 Y1.5602 
G01 X-0.6799 Y1.5628 
G01 X-0.6734 Y1.5641 
G01 X-0.6066 Y1.5641 
G01 X-0.6001 Y1.5628 
G01 X-0.5938 Y1.5602 
G01 X-0.5883 Y1.5565 
G01 X-0.5835 Y1.5517 
G01 X-0.5798 Y1.5462 
G01 X-0.5772 Y1.5399 
G01 X-0.5759 Y1.5334 
G01 X-0.5759 Y1.5266 
G01 X-0.5772 Y1.5201 
G01 X-0.5798 Y1.5138 
G01 X-0.5835 Y1.5083 
G01 X-0.5883 Y1.5035 
G01 X-0.5938 Y1.4998 
G01 X-0.6001 Y1.4972 
G01 X-0.6066 Y1.4959 
G00 Z0.1000 
G00 X-0.6066 Y1.5959 
G01 Z-0.0100 F10.00 
G01 X-0.6734 Y1.5959 
G01 X-0.6799 Y1.5972 
G01 X-0.6862 Y1.5998 
G01 X-0.6917 Y1.6035 
G01 X-0.6921 Y1.6038 
G01 X-0.7959 Y1.5000 
G01 X-0.7959 Y1.2276 
G01 X-0.7968 Y1.2230 
G01 X-0.7986 Y1.2186 
G01 X-0.8013 Y1.2146 
G01 X-1.2013 Y0.8146 
G01 X-1.2046 Y0.8113 
G01 X-1.2086 Y0.8086 
G01 X-1.2130 Y0.8068 
G01 X-1.2176 Y0.8059 
G01 X-1.6559 Y0.8059 
G01 X-1.6583 Y0.8035 
G01 X-1.6638 Y0.7998 
G01 X-1.6701 Y0.7972 
G01 X-1.6766 Y0.7959 
G01 X-1.7434 Y0.7959 
G01 X-1.7499 Y0.7972 
G01 X-1.7562 Y0.7998 
G01 X-1.7617 Y0.8035 
G01 X-1.7665 Y0.8083 
G01 X-1.7702 Y0.8138 
G01 X-1.7728 Y0.8201 
G01 X-1.7741 Y0.8266 
G01 X-1.7741 Y0.8334 
G01 X-1.7728 Y0.8399 
G01 X-1.7702 Y0.8462 
G01 X-1.7665 Y0.8517 
G01 X-1.7617 Y0.8565 
G01 X-1.7562 Y0.8602 
G01 X-1.7499 Y0.8628 
G01 X-1.7434 Y0.8641 
G01 X-1.6766 Y0.8641 
G01 X-1.6701 Y0.8628 
G01 X-1.6638 Y0.8602 
G01 X-1.6583 Y0.8565 
G01 X-1.6559 Y0.8541 
G01 X-1.2300 Y0.8541 
G01 X-0.8441 Y1.2400 
G01 X-0.8441 Y1.5124 
G01 X-0.8432 Y1.5170 
G01 X-0.8414 Y1.5214 
G01 X-0.8387 Y1.5254 
G01 X-0.8354 Y1.5287 
G01 X-0.7154 Y1.6487 
G01 X-0.7114 Y1.6514 
G01 X-0.7070 Y1.6532 
G01 X-0.7024 Y1.6541 
G01 X-0.6941 Y1.6541 
G01 X-0.6917 Y1.6565 
G01 X-0.6862 Y1.6602 
G01 X-0.6799 Y1.6628 
G01 X-0.6734 Y1.6641 
G01 X-0.6066 Y1.6641 
G01 X-0.6001 Y1.6628 
G01 X-0.5938 Y1.6602 
G01 X-0.5883 Y1.6565 
G01 X-0.5835 Y1.6517 
G01 X-0.5798 Y1.6462 
G01 X-0.5772 Y1.6399 
G01 X-0.5759 Y1.6334 
G01 X-0.5759 Y1.6266 
G01 X-0.5772 Y1.6201 
G01 X-0.5798 Y1.6138 
G01 X-0.5835 Y1.6083 
G01 X-0.5883 Y1.6035 
G01 X-0.5938 Y1.5998 
G01 X-0.6001 Y1.5972 
G01 X-0.6066 Y1.5959 
G00 Z0.1000 
G00 X-0.6066 Y1.6959 
G01 Z-0.0100 F10.00 
G01 X-0.6734 Y1.6959 
G01 X-0.6799 Y1.6972 
G01 X-0.6862 Y1.6998 
G01 X-0.6917 Y1.7035 
G01 X-0.6965 Y1.7083 
G01 X-0.7002 Y1.7138 
G01 X-0.7028 Y1.7201 
G01 X-0.7041 Y1.7266 
G01 X-0.7041 Y1.7334 
G01 X-0.7028 Y1.7399 
G01 X-0.7002 Y1.7462 
G01 X-0.6965 Y1.7517 
G01 X-0.6917 Y1.7565 
G01 X-0.6862 Y1.7602 
G01 X-0.6799 Y1.7628 
G01 X-0.6734 Y1.7641 
G01 X-0.6066 Y1.7641 
G01 X-0.6001 Y1.7628 
G01 X-0.5938 Y1.7602 
G01 X-0.5883 Y1.7565 
G01 X-0.5835 Y1.7517 
G01 X-0.5798 Y1.7462 
G01 X-0.5772 Y1.7399 
G01 X-0.5759 Y1.7334 
G01 X-0.5759 Y1.7266 
G01 X-0.5772 Y1.7201 
G01 X-0.5798 Y1.7138 
G01 X-0.5835 Y1.7083 
G01 X-0.5883 Y1.7035 
G01 X-0.5938 Y1.6998 
G01 X-0.6001 Y1.6972 
G01 X-0.6066 Y1.6959 
G00 Z0.1000 
G00 X-0.6066 Y1.7959 
G01 Z-0.0100 F10.00 
G01 X-0.6734 Y1.7959 
G01 X-0.6799 Y1.7972 
G01 X-0.6862 Y1.7998 
G01 X-0.6917 Y1.8035 
G01 X-0.6965 Y1.8083 
G01 X-0.7002 Y1.8138 
G01 X-0.7028 Y1.8201 
G01 X-0.7041 Y1.8266 
G01 X-0.7041 Y1.8334 
G01 X-0.7028 Y1.8399 
G01 X-0.7002 Y1.8462 
G01 X-0.6965 Y1.8517 
G01 X-0.6917 Y1.8565 
G01 X-0.6862 Y1.8602 
G01 X-0.6799 Y1.8628 
G01 X-0.6734 Y1.8641 
G01 X-0.6066 Y1.8641 
G01 X-0.6001 Y1.8628 
G01 X-0.5938 Y1.8602 
G01 X-0.5883 Y1.8565 
G01 X-0.5835 Y1.8517 
G01 X-0.5798 Y1.8462 
G01 X-0.5772 Y1.8399 
G01 X-0.5759 Y1.8334 
G01 X-0.5759 Y1.8266 
G01 X-0.5772 Y1.8201 
G01 X-0.5798 Y1.8138 
G01 X-0.5835 Y1.8083 
G01 X-0.5883 Y1.8035 
G01 X-0.5938 Y1.7998 
G01 X-0.6001 Y1.7972 
G01 X-0.6066 Y1.7959 
G00 Z0.1000 
G00 X-1.6766 Y0.6959 
G01 Z-0.0100 F10.00 
G01 X-1.7434 Y0.6959 
G01 X-1.7499 Y0.6972 
G01 X-1.7562 Y0.6998 
G01 X-1.7617 Y0.7035 
G01 X-1.7665 Y0.7083 
G01 X-1.7702 Y0.7138 
G01 X-1.7728 Y0.7201 
G01 X-1.7741 Y0.7266 
G01 X-1.7741 Y0.7334 
G01 X-1.7728 Y0.7399 
G01 X-1.7702 Y0.7462 
G01 X-1.7665 Y0.7517 
G01 X-1.7617 Y0.7565 
G01 X-1.7562 Y0.7602 
G01 X-1.7499 Y0.7628 
G01 X-1.7434 Y0.7641 
G01 X-1.6766 Y0.7641 
G01 X-1.6701 Y0.7628 
G01 X-1.6638 Y0.7602 
G01 X-1.6583 Y0.7565 
G01 X-1.6535 Y0.7517 
G01 X-1.6498 Y0.7462 
G01 X-1.6472 Y0.7399 
G01 X-1.6459 Y0.7334 
G01 X-1.6459 Y0.7266 
G01 X-1.6472 Y0.7201 
G01 X-1.6498 Y0.7138 
G01 X-1.6535 Y0.7083 
G01 X-1.6583 Y0.7035 
G01 X-1.6638 Y0.6998 
G01 X-1.6701 Y0.6972 
G01 X-1.6766 Y0.6959 
G00 Z0.1000 
G00 X-1.6766 Y0.9959 
G01 Z-0.0100 F10.00 
G01 X-1.7434 Y0.9959 
G01 X-1.7499 Y0.9972 
G01 X-1.7562 Y0.9998 
G01 X-1.7617 Y1.0035 
G01 X-1.7641 Y1.0059 
G01 X-1.8900 Y1.0059 
G01 X-2.1146 Y0.7813 
G01 X-2.1186 Y0.7786 
G01 X-2.1230 Y0.7768 
G01 X-2.1276 Y0.7759 
G01 X-2.3200 Y0.7759 
G01 X-2.3846 Y0.7113 
G01 X-2.3886 Y0.7086 
G01 X-2.3930 Y0.7068 
G01 X-2.3976 Y0.7059 
G01 X-2.4859 Y0.7059 
G01 X-2.4883 Y0.7035 
G01 X-2.4938 Y0.6998 
G01 X-2.5001 Y0.6972 
G01 X-2.5066 Y0.6959 
G01 X-2.5734 Y0.6959 
G01 X-2.5799 Y0.6972 
G01 X-2.5862 Y0.6998 
G01 X-2.5917 Y0.7035 
G01 X-2.5965 Y0.7083 
G01 X-2.6002 Y0.7138 
G01 X-2.6028 Y0.7201 
G01 X-2.6041 Y0.7266 
G01 X-2.6041 Y0.7334 
G01 X-2.6028 Y0.7399 
G01 X-2.6002 Y0.7462 
G01 X-2.5965 Y0.7517 
G01 X-2.5917 Y0.7565 
G01 X-2.5862 Y0.7602 
G01 X-2.5799 Y0.7628 
G01 X-2.5734 Y0.7641 
G01 X-2.5066 Y0.7641 
G01 X-2.5001 Y0.7628 
G01 X-2.4938 Y0.7602 
G01 X-2.4883 Y0.7565 
G01 X-2.4859 Y0.7541 
G01 X-2.4100 Y0.7541 
G01 X-2.3487 Y0.8154 
G01 X-2.3454 Y0.8187 
G01 X-2.3414 Y0.8214 
G01 X-2.3370 Y0.8232 
G01 X-2.3324 Y0.8241 
G01 X-2.1400 Y0.8241 
G01 X-1.9187 Y1.0454 
G01 X-1.9154 Y1.0487 
G01 X-1.9114 Y1.0514 
G01 X-1.9070 Y1.0532 
G01 X-1.9024 Y1.0541 
G01 X-1.7641 Y1.0541 
G01 X-1.7617 Y1.0565 
G01 X-1.7562 Y1.0602 
G01 X-1.7499 Y1.0628 
G01 X-1.7434 Y1.0641 
G01 X-1.6766 Y1.0641 
G01 X-1.6701 Y1.0628 
G01 X-1.6638 Y1.0602 
G01 X-1.6583 Y1.0565 
G01 X-1.6535 Y1.0517 
G01 X-1.6498 Y1.0462 
G01 X-1.6472 Y1.0399 
G01 X-1.6459 Y1.0334 
G01 X-1.6459 Y1.0266 
G01 X-1.6472 Y1.0201 
G01 X-1.6498 Y1.0138 
G01 X-1.6535 Y1.0083 
G01 X-1.6583 Y1.0035 
G01 X-1.6638 Y0.9998 
G01 X-1.6701 Y0.9972 
G01 X-1.6766 Y0.9959 
G00 Z0.1000 
G00 X-1.6766 Y1.0959 
G01 Z-0.0100 F10.00 
G01 X-1.7434 Y1.0959 
G01 X-1.7499 Y1.0972 
G01 X-1.7562 Y1.0998 
G01 X-1.7617 Y1.1035 
G01 X-1.7665 Y1.1083 
G01 X-1.7702 Y1.1138 
G01 X-1.7728 Y1.1201 
G01 X-1.7741 Y1.1266 
G01 X-1.7741 Y1.1334 
G01 X-1.7728 Y1.1399 
G01 X-1.7702 Y1.1462 
G01 X-1.7665 Y1.1517 
G01 X-1.7617 Y1.1565 
G01 X-1.7562 Y1.1602 
G01 X-1.7499 Y1.1628 
G01 X-1.7434 Y1.1641 
G01 X-1.6766 Y1.1641 
G01 X-1.6701 Y1.1628 
G01 X-1.6638 Y1.1602 
G01 X-1.6583 Y1.1565 
G01 X-1.6535 Y1.1517 
G01 X-1.6498 Y1.1462 
G01 X-1.6472 Y1.1399 
G01 X-1.6459 Y1.1334 
G01 X-1.6459 Y1.1266 
G01 X-1.6472 Y1.1201 
G01 X-1.6498 Y1.1138 
G01 X-1.6535 Y1.1083 
G01 X-1.6583 Y1.1035 
G01 X-1.6638 Y1.0998 
G01 X-1.6701 Y1.0972 
G01 X-1.6766 Y1.0959 
G00 Z0.1000 
G00 X-2.5734 Y1.3641 
G01 Z-0.0100 F10.00 
G01 X-2.5066 Y1.3641 
G01 X-2.5001 Y1.3628 
G01 X-2.4938 Y1.3602 
G01 X-2.4883 Y1.3565 
G01 X-2.4835 Y1.3517 
G01 X-2.4798 Y1.3462 
G01 X-2.4772 Y1.3399 
G01 X-2.4759 Y1.3334 
G01 X-2.4759 Y1.3266 
G01 X-2.4772 Y1.3201 
G01 X-2.4798 Y1.3138 
G01 X-2.4835 Y1.3083 
G01 X-2.4883 Y1.3035 
G01 X-2.4938 Y1.2998 
G01 X-2.5001 Y1.2972 
G01 X-2.5066 Y1.2959 
G01 X-2.5734 Y1.2959 
G01 X-2.5799 Y1.2972 
G01 X-2.5862 Y1.2998 
G01 X-2.5917 Y1.3035 
G01 X-2.5965 Y1.3083 
G01 X-2.6002 Y1.3138 
G01 X-2.6028 Y1.3201 
G01 X-2.6041 Y1.3266 
G01 X-2.6041 Y1.3334 
G01 X-2.6028 Y1.3399 
G01 X-2.6002 Y1.3462 
G01 X-2.5965 Y1.3517 
G01 X-2.5917 Y1.3565 
G01 X-2.5862 Y1.3602 
G01 X-2.5799 Y1.3628 
G01 X-2.5734 Y1.3641 
G00 Z0.1000 
G00 X-2.5734 Y1.2641 
G01 Z-0.0100 F10.00 
G01 X-2.5066 Y1.2641 
G01 X-2.5001 Y1.2628 
G01 X-2.4938 Y1.2602 
G01 X-2.4883 Y1.2565 
G01 X-2.4859 Y1.2541 
G01 X-2.3176 Y1.2541 
G01 X-2.3130 Y1.2532 
G01 X-2.3086 Y1.2514 
G01 X-2.3046 Y1.2487 
G01 X-2.3013 Y1.2454 
G01 X-2.2513 Y1.1954 
G01 X-2.2486 Y1.1914 
G01 X-2.2468 Y1.1870 
G01 X-2.2459 Y1.1824 
G01 X-2.2459 Y1.0485 
G01 X-2.2399 Y1.0425 
G01 X-2.2399 Y1.0175 
G01 X-2.2575 Y0.9999 
G01 X-2.2825 Y0.9999 
G01 X-2.3001 Y1.0175 
G01 X-2.3001 Y1.0425 
G01 X-2.2941 Y1.0485 
G01 X-2.2941 Y1.1700 
G01 X-2.3300 Y1.2059 
G01 X-2.4859 Y1.2059 
G01 X-2.4883 Y1.2035 
G01 X-2.4938 Y1.1998 
G01 X-2.5001 Y1.1972 
G01 X-2.5066 Y1.1959 
G01 X-2.5734 Y1.1959 
G01 X-2.5799 Y1.1972 
G01 X-2.5862 Y1.1998 
G01 X-2.5917 Y1.2035 
G01 X-2.5965 Y1.2083 
G01 X-2.6002 Y1.2138 
G01 X-2.6028 Y1.2201 
G01 X-2.6041 Y1.2266 
G01 X-2.6041 Y1.2334 
G01 X-2.6028 Y1.2399 
G01 X-2.6002 Y1.2462 
G01 X-2.5965 Y1.2517 
G01 X-2.5917 Y1.2565 
G01 X-2.5862 Y1.2602 
G01 X-2.5799 Y1.2628 
G01 X-2.5734 Y1.2641 
G00 Z0.1000 
G00 X-2.5734 Y1.0641 
G01 Z-0.0100 F10.00 
G01 X-2.5066 Y1.0641 
G01 X-2.5001 Y1.0628 
G01 X-2.4938 Y1.0602 
G01 X-2.4883 Y1.0565 
G01 X-2.4835 Y1.0517 
G01 X-2.4798 Y1.0462 
G01 X-2.4772 Y1.0399 
G01 X-2.4759 Y1.0334 
G01 X-2.4759 Y1.0266 
G01 X-2.4772 Y1.0201 
G01 X-2.4798 Y1.0138 
G01 X-2.4835 Y1.0083 
G01 X-2.4883 Y1.0035 
G01 X-2.4938 Y0.9998 
G01 X-2.5001 Y0.9972 
G01 X-2.5066 Y0.9959 
G01 X-2.5734 Y0.9959 
G01 X-2.5799 Y0.9972 
G01 X-2.5862 Y0.9998 
G01 X-2.5917 Y1.0035 
G01 X-2.5965 Y1.0083 
G01 X-2.6002 Y1.0138 
G01 X-2.6028 Y1.0201 
G01 X-2.6041 Y1.0266 
G01 X-2.6041 Y1.0334 
G01 X-2.6028 Y1.0399 
G01 X-2.6002 Y1.0462 
G01 X-2.5965 Y1.0517 
G01 X-2.5917 Y1.0565 
G01 X-2.5862 Y1.0602 
G01 X-2.5799 Y1.0628 
G01 X-2.5734 Y1.0641 
G00 Z0.1000 
G00 X-2.5734 Y0.9641 
G01 Z-0.0100 F10.00 
G01 X-2.5066 Y0.9641 
G01 X-2.5001 Y0.9628 
G01 X-2.4938 Y0.9602 
G01 X-2.4883 Y0.9565 
G01 X-2.4835 Y0.9517 
G01 X-2.4798 Y0.9462 
G01 X-2.4772 Y0.9399 
G01 X-2.4759 Y0.9334 
G01 X-2.4759 Y0.9266 
G01 X-2.4772 Y0.9201 
G01 X-2.4798 Y0.9138 
G01 X-2.4835 Y0.9083 
G01 X-2.4883 Y0.9035 
G01 X-2.4938 Y0.8998 
G01 X-2.5001 Y0.8972 
G01 X-2.5066 Y0.8959 
G01 X-2.5734 Y0.8959 
G01 X-2.5799 Y0.8972 
G01 X-2.5862 Y0.8998 
G01 X-2.5917 Y0.9035 
G01 X-2.5965 Y0.9083 
G01 X-2.6002 Y0.9138 
G01 X-2.6028 Y0.9201 
G01 X-2.6041 Y0.9266 
G01 X-2.6041 Y0.9334 
G01 X-2.6028 Y0.9399 
G01 X-2.6002 Y0.9462 
G01 X-2.5965 Y0.9517 
G01 X-2.5917 Y0.9565 
G01 X-2.5862 Y0.9602 
G01 X-2.5799 Y0.9628 
G01 X-2.5734 Y0.9641 
G00 Z0.1000 
G00 X-2.5734 Y0.8641 
G01 Z-0.0100 F10.00 
G01 X-2.5066 Y0.8641 
G01 X-2.5001 Y0.8628 
G01 X-2.4938 Y0.8602 
G01 X-2.4883 Y0.8565 
G01 X-2.4835 Y0.8517 
G01 X-2.4798 Y0.8462 
G01 X-2.4772 Y0.8399 
G01 X-2.4759 Y0.8334 
G01 X-2.4759 Y0.8266 
G01 X-2.4772 Y0.8201 
G01 X-2.4798 Y0.8138 
G01 X-2.4835 Y0.8083 
G01 X-2.4883 Y0.8035 
G01 X-2.4938 Y0.7998 
G01 X-2.5001 Y0.7972 
G01 X-2.5066 Y0.7959 
G01 X-2.5734 Y0.7959 
G01 X-2.5799 Y0.7972 
G01 X-2.5862 Y0.7998 
G01 X-2.5917 Y0.8035 
G01 X-2.5965 Y0.8083 
G01 X-2.6002 Y0.8138 
G01 X-2.6028 Y0.8201 
G01 X-2.6041 Y0.8266 
G01 X-2.6041 Y0.8334 
G01 X-2.6028 Y0.8399 
G01 X-2.6002 Y0.8462 
G01 X-2.5965 Y0.8517 
G01 X-2.5917 Y0.8565 
G01 X-2.5862 Y0.8602 
G01 X-2.5799 Y0.8628 
G01 X-2.5734 Y0.8641 
G00 Z0.1000 
G00 X-2.5734 Y0.6641 
G01 Z-0.0100 F10.00 
G01 X-2.5066 Y0.6641 
G01 X-2.5001 Y0.6628 
G01 X-2.4938 Y0.6602 
G01 X-2.4883 Y0.6565 
G01 X-2.4859 Y0.6541 
G01 X-2.3200 Y0.6541 
G01 X-2.2587 Y0.7154 
G01 X-2.2587 Y0.7154 
G01 X-2.2554 Y0.7187 
G01 X-2.2514 Y0.7214 
G01 X-2.2470 Y0.7232 
G01 X-2.2424 Y0.7241 
G01 X-2.0500 Y0.7241 
G01 X-1.8287 Y0.9454 
G01 X-1.8287 Y0.9454 
G01 X-1.8254 Y0.9487 
G01 X-1.8214 Y0.9514 
G01 X-1.8170 Y0.9532 
G01 X-1.8124 Y0.9541 
G01 X-1.7641 Y0.9541 
G01 X-1.7617 Y0.9565 
G01 X-1.7562 Y0.9602 
G01 X-1.7499 Y0.9628 
G01 X-1.7434 Y0.9641 
G01 X-1.6766 Y0.9641 
G01 X-1.6701 Y0.9628 
G01 X-1.6638 Y0.9602 
G01 X-1.6583 Y0.9565 
G01 X-1.6535 Y0.9517 
G01 X-1.6498 Y0.9462 
G01 X-1.6472 Y0.9399 
G01 X-1.6459 Y0.9334 
G01 X-1.6459 Y0.9266 
G01 X-1.6472 Y0.9201 
G01 X-1.6498 Y0.9138 
G01 X-1.6535 Y0.9083 
G01 X-1.6583 Y0.9035 
G01 X-1.6638 Y0.8998 
G01 X-1.6701 Y0.8972 
G01 X-1.6766 Y0.8959 
G01 X-1.7434 Y0.8959 
G01 X-1.7499 Y0.8972 
G01 X-1.7562 Y0.8998 
G01 X-1.7617 Y0.9035 
G01 X-1.7641 Y0.9059 
G01 X-1.8000 Y0.9059 
G01 X-2.0246 Y0.6813 
G01 X-2.0286 Y0.6786 
G01 X-2.0330 Y0.6768 
G01 X-2.0376 Y0.6759 
G01 X-2.2300 Y0.6759 
G01 X-2.2913 Y0.6146 
G01 X-2.2913 Y0.6146 
G01 X-2.2946 Y0.6113 
G01 X-2.2986 Y0.6086 
G01 X-2.3030 Y0.6068 
G01 X-2.3076 Y0.6059 
G01 X-2.4859 Y0.6059 
G01 X-2.4883 Y0.6035 
G01 X-2.4938 Y0.5998 
G01 X-2.5001 Y0.5972 
G01 X-2.5066 Y0.5959 
G01 X-2.5734 Y0.5959 
G01 X-2.5799 Y0.5972 
G01 X-2.5862 Y0.5998 
G01 X-2.5917 Y0.6035 
G01 X-2.5965 Y0.6083 
G01 X-2.6002 Y0.6138 
G01 X-2.6028 Y0.6201 
G01 X-2.6041 Y0.6266 
G01 X-2.6041 Y0.6334 
G01 X-2.6028 Y0.6399 
G01 X-2.6002 Y0.6462 
G01 X-2.5965 Y0.6517 
G01 X-2.5917 Y0.6565 
G01 X-2.5862 Y0.6602 
G01 X-2.5799 Y0.6628 
G01 X-2.5734 Y0.6641 
G00 Z0.1000 
G00 X-2.5734 Y2.2241 
G01 Z-0.0100 F10.00 
G01 X-2.5066 Y2.2241 
G01 X-2.5001 Y2.2228 
G01 X-2.4938 Y2.2202 
G01 X-2.4883 Y2.2165 
G01 X-2.4835 Y2.2117 
G01 X-2.4798 Y2.2062 
G01 X-2.4772 Y2.1999 
G01 X-2.4759 Y2.1934 
G01 X-2.4759 Y2.1866 
G01 X-2.4772 Y2.1801 
G01 X-2.4798 Y2.1738 
G01 X-2.4835 Y2.1683 
G01 X-2.4883 Y2.1635 
G01 X-2.4938 Y2.1598 
G01 X-2.5001 Y2.1572 
G01 X-2.5066 Y2.1559 
G01 X-2.5734 Y2.1559 
G01 X-2.5799 Y2.1572 
G01 X-2.5862 Y2.1598 
G01 X-2.5917 Y2.1635 
G01 X-2.5965 Y2.1683 
G01 X-2.6002 Y2.1738 
G01 X-2.6028 Y2.1801 
G01 X-2.6041 Y2.1866 
G01 X-2.6041 Y2.1934 
G01 X-2.6028 Y2.1999 
G01 X-2.6002 Y2.2062 
G01 X-2.5965 Y2.2117 
G01 X-2.5917 Y2.2165 
G01 X-2.5862 Y2.2202 
G01 X-2.5799 Y2.2228 
G01 X-2.5734 Y2.2241 
G00 Z0.1000 
G00 X-2.5734 Y2.1241 
G01 Z-0.0100 F10.00 
G01 X-2.5066 Y2.1241 
G01 X-2.5001 Y2.1228 
G01 X-2.4938 Y2.1202 
G01 X-2.4883 Y2.1165 
G01 X-2.4835 Y2.1117 
G01 X-2.4798 Y2.1062 
G01 X-2.4772 Y2.0999 
G01 X-2.4759 Y2.0934 
G01 X-2.4759 Y2.0866 
G01 X-2.4772 Y2.0801 
G01 X-2.4798 Y2.0738 
G01 X-2.4835 Y2.0683 
G01 X-2.4883 Y2.0635 
G01 X-2.4938 Y2.0598 
G01 X-2.5001 Y2.0572 
G01 X-2.5066 Y2.0559 
G01 X-2.5734 Y2.0559 
G01 X-2.5799 Y2.0572 
G01 X-2.5862 Y2.0598 
G01 X-2.5917 Y2.0635 
G01 X-2.5965 Y2.0683 
G01 X-2.6002 Y2.0738 
G01 X-2.6028 Y2.0801 
G01 X-2.6041 Y2.0866 
G01 X-2.6041 Y2.0934 
G01 X-2.6028 Y2.0999 
G01 X-2.6002 Y2.1062 
G01 X-2.5965 Y2.1117 
G01 X-2.5917 Y2.1165 
G01 X-2.5862 Y2.1202 
G01 X-2.5799 Y2.1228 
G01 X-2.5734 Y2.1241 
G00 Z0.1000 
G00 X-2.5734 Y2.0241 
G01 Z-0.0100 F10.00 
G01 X-2.5066 Y2.0241 
G01 X-2.5001 Y2.0228 
G01 X-2.4938 Y2.0202 
G01 X-2.4883 Y2.0165 
G01 X-2.4835 Y2.0117 
G01 X-2.4798 Y2.0062 
G01 X-2.4772 Y1.9999 
G01 X-2.4759 Y1.9934 
G01 X-2.4759 Y1.9866 
G01 X-2.4772 Y1.9801 
G01 X-2.4798 Y1.9738 
G01 X-2.4835 Y1.9683 
G01 X-2.4883 Y1.9635 
G01 X-2.4938 Y1.9598 
G01 X-2.5001 Y1.9572 
G01 X-2.5066 Y1.9559 
G01 X-2.5734 Y1.9559 
G01 X-2.5799 Y1.9572 
G01 X-2.5862 Y1.9598 
G01 X-2.5917 Y1.9635 
G01 X-2.5965 Y1.9683 
G01 X-2.6002 Y1.9738 
G01 X-2.6028 Y1.9801 
G01 X-2.6041 Y1.9866 
G01 X-2.6041 Y1.9934 
G01 X-2.6028 Y1.9999 
G01 X-2.6002 Y2.0062 
G01 X-2.5965 Y2.0117 
G01 X-2.5917 Y2.0165 
G01 X-2.5862 Y2.0202 
G01 X-2.5799 Y2.0228 
G01 X-2.5734 Y2.0241 
G00 Z0.1000 
G00 X-2.5734 Y1.9241 
G01 Z-0.0100 F10.00 
G01 X-2.5066 Y1.9241 
G01 X-2.5001 Y1.9228 
G01 X-2.4938 Y1.9202 
G01 X-2.4883 Y1.9165 
G01 X-2.4835 Y1.9117 
G01 X-2.4798 Y1.9062 
G01 X-2.4772 Y1.8999 
G01 X-2.4759 Y1.8934 
G01 X-2.4759 Y1.8866 
G01 X-2.4772 Y1.8801 
G01 X-2.4798 Y1.8738 
G01 X-2.4835 Y1.8683 
G01 X-2.4883 Y1.8635 
G01 X-2.4938 Y1.8598 
G01 X-2.5001 Y1.8572 
G01 X-2.5066 Y1.8559 
G01 X-2.5734 Y1.8559 
G01 X-2.5799 Y1.8572 
G01 X-2.5862 Y1.8598 
G01 X-2.5917 Y1.8635 
G01 X-2.5965 Y1.8683 
G01 X-2.6002 Y1.8738 
G01 X-2.6028 Y1.8801 
G01 X-2.6041 Y1.8866 
G01 X-2.6041 Y1.8934 
G01 X-2.6028 Y1.8999 
G01 X-2.6002 Y1.9062 
G01 X-2.5965 Y1.9117 
G01 X-2.5917 Y1.9165 
G01 X-2.5862 Y1.9202 
G01 X-2.5799 Y1.9228 
G01 X-2.5734 Y1.9241 
G00 Z0.1000 
G00 X-2.5734 Y1.5241 
G01 Z-0.0100 F10.00 
G01 X-2.5066 Y1.5241 
G01 X-2.5001 Y1.5228 
G01 X-2.4938 Y1.5202 
G01 X-2.4883 Y1.5165 
G01 X-2.4835 Y1.5117 
G01 X-2.4798 Y1.5062 
G01 X-2.4772 Y1.4999 
G01 X-2.4759 Y1.4934 
G01 X-2.4759 Y1.4866 
G01 X-2.4772 Y1.4801 
G01 X-2.4798 Y1.4738 
G01 X-2.4835 Y1.4683 
G01 X-2.4883 Y1.4635 
G01 X-2.4938 Y1.4598 
G01 X-2.5001 Y1.4572 
G01 X-2.5066 Y1.4559 
G01 X-2.5734 Y1.4559 
G01 X-2.5799 Y1.4572 
G01 X-2.5862 Y1.4598 
G01 X-2.5917 Y1.4635 
G01 X-2.5965 Y1.4683 
G01 X-2.6002 Y1.4738 
G01 X-2.6028 Y1.4801 
G01 X-2.6041 Y1.4866 
G01 X-2.6041 Y1.4934 
G01 X-2.6028 Y1.4999 
G01 X-2.6002 Y1.5062 
G01 X-2.5965 Y1.5117 
G01 X-2.5917 Y1.5165 
G01 X-2.5862 Y1.5202 
G01 X-2.5799 Y1.5228 
G01 X-2.5734 Y1.5241 
G00 Z0.1000 
G00 X-2.0096 Y0.4475 
G01 Z-0.0100 F10.00 
G01 X-2.0030 Y0.4462 
G01 X-1.9968 Y0.4436 
G01 X-1.9912 Y0.4399 
G01 X-1.9865 Y0.4352 
G01 X-1.9827 Y0.4296 
G01 X-1.9802 Y0.4234 
G01 X-1.9789 Y0.4168 
G01 X-1.9789 Y0.4101 
G01 X-1.9802 Y0.4035 
G01 X-1.9827 Y0.3973 
G01 X-1.9865 Y0.3917 
G01 X-1.9912 Y0.3869 
G01 X-1.9968 Y0.3832 
G01 X-2.0030 Y0.3806 
G01 X-2.0096 Y0.3793 
G01 X-2.0763 Y0.3793 
G01 X-2.0829 Y0.3806 
G01 X-2.0891 Y0.3832 
G01 X-2.0947 Y0.3869 
G01 X-2.0994 Y0.3917 
G01 X-2.1032 Y0.3973 
G01 X-2.1057 Y0.4035 
G01 X-2.1071 Y0.4101 
G01 X-2.1071 Y0.4168 
G01 X-2.1057 Y0.4234 
G01 X-2.1032 Y0.4296 
G01 X-2.0994 Y0.4352 
G01 X-2.0991 Y0.4355 
G01 X-2.1695 Y0.5059 
G01 X-2.2515 Y0.5059 
G01 X-2.2575 Y0.4999 
G01 X-2.2825 Y0.4999 
G01 X-2.3001 Y0.5175 
G01 X-2.3001 Y0.5425 
G01 X-2.2825 Y0.5601 
G01 X-2.2575 Y0.5601 
G01 X-2.2515 Y0.5541 
G01 X-2.1572 Y0.5541 
G01 X-2.1525 Y0.5532 
G01 X-2.1481 Y0.5514 
G01 X-2.1442 Y0.5487 
G01 X-2.0430 Y0.4475 
G01 X-2.0096 Y0.4475 
G00 Z0.1000 
G00 X-2.0763 Y0.3491 
G01 Z-0.0100 F10.00 
G01 X-2.0096 Y0.3491 
G01 X-2.0030 Y0.3478 
G01 X-1.9968 Y0.3452 
G01 X-1.9912 Y0.3415 
G01 X-1.9865 Y0.3367 
G01 X-1.9827 Y0.3312 
G01 X-1.9802 Y0.3249 
G01 X-1.9789 Y0.3184 
G01 X-1.9789 Y0.3116 
G01 X-1.9802 Y0.3051 
G01 X-1.9827 Y0.2988 
G01 X-1.9865 Y0.2933 
G01 X-1.9912 Y0.2885 
G01 X-1.9968 Y0.2848 
G01 X-2.0030 Y0.2822 
G01 X-2.0096 Y0.2809 
G01 X-2.0763 Y0.2809 
G01 X-2.0829 Y0.2822 
G01 X-2.0891 Y0.2848 
G01 X-2.0947 Y0.2885 
G01 X-2.0971 Y0.2909 
G01 X-2.1650 Y0.2909 
G01 X-2.2846 Y0.1713 
G01 X-2.2886 Y0.1686 
G01 X-2.2930 Y0.1668 
G01 X-2.2976 Y0.1659 
G01 X-2.5224 Y0.1659 
G01 X-2.5270 Y0.1668 
G01 X-2.5314 Y0.1686 
G01 X-2.5354 Y0.1713 
G01 X-2.5387 Y0.1746 
G01 X-2.6382 Y0.2741 
G01 X-2.6399 Y0.2717 
G01 X-2.6453 Y0.2662 
G01 X-2.6518 Y0.2619 
G01 X-2.6589 Y0.2589 
G01 X-2.6665 Y0.2574 
G01 X-2.6743 Y0.2574 
G01 X-2.6819 Y0.2589 
G01 X-2.6891 Y0.2619 
G01 X-2.6955 Y0.2662 
G01 X-2.7010 Y0.2717 
G01 X-2.7053 Y0.2781 
G01 X-2.7083 Y0.2853 
G01 X-2.7098 Y0.2929 
G01 X-2.7098 Y0.3711 
G01 X-2.7083 Y0.3787 
G01 X-2.7053 Y0.3859 
G01 X-2.7010 Y0.3923 
G01 X-2.6955 Y0.3978 
G01 X-2.6891 Y0.4021 
G01 X-2.6819 Y0.4051 
G01 X-2.6743 Y0.4066 
G01 X-2.6665 Y0.4066 
G01 X-2.6589 Y0.4051 
G01 X-2.6518 Y0.4021 
G01 X-2.6453 Y0.3978 
G01 X-2.6399 Y0.3923 
G01 X-2.6356 Y0.3859 
G01 X-2.6326 Y0.3787 
G01 X-2.6311 Y0.3711 
G01 X-2.6311 Y0.3352 
G01 X-2.5100 Y0.2141 
G01 X-2.3100 Y0.2141 
G01 X-2.1904 Y0.3337 
G01 X-2.1864 Y0.3364 
G01 X-2.1820 Y0.3382 
G01 X-2.1774 Y0.3391 
G01 X-2.0971 Y0.3391 
G01 X-2.0947 Y0.3415 
G01 X-2.0891 Y0.3452 
G01 X-2.0829 Y0.3478 
G01 X-2.0763 Y0.3491 
G00 Z0.1000 
G00 X-0.7247 Y2.1779 
G01 Z-0.0100 F10.00 
G01 X-0.7914 Y2.1779 
G01 X-0.7980 Y2.1792 
G01 X-0.8042 Y2.1818 
G01 X-0.8098 Y2.1855 
G01 X-0.8145 Y2.1903 
G01 X-0.8183 Y2.1958 
G01 X-0.8208 Y2.2021 
G01 X-0.8221 Y2.2086 
G01 X-0.8221 Y2.2154 
G01 X-0.8208 Y2.2219 
G01 X-0.8183 Y2.2282 
G01 X-0.8145 Y2.2337 
G01 X-0.8098 Y2.2385 
G01 X-0.8042 Y2.2422 
G01 X-0.7980 Y2.2448 
G01 X-0.7914 Y2.2461 
G01 X-0.7247 Y2.2461 
G01 X-0.7181 Y2.2448 
G01 X-0.7119 Y2.2422 
G01 X-0.7063 Y2.2385 
G01 X-0.7039 Y2.2361 
G01 X-0.6441 Y2.2361 
G01 X-0.6441 Y2.3200 
G01 X-0.8469 Y2.5229 
G01 X-0.8503 Y2.5262 
G01 X-0.8529 Y2.5302 
G01 X-0.8547 Y2.5345 
G01 X-0.8557 Y2.5392 
G01 X-0.8557 Y2.6185 
G01 X-0.8567 Y2.6192 
G01 X-0.8621 Y2.6247 
G01 X-0.8664 Y2.6311 
G01 X-0.8694 Y2.6383 
G01 X-0.8709 Y2.6459 
G01 X-0.8709 Y2.7241 
G01 X-0.8694 Y2.7317 
G01 X-0.8664 Y2.7389 
G01 X-0.8621 Y2.7453 
G01 X-0.8567 Y2.7508 
G01 X-0.8502 Y2.7551 
G01 X-0.8431 Y2.7581 
G01 X-0.8355 Y2.7596 
G01 X-0.8277 Y2.7596 
G01 X-0.8201 Y2.7581 
G01 X-0.8129 Y2.7551 
G01 X-0.8065 Y2.7508 
G01 X-0.8010 Y2.7453 
G01 X-0.7967 Y2.7389 
G01 X-0.7937 Y2.7317 
G01 X-0.7922 Y2.7241 
G01 X-0.7922 Y2.6459 
G01 X-0.7937 Y2.6383 
G01 X-0.7967 Y2.6311 
G01 X-0.8010 Y2.6247 
G01 X-0.8065 Y2.6192 
G01 X-0.8075 Y2.6185 
G01 X-0.8075 Y2.5516 
G01 X-0.6046 Y2.3487 
G01 X-0.6013 Y2.3454 
G01 X-0.5986 Y2.3414 
G01 X-0.5968 Y2.3370 
G01 X-0.5959 Y2.3324 
G01 X-0.5959 Y2.2176 
G01 X-0.5968 Y2.2130 
G01 X-0.5986 Y2.2086 
G01 X-0.6013 Y2.2046 
G01 X-0.6046 Y2.2013 
G01 X-0.6126 Y2.1933 
G01 X-0.6166 Y2.1906 
G01 X-0.6210 Y2.1888 
G01 X-0.6256 Y2.1879 
G01 X-0.7039 Y2.1879 
G01 X-0.7063 Y2.1855 
G01 X-0.7119 Y2.1818 
G01 X-0.7181 Y2.1792 
G01 X-0.7247 Y2.1779 
G00 Z0.1000 
G00 X-2.2707 Y2.2833 
G01 Z-0.0100 F10.00 
G01 X-2.3374 Y2.2833 
G01 X-2.3440 Y2.2846 
G01 X-2.3502 Y2.2872 
G01 X-2.3558 Y2.2909 
G01 X-2.3605 Y2.2957 
G01 X-2.3643 Y2.3013 
G01 X-2.3668 Y2.3075 
G01 X-2.3681 Y2.3141 
G01 X-2.3681 Y2.3208 
G01 X-2.3668 Y2.3274 
G01 X-2.3643 Y2.3336 
G01 X-2.3605 Y2.3392 
G01 X-2.3558 Y2.3439 
G01 X-2.3502 Y2.3476 
G01 X-2.3440 Y2.3502 
G01 X-2.3374 Y2.3515 
G01 X-2.2707 Y2.3515 
G01 X-2.2641 Y2.3502 
G01 X-2.2579 Y2.3476 
G01 X-2.2523 Y2.3439 
G01 X-2.2499 Y2.3415 
G01 X-2.0642 Y2.3415 
G01 X-2.0618 Y2.3439 
G01 X-2.0562 Y2.3476 
G01 X-2.0500 Y2.3502 
G01 X-2.0434 Y2.3515 
G01 X-1.9767 Y2.3515 
G01 X-1.9701 Y2.3502 
G01 X-1.9639 Y2.3476 
G01 X-1.9583 Y2.3439 
G01 X-1.9536 Y2.3392 
G01 X-1.9498 Y2.3336 
G01 X-1.9473 Y2.3274 
G01 X-1.9459 Y2.3208 
G01 X-1.9459 Y2.3141 
G01 X-1.9473 Y2.3075 
G01 X-1.9498 Y2.3013 
G01 X-1.9536 Y2.2957 
G01 X-1.9583 Y2.2909 
G01 X-1.9639 Y2.2872 
G01 X-1.9701 Y2.2846 
G01 X-1.9767 Y2.2833 
G01 X-2.0434 Y2.2833 
G01 X-2.0500 Y2.2846 
G01 X-2.0562 Y2.2872 
G01 X-2.0618 Y2.2909 
G01 X-2.0642 Y2.2933 
G01 X-2.1559 Y2.2933 
G01 X-2.1559 Y1.8500 
G01 X-2.0900 Y1.7841 
G01 X-1.5141 Y1.7841 
G01 X-1.5141 Y2.2913 
G01 X-1.6089 Y2.2913 
G01 X-1.6123 Y2.2879 
G01 X-1.6179 Y2.2842 
G01 X-1.6241 Y2.2816 
G01 X-1.6307 Y2.2803 
G01 X-1.6974 Y2.2803 
G01 X-1.7040 Y2.2816 
G01 X-1.7102 Y2.2842 
G01 X-1.7158 Y2.2879 
G01 X-1.7205 Y2.2927 
G01 X-1.7243 Y2.2983 
G01 X-1.7268 Y2.3045 
G01 X-1.7281 Y2.3111 
G01 X-1.7281 Y2.3178 
G01 X-1.7268 Y2.3244 
G01 X-1.7243 Y2.3306 
G01 X-1.7205 Y2.3362 
G01 X-1.7158 Y2.3409 
G01 X-1.7102 Y2.3446 
G01 X-1.7040 Y2.3472 
G01 X-1.6974 Y2.3485 
G01 X-1.6307 Y2.3485 
G01 X-1.6241 Y2.3472 
G01 X-1.6179 Y2.3446 
G01 X-1.6123 Y2.3409 
G01 X-1.6109 Y2.3395 
G01 X-1.2502 Y2.3395 
G01 X-1.2478 Y2.3419 
G01 X-1.2422 Y2.3456 
G01 X-1.2360 Y2.3482 
G01 X-1.2294 Y2.3495 
G01 X-1.1627 Y2.3495 
G01 X-1.1561 Y2.3482 
G01 X-1.1499 Y2.3456 
G01 X-1.1443 Y2.3419 
G01 X-1.1396 Y2.3372 
G01 X-1.1358 Y2.3316 
G01 X-1.1333 Y2.3254 
G01 X-1.1319 Y2.3188 
G01 X-1.1319 Y2.3121 
G01 X-1.1333 Y2.3055 
G01 X-1.1358 Y2.2993 
G01 X-1.1396 Y2.2937 
G01 X-1.1443 Y2.2889 
G01 X-1.1499 Y2.2852 
G01 X-1.1561 Y2.2826 
G01 X-1.1627 Y2.2813 
G01 X-1.2294 Y2.2813 
G01 X-1.2360 Y2.2826 
G01 X-1.2422 Y2.2852 
G01 X-1.2478 Y2.2889 
G01 X-1.2502 Y2.2913 
G01 X-1.4646 Y2.2913 
G01 X-1.4659 Y2.2900 
G01 X-1.4659 Y1.6400 
G01 X-1.4300 Y1.6041 
G01 X-1.2441 Y1.6041 
G01 X-1.2441 Y1.7724 
G01 X-1.2432 Y1.7770 
G01 X-1.2414 Y1.7814 
G01 X-1.2387 Y1.7854 
G01 X-1.2354 Y1.7887 
G01 X-1.2354 Y1.7887 
G01 X-0.9241 Y2.1000 
G01 X-0.9241 Y2.2324 
G01 X-0.9232 Y2.2370 
G01 X-0.9214 Y2.2414 
G01 X-0.9187 Y2.2454 
G01 X-0.9154 Y2.2487 
G01 X-0.9154 Y2.2487 
G01 X-0.8349 Y2.3291 
G01 X-0.8310 Y2.3318 
G01 X-0.8266 Y2.3336 
G01 X-0.8219 Y2.3345 
G01 X-0.8122 Y2.3345 
G01 X-0.8098 Y2.3369 
G01 X-0.8042 Y2.3406 
G01 X-0.7980 Y2.3432 
G01 X-0.7914 Y2.3445 
G01 X-0.7247 Y2.3445 
G01 X-0.7181 Y2.3432 
G01 X-0.7119 Y2.3406 
G01 X-0.7063 Y2.3369 
G01 X-0.7016 Y2.3322 
G01 X-0.6978 Y2.3266 
G01 X-0.6953 Y2.3204 
G01 X-0.6939 Y2.3138 
G01 X-0.6939 Y2.3071 
G01 X-0.6953 Y2.3005 
G01 X-0.6978 Y2.2943 
G01 X-0.7016 Y2.2887 
G01 X-0.7063 Y2.2839 
G01 X-0.7119 Y2.2802 
G01 X-0.7181 Y2.2776 
G01 X-0.7247 Y2.2763 
G01 X-0.7914 Y2.2763 
G01 X-0.7980 Y2.2776 
G01 X-0.8042 Y2.2802 
G01 X-0.8098 Y2.2839 
G01 X-0.8109 Y2.2850 
G01 X-0.8759 Y2.2200 
G01 X-0.8759 Y2.0876 
G01 X-0.8768 Y2.0830 
G01 X-0.8786 Y2.0786 
G01 X-0.8813 Y2.0746 
G01 X-0.8846 Y2.0713 
G01 X-0.8846 Y2.0713 
G01 X-1.1959 Y1.7600 
G01 X-1.1959 Y1.6041 
G01 X-0.8800 Y1.6041 
G01 X-0.8041 Y1.6800 
G01 X-0.8041 Y1.8524 
G01 X-0.8032 Y1.8570 
G01 X-0.8014 Y1.8614 
G01 X-0.7987 Y1.8654 
G01 X-0.7187 Y1.9454 
G01 X-0.7154 Y1.9487 
G01 X-0.7114 Y1.9514 
G01 X-0.7070 Y1.9532 
G01 X-0.7024 Y1.9541 
G01 X-0.2841 Y1.9541 
G01 X-0.2841 Y2.2400 
G01 X-0.3400 Y2.2959 
G01 X-0.3453 Y2.2959 
G01 X-0.3463 Y2.2949 
G01 X-0.3519 Y2.2912 
G01 X-0.3581 Y2.2886 
G01 X-0.3647 Y2.2873 
G01 X-0.4314 Y2.2873 
G01 X-0.4380 Y2.2886 
G01 X-0.4442 Y2.2912 
G01 X-0.4498 Y2.2949 
G01 X-0.4545 Y2.2997 
G01 X-0.4583 Y2.3053 
G01 X-0.4608 Y2.3115 
G01 X-0.4621 Y2.3181 
G01 X-0.4621 Y2.3248 
G01 X-0.4608 Y2.3314 
G01 X-0.4583 Y2.3376 
G01 X-0.4545 Y2.3432 
G01 X-0.4498 Y2.3479 
G01 X-0.4442 Y2.3516 
G01 X-0.4380 Y2.3542 
G01 X-0.4314 Y2.3555 
G01 X-0.3647 Y2.3555 
G01 X-0.3581 Y2.3542 
G01 X-0.3519 Y2.3516 
G01 X-0.3463 Y2.3479 
G01 X-0.3425 Y2.3441 
G01 X-0.3276 Y2.3441 
G01 X-0.3230 Y2.3432 
G01 X-0.3186 Y2.3414 
G01 X-0.3146 Y2.3387 
G01 X-0.3113 Y2.3354 
G01 X-0.2413 Y2.2654 
G01 X-0.2386 Y2.2614 
G01 X-0.2368 Y2.2570 
G01 X-0.2359 Y2.2524 
G01 X-0.2359 Y0.4311 
G01 X-0.2368 Y0.4264 
G01 X-0.2386 Y0.4220 
G01 X-0.2413 Y0.4181 
G01 X-0.4191 Y0.2403 
G01 X-0.4191 Y0.1959 
G01 X-0.4206 Y0.1883 
G01 X-0.4236 Y0.1811 
G01 X-0.4279 Y0.1747 
G01 X-0.4333 Y0.1692 
G01 X-0.4398 Y0.1649 
G01 X-0.4469 Y0.1619 
G01 X-0.4545 Y0.1604 
G01 X-0.4623 Y0.1604 
G01 X-0.4699 Y0.1619 
G01 X-0.4771 Y0.1649 
G01 X-0.4835 Y0.1692 
G01 X-0.4890 Y0.1747 
G01 X-0.4933 Y0.1811 
G01 X-0.4963 Y0.1883 
G01 X-0.4978 Y0.1959 
G01 X-0.4978 Y0.2403 
G01 X-0.6234 Y0.3659 
G01 X-0.8624 Y0.3659 
G01 X-0.8640 Y0.3662 
G01 X-0.9559 Y0.3662 
G01 X-0.9559 Y0.1476 
G01 X-0.9568 Y0.1430 
G01 X-0.9586 Y0.1386 
G01 X-0.9613 Y0.1346 
G01 X-0.9646 Y0.1313 
G01 X-0.9646 Y0.1313 
G01 X-1.0213 Y0.0746 
G01 X-1.0213 Y0.0746 
G01 X-1.0246 Y0.0713 
G01 X-1.0286 Y0.0686 
G01 X-1.0330 Y0.0668 
G01 X-1.0376 Y0.0659 
G01 X-1.3258 Y0.0659 
G01 X-1.3304 Y0.0668 
G01 X-1.3348 Y0.0686 
G01 X-1.3387 Y0.0713 
G01 X-1.4499 Y0.1825 
G01 X-1.4833 Y0.1825 
G01 X-1.4899 Y0.1838 
G01 X-1.4961 Y0.1864 
G01 X-1.5017 Y0.1901 
G01 X-1.5041 Y0.1925 
G01 X-1.9888 Y0.1925 
G01 X-1.9912 Y0.1901 
G01 X-1.9968 Y0.1864 
G01 X-2.0030 Y0.1838 
G01 X-2.0096 Y0.1825 
G01 X-2.0763 Y0.1825 
G01 X-2.0829 Y0.1838 
G01 X-2.0891 Y0.1864 
G01 X-2.0947 Y0.1901 
G01 X-2.0994 Y0.1948 
G01 X-2.1032 Y0.2004 
G01 X-2.1057 Y0.2066 
G01 X-2.1071 Y0.2132 
G01 X-2.1071 Y0.2199 
G01 X-2.1057 Y0.2265 
G01 X-2.1032 Y0.2327 
G01 X-2.0994 Y0.2383 
G01 X-2.0947 Y0.2431 
G01 X-2.0891 Y0.2468 
G01 X-2.0829 Y0.2494 
G01 X-2.0763 Y0.2507 
G01 X-2.0096 Y0.2507 
G01 X-2.0030 Y0.2494 
G01 X-1.9968 Y0.2468 
G01 X-1.9912 Y0.2431 
G01 X-1.9888 Y0.2407 
G01 X-1.5041 Y0.2407 
G01 X-1.5017 Y0.2431 
G01 X-1.4961 Y0.2468 
G01 X-1.4899 Y0.2494 
G01 X-1.4833 Y0.2507 
G01 X-1.4166 Y0.2507 
G01 X-1.4100 Y0.2494 
G01 X-1.4038 Y0.2468 
G01 X-1.3982 Y0.2431 
G01 X-1.3935 Y0.2383 
G01 X-1.3897 Y0.2327 
G01 X-1.3872 Y0.2265 
G01 X-1.3859 Y0.2199 
G01 X-1.3859 Y0.2132 
G01 X-1.3872 Y0.2066 
G01 X-1.3897 Y0.2004 
G01 X-1.3935 Y0.1948 
G01 X-1.3938 Y0.1945 
G01 X-1.3134 Y0.1141 
G01 X-1.0500 Y0.1141 
G01 X-1.0041 Y0.1600 
G01 X-1.0041 Y0.6059 
G01 X-1.6559 Y0.6059 
G01 X-1.6583 Y0.6035 
G01 X-1.6638 Y0.5998 
G01 X-1.6701 Y0.5972 
G01 X-1.6766 Y0.5959 
G01 X-1.7434 Y0.5959 
G01 X-1.7499 Y0.5972 
G01 X-1.7562 Y0.5998 
G01 X-1.7617 Y0.6035 
G01 X-1.7665 Y0.6083 
G01 X-1.7702 Y0.6138 
G01 X-1.7728 Y0.6201 
G01 X-1.7741 Y0.6266 
G01 X-1.7741 Y0.6334 
G01 X-1.7728 Y0.6399 
G01 X-1.7702 Y0.6462 
G01 X-1.7665 Y0.6517 
G01 X-1.7617 Y0.6565 
G01 X-1.7562 Y0.6602 
G01 X-1.7499 Y0.6628 
G01 X-1.7434 Y0.6641 
G01 X-1.6766 Y0.6641 
G01 X-1.6701 Y0.6628 
G01 X-1.6638 Y0.6602 
G01 X-1.6583 Y0.6565 
G01 X-1.6559 Y0.6541 
G01 X-0.9776 Y0.6541 
G01 X-0.9730 Y0.6532 
G01 X-0.9686 Y0.6514 
G01 X-0.9646 Y0.6487 
G01 X-0.9613 Y0.6454 
G01 X-0.9586 Y0.6414 
G01 X-0.9568 Y0.6370 
G01 X-0.9559 Y0.6324 
G01 X-0.9559 Y0.4138 
G01 X-0.8640 Y0.4138 
G01 X-0.8624 Y0.4141 
G01 X-0.6111 Y0.4141 
G01 X-0.6064 Y0.4132 
G01 X-0.6020 Y0.4114 
G01 X-0.5981 Y0.4087 
G01 X-0.5947 Y0.4054 
G01 X-0.4868 Y0.2975 
G01 X-0.4835 Y0.3008 
G01 X-0.4771 Y0.3051 
G01 X-0.4699 Y0.3081 
G01 X-0.4623 Y0.3096 
G01 X-0.4545 Y0.3096 
G01 X-0.4469 Y0.3081 
G01 X-0.4398 Y0.3051 
G01 X-0.4333 Y0.3008 
G01 X-0.4300 Y0.2975 
G01 X-0.2841 Y0.4434 
G01 X-0.2841 Y1.4059 
G01 X-0.5859 Y1.4059 
G01 X-0.5883 Y1.4035 
G01 X-0.5938 Y1.3998 
G01 X-0.6001 Y1.3972 
G01 X-0.6066 Y1.3959 
G01 X-0.6734 Y1.3959 
G01 X-0.6799 Y1.3972 
G01 X-0.6862 Y1.3998 
G01 X-0.6917 Y1.4035 
G01 X-0.6965 Y1.4083 
G01 X-0.7002 Y1.4138 
G01 X-0.7028 Y1.4201 
G01 X-0.7041 Y1.4266 
G01 X-0.7041 Y1.4334 
G01 X-0.7028 Y1.4399 
G01 X-0.7002 Y1.4462 
G01 X-0.6965 Y1.4517 
G01 X-0.6917 Y1.4565 
G01 X-0.6862 Y1.4602 
G01 X-0.6799 Y1.4628 
G01 X-0.6734 Y1.4641 
G01 X-0.6066 Y1.4641 
G01 X-0.6001 Y1.4628 
G01 X-0.5938 Y1.4602 
G01 X-0.5883 Y1.4565 
G01 X-0.5859 Y1.4541 
G01 X-0.2841 Y1.4541 
G01 X-0.2841 Y1.9059 
G01 X-0.6900 Y1.9059 
G01 X-0.7559 Y1.8400 
G01 X-0.7559 Y1.6676 
G01 X-0.7568 Y1.6630 
G01 X-0.7586 Y1.6586 
G01 X-0.7613 Y1.6546 
G01 X-0.7646 Y1.6513 
G01 X-0.7646 Y1.6513 
G01 X-0.8513 Y1.5646 
G01 X-0.8513 Y1.5646 
G01 X-0.8546 Y1.5613 
G01 X-0.8586 Y1.5586 
G01 X-0.8630 Y1.5568 
G01 X-0.8676 Y1.5559 
G01 X-1.4424 Y1.5559 
G01 X-1.4470 Y1.5568 
G01 X-1.4514 Y1.5586 
G01 X-1.4554 Y1.5613 
G01 X-1.4587 Y1.5646 
G01 X-1.5054 Y1.6113 
G01 X-1.5087 Y1.6146 
G01 X-1.5114 Y1.6186 
G01 X-1.5132 Y1.6230 
G01 X-1.5141 Y1.6276 
G01 X-1.5141 Y1.7359 
G01 X-2.1024 Y1.7359 
G01 X-2.1070 Y1.7368 
G01 X-2.1114 Y1.7386 
G01 X-2.1154 Y1.7413 
G01 X-2.1187 Y1.7446 
G01 X-2.1987 Y1.8246 
G01 X-2.2014 Y1.8286 
G01 X-2.2032 Y1.8330 
G01 X-2.2041 Y1.8376 
G01 X-2.2041 Y2.2933 
G01 X-2.2499 Y2.2933 
G01 X-2.2523 Y2.2909 
G01 X-2.2579 Y2.2872 
G01 X-2.2641 Y2.2846 
G01 X-2.2707 Y2.2833 
G00 Z0.1000 
G00 X-1.1627 Y2.0845 
G01 Z-0.0100 F10.00 
G01 X-1.1719 Y2.0845 
G01 X-1.1719 Y2.0066 
G01 X-1.1729 Y2.0019 
G01 X-1.1747 Y1.9975 
G01 X-1.1773 Y1.9936 
G01 X-1.3009 Y1.8700 
G01 X-1.3009 Y1.6985 
G01 X-1.2949 Y1.6925 
G01 X-1.2949 Y1.6675 
G01 X-1.3125 Y1.6499 
G01 X-1.3375 Y1.6499 
G01 X-1.3551 Y1.6675 
G01 X-1.3551 Y1.6925 
G01 X-1.3491 Y1.6985 
G01 X-1.3491 Y1.8824 
G01 X-1.3482 Y1.8870 
G01 X-1.3464 Y1.8914 
G01 X-1.3437 Y1.8954 
G01 X-1.2201 Y2.0189 
G01 X-1.2201 Y2.0845 
G01 X-1.2294 Y2.0845 
G01 X-1.2360 Y2.0858 
G01 X-1.2422 Y2.0884 
G01 X-1.2478 Y2.0921 
G01 X-1.2525 Y2.0968 
G01 X-1.2563 Y2.1024 
G01 X-1.2588 Y2.1086 
G01 X-1.2601 Y2.1152 
G01 X-1.2601 Y2.1219 
G01 X-1.2588 Y2.1285 
G01 X-1.2563 Y2.1347 
G01 X-1.2525 Y2.1403 
G01 X-1.2478 Y2.1451 
G01 X-1.2422 Y2.1488 
G01 X-1.2360 Y2.1514 
G01 X-1.2294 Y2.1527 
G01 X-1.1627 Y2.1527 
G01 X-1.1561 Y2.1514 
G01 X-1.1499 Y2.1488 
G01 X-1.1443 Y2.1451 
G01 X-1.1396 Y2.1403 
G01 X-1.1358 Y2.1347 
G01 X-1.1333 Y2.1285 
G01 X-1.1319 Y2.1219 
G01 X-1.1319 Y2.1152 
G01 X-1.1333 Y2.1086 
G01 X-1.1358 Y2.1024 
G01 X-1.1396 Y2.0968 
G01 X-1.1443 Y2.0921 
G01 X-1.1499 Y2.0884 
G01 X-1.1561 Y2.0858 
G01 X-1.1627 Y2.0845 
G00 Z0.1000 
G00 X-1.6811 Y1.5365 
G01 Z-0.0100 F10.00 
G01 X-1.6811 Y1.5470 
G01 X-1.7500 Y1.6159 
G01 X-2.1224 Y1.6159 
G01 X-2.1270 Y1.6168 
G01 X-2.1314 Y1.6186 
G01 X-2.1354 Y1.6213 
G01 X-2.2800 Y1.7659 
G01 X-2.4859 Y1.7659 
G01 X-2.4883 Y1.7635 
G01 X-2.4938 Y1.7598 
G01 X-2.5001 Y1.7572 
G01 X-2.5066 Y1.7559 
G01 X-2.5734 Y1.7559 
G01 X-2.5799 Y1.7572 
G01 X-2.5862 Y1.7598 
G01 X-2.5917 Y1.7635 
G01 X-2.5965 Y1.7683 
G01 X-2.6002 Y1.7738 
G01 X-2.6028 Y1.7801 
G01 X-2.6041 Y1.7866 
G01 X-2.6041 Y1.7934 
G01 X-2.6028 Y1.7999 
G01 X-2.6002 Y1.8062 
G01 X-2.5965 Y1.8117 
G01 X-2.5917 Y1.8165 
G01 X-2.5862 Y1.8202 
G01 X-2.5799 Y1.8228 
G01 X-2.5734 Y1.8241 
G01 X-2.5066 Y1.8241 
G01 X-2.5001 Y1.8228 
G01 X-2.4938 Y1.8202 
G01 X-2.4883 Y1.8165 
G01 X-2.4859 Y1.8141 
G01 X-2.2676 Y1.8141 
G01 X-2.2630 Y1.8132 
G01 X-2.2586 Y1.8114 
G01 X-2.2546 Y1.8087 
G01 X-2.2513 Y1.8054 
G01 X-2.2513 Y1.8054 
G01 X-2.1100 Y1.6641 
G01 X-1.7376 Y1.6641 
G01 X-1.7330 Y1.6632 
G01 X-1.7286 Y1.6614 
G01 X-1.7246 Y1.6587 
G01 X-1.6450 Y1.5791 
G01 X-1.6385 Y1.5791 
G01 X-1.6209 Y1.5615 
G01 X-1.6209 Y1.5530 
G01 X-1.5520 Y1.4841 
G01 X-0.9176 Y1.4841 
G01 X-0.9130 Y1.4832 
G01 X-0.9086 Y1.4814 
G01 X-0.9046 Y1.4787 
G01 X-0.9013 Y1.4754 
G01 X-0.8973 Y1.4714 
G01 X-0.8946 Y1.4674 
G01 X-0.8928 Y1.4630 
G01 X-0.8919 Y1.4584 
G01 X-0.8919 Y1.2885 
G01 X-0.8859 Y1.2825 
G01 X-0.8859 Y1.2575 
G01 X-0.9035 Y1.2399 
G01 X-0.9285 Y1.2399 
G01 X-0.9461 Y1.2575 
G01 X-0.9461 Y1.2825 
G01 X-0.9401 Y1.2885 
G01 X-0.9401 Y1.4359 
G01 X-1.5644 Y1.4359 
G01 X-1.5690 Y1.4368 
G01 X-1.5734 Y1.4386 
G01 X-1.5774 Y1.4413 
G01 X-1.6550 Y1.5189 
G01 X-1.6635 Y1.5189 
G01 X-1.6811 Y1.5365 
G00 Z0.1000 
G00 X-1.6811 Y1.9365 
G01 Z-0.0100 F10.00 
G01 X-1.6811 Y1.9615 
G01 X-1.6751 Y1.9675 
G01 X-1.6751 Y2.0835 
G01 X-1.6974 Y2.0835 
G01 X-1.7040 Y2.0848 
G01 X-1.7102 Y2.0874 
G01 X-1.7158 Y2.0911 
G01 X-1.7205 Y2.0958 
G01 X-1.7243 Y2.1014 
G01 X-1.7268 Y2.1076 
G01 X-1.7281 Y2.1142 
G01 X-1.7281 Y2.1209 
G01 X-1.7268 Y2.1275 
G01 X-1.7243 Y2.1337 
G01 X-1.7205 Y2.1393 
G01 X-1.7158 Y2.1441 
G01 X-1.7102 Y2.1478 
G01 X-1.7040 Y2.1504 
G01 X-1.6974 Y2.1517 
G01 X-1.6307 Y2.1517 
G01 X-1.6241 Y2.1504 
G01 X-1.6179 Y2.1478 
G01 X-1.6123 Y2.1441 
G01 X-1.6076 Y2.1393 
G01 X-1.6038 Y2.1337 
G01 X-1.6013 Y2.1275 
G01 X-1.5999 Y2.1209 
G01 X-1.5999 Y2.1142 
G01 X-1.6013 Y2.1076 
G01 X-1.6038 Y2.1014 
G01 X-1.6076 Y2.0958 
G01 X-1.6123 Y2.0911 
G01 X-1.6179 Y2.0874 
G01 X-1.6241 Y2.0848 
G01 X-1.6269 Y2.0842 
G01 X-1.6269 Y1.9675 
G01 X-1.6209 Y1.9615 
G01 X-1.6209 Y1.9365 
G01 X-1.6385 Y1.9189 
G01 X-1.6635 Y1.9189 
G01 X-1.6811 Y1.9365 
G00 Z0.1000 
G00 X-2.0205 Y1.5061 
G01 Z-0.0100 F10.00 
G01 X-1.9955 Y1.5061 
G01 X-1.9779 Y1.4885 
G01 X-1.9779 Y1.4820 
G01 X-1.8900 Y1.3941 
G01 X-1.2176 Y1.3941 
G01 X-1.2130 Y1.3932 
G01 X-1.2086 Y1.3914 
G01 X-1.2046 Y1.3887 
G01 X-1.1160 Y1.3001 
G01 X-1.1115 Y1.3001 
G01 X-1.0939 Y1.2825 
G01 X-1.0939 Y1.2575 
G01 X-1.1115 Y1.2399 
G01 X-1.1365 Y1.2399 
G01 X-1.1541 Y1.2575 
G01 X-1.1541 Y1.2700 
G01 X-1.2300 Y1.3459 
G01 X-1.9024 Y1.3459 
G01 X-1.9070 Y1.3468 
G01 X-1.9114 Y1.3486 
G01 X-1.9154 Y1.3513 
G01 X-2.0100 Y1.4459 
G01 X-2.0205 Y1.4459 
G01 X-2.0265 Y1.4519 
G01 X-2.0984 Y1.4519 
G01 X-2.1030 Y1.4528 
G01 X-2.1074 Y1.4546 
G01 X-2.1114 Y1.4573 
G01 X-2.1147 Y1.4606 
G01 X-2.1147 Y1.4606 
G01 X-2.3200 Y1.6659 
G01 X-2.4859 Y1.6659 
G01 X-2.4883 Y1.6635 
G01 X-2.4938 Y1.6598 
G01 X-2.5001 Y1.6572 
G01 X-2.5066 Y1.6559 
G01 X-2.5734 Y1.6559 
G01 X-2.5799 Y1.6572 
G01 X-2.5862 Y1.6598 
G01 X-2.5917 Y1.6635 
G01 X-2.5965 Y1.6683 
G01 X-2.6002 Y1.6738 
G01 X-2.6028 Y1.6801 
G01 X-2.6041 Y1.6866 
G01 X-2.6041 Y1.6934 
G01 X-2.6028 Y1.6999 
G01 X-2.6002 Y1.7062 
G01 X-2.5965 Y1.7117 
G01 X-2.5917 Y1.7165 
G01 X-2.5862 Y1.7202 
G01 X-2.5799 Y1.7228 
G01 X-2.5734 Y1.7241 
G01 X-2.5066 Y1.7241 
G01 X-2.5001 Y1.7228 
G01 X-2.4938 Y1.7202 
G01 X-2.4883 Y1.7165 
G01 X-2.4859 Y1.7141 
G01 X-2.3076 Y1.7141 
G01 X-2.3030 Y1.7132 
G01 X-2.2986 Y1.7114 
G01 X-2.2946 Y1.7087 
G01 X-2.2913 Y1.7054 
G01 X-2.0860 Y1.5001 
G01 X-2.0265 Y1.5001 
G01 X-2.0205 Y1.5061 
G00 Z0.1000 
G00 X-2.0381 Y1.8635 
G01 Z-0.0100 F10.00 
G01 X-2.0381 Y1.8885 
G01 X-2.0321 Y1.8945 
G01 X-2.0321 Y2.0865 
G01 X-2.0434 Y2.0865 
G01 X-2.0500 Y2.0878 
G01 X-2.0562 Y2.0904 
G01 X-2.0618 Y2.0941 
G01 X-2.0665 Y2.0988 
G01 X-2.0703 Y2.1044 
G01 X-2.0728 Y2.1106 
G01 X-2.0741 Y2.1172 
G01 X-2.0741 Y2.1239 
G01 X-2.0728 Y2.1305 
G01 X-2.0703 Y2.1367 
G01 X-2.0665 Y2.1423 
G01 X-2.0618 Y2.1471 
G01 X-2.0562 Y2.1508 
G01 X-2.0500 Y2.1534 
G01 X-2.0434 Y2.1547 
G01 X-1.9767 Y2.1547 
G01 X-1.9701 Y2.1534 
G01 X-1.9639 Y2.1508 
G01 X-1.9583 Y2.1471 
G01 X-1.9536 Y2.1423 
G01 X-1.9498 Y2.1367 
G01 X-1.9473 Y2.1305 
G01 X-1.9459 Y2.1239 
G01 X-1.9459 Y2.1172 
G01 X-1.9473 Y2.1106 
G01 X-1.9498 Y2.1044 
G01 X-1.9536 Y2.0988 
G01 X-1.9583 Y2.0941 
G01 X-1.9639 Y2.0904 
G01 X-1.9701 Y2.0878 
G01 X-1.9767 Y2.0865 
G01 X-1.9839 Y2.0865 
G01 X-1.9839 Y1.8945 
G01 X-1.9779 Y1.8885 
G01 X-1.9779 Y1.8635 
G01 X-1.9955 Y1.8459 
G01 X-2.0205 Y1.8459 
G01 X-2.0381 Y1.8635 
G00 Z0.1000 
G00 X-0.9461 Y1.6575 
G01 Z-0.0100 F10.00 
G01 X-0.9461 Y1.6825 
G01 X-0.9285 Y1.7001 
G01 X-0.9040 Y1.7001 
G01 X-0.8841 Y1.7200 
G01 X-0.8841 Y1.8924 
G01 X-0.8832 Y1.8970 
G01 X-0.8814 Y1.9014 
G01 X-0.8787 Y1.9054 
G01 X-0.7587 Y2.0254 
G01 X-0.7554 Y2.0287 
G01 X-0.7514 Y2.0314 
G01 X-0.7470 Y2.0332 
G01 X-0.7424 Y2.0341 
G01 X-0.4500 Y2.0341 
G01 X-0.4221 Y2.0619 
G01 X-0.4221 Y2.0905 
G01 X-0.4314 Y2.0905 
G01 X-0.4380 Y2.0918 
G01 X-0.4442 Y2.0944 
G01 X-0.4498 Y2.0981 
G01 X-0.4545 Y2.1028 
G01 X-0.4583 Y2.1084 
G01 X-0.4608 Y2.1146 
G01 X-0.4621 Y2.1212 
G01 X-0.4621 Y2.1279 
G01 X-0.4608 Y2.1345 
G01 X-0.4583 Y2.1407 
G01 X-0.4545 Y2.1463 
G01 X-0.4498 Y2.1511 
G01 X-0.4442 Y2.1548 
G01 X-0.4380 Y2.1574 
G01 X-0.4314 Y2.1587 
G01 X-0.3647 Y2.1587 
G01 X-0.3581 Y2.1574 
G01 X-0.3519 Y2.1548 
G01 X-0.3463 Y2.1511 
G01 X-0.3416 Y2.1463 
G01 X-0.3378 Y2.1407 
G01 X-0.3353 Y2.1345 
G01 X-0.3339 Y2.1279 
G01 X-0.3339 Y2.1212 
G01 X-0.3353 Y2.1146 
G01 X-0.3378 Y2.1084 
G01 X-0.3416 Y2.1028 
G01 X-0.3463 Y2.0981 
G01 X-0.3519 Y2.0944 
G01 X-0.3581 Y2.0918 
G01 X-0.3647 Y2.0905 
G01 X-0.3739 Y2.0905 
G01 X-0.3739 Y2.0496 
G01 X-0.3749 Y2.0449 
G01 X-0.3767 Y2.0405 
G01 X-0.3793 Y2.0366 
G01 X-0.4246 Y1.9913 
G01 X-0.4286 Y1.9886 
G01 X-0.4330 Y1.9868 
G01 X-0.4376 Y1.9859 
G01 X-0.7300 Y1.9859 
G01 X-0.8359 Y1.8800 
G01 X-0.8359 Y1.7076 
G01 X-0.8368 Y1.7030 
G01 X-0.8386 Y1.6986 
G01 X-0.8413 Y1.6946 
G01 X-0.8446 Y1.6913 
G01 X-0.8813 Y1.6546 
G01 X-0.8813 Y1.6546 
G01 X-0.8846 Y1.6513 
G01 X-0.8886 Y1.6486 
G01 X-0.8930 Y1.6468 
G01 X-0.8975 Y1.6459 
G01 X-0.9035 Y1.6399 
G01 X-0.9285 Y1.6399 
G01 X-0.9461 Y1.6575 
G00 Z0.1000 
G00 X-1.1541 Y1.6575 
G01 Z-0.0100 F10.00 
G01 X-1.1541 Y1.6825 
G01 X-1.1441 Y1.6925 
G01 X-1.1441 Y1.7524 
G01 X-1.1432 Y1.7570 
G01 X-1.1414 Y1.7614 
G01 X-1.1387 Y1.7654 
G01 X-0.8134 Y2.0907 
G01 X-0.8145 Y2.0918 
G01 X-0.8183 Y2.0974 
G01 X-0.8208 Y2.1036 
G01 X-0.8221 Y2.1102 
G01 X-0.8221 Y2.1169 
G01 X-0.8208 Y2.1235 
G01 X-0.8183 Y2.1297 
G01 X-0.8145 Y2.1353 
G01 X-0.8098 Y2.1401 
G01 X-0.8042 Y2.1438 
G01 X-0.7980 Y2.1464 
G01 X-0.7914 Y2.1477 
G01 X-0.7247 Y2.1477 
G01 X-0.7181 Y2.1464 
G01 X-0.7119 Y2.1438 
G01 X-0.7063 Y2.1401 
G01 X-0.7016 Y2.1353 
G01 X-0.6978 Y2.1297 
G01 X-0.6953 Y2.1235 
G01 X-0.6939 Y2.1169 
G01 X-0.6939 Y2.1102 
G01 X-0.6953 Y2.1036 
G01 X-0.6978 Y2.0974 
G01 X-0.7016 Y2.0918 
G01 X-0.7063 Y2.0871 
G01 X-0.7119 Y2.0834 
G01 X-0.7181 Y2.0808 
G01 X-0.7247 Y2.0795 
G01 X-0.7564 Y2.0795 
G01 X-1.0959 Y1.7400 
G01 X-1.0959 Y1.6845 
G01 X-1.0939 Y1.6825 
G01 X-1.0939 Y1.6575 
G01 X-1.1115 Y1.6399 
G01 X-1.1365 Y1.6399 
G01 X-1.1541 Y1.6575 
G00 Z0.1000 
G00 X-1.3375 Y1.3101 
G01 Z-0.0100 F10.00 
G01 X-1.3125 Y1.3101 
G01 X-1.2949 Y1.2925 
G01 X-1.2949 Y1.2675 
G01 X-1.3125 Y1.2499 
G01 X-1.3375 Y1.2499 
G01 X-1.3435 Y1.2559 
G01 X-2.0524 Y1.2559 
G01 X-2.0570 Y1.2568 
G01 X-2.0614 Y1.2586 
G01 X-2.0654 Y1.2613 
G01 X-2.0687 Y1.2646 
G01 X-2.2870 Y1.4829 
G01 X-2.3105 Y1.4829 
G01 X-2.3281 Y1.5005 
G01 X-2.3281 Y1.5240 
G01 X-2.3700 Y1.5659 
G01 X-2.4859 Y1.5659 
G01 X-2.4883 Y1.5635 
G01 X-2.4938 Y1.5598 
G01 X-2.5001 Y1.5572 
G01 X-2.5066 Y1.5559 
G01 X-2.5734 Y1.5559 
G01 X-2.5799 Y1.5572 
G01 X-2.5862 Y1.5598 
G01 X-2.5917 Y1.5635 
G01 X-2.5965 Y1.5683 
G01 X-2.6002 Y1.5738 
G01 X-2.6028 Y1.5801 
G01 X-2.6041 Y1.5866 
G01 X-2.6041 Y1.5934 
G01 X-2.6028 Y1.5999 
G01 X-2.6002 Y1.6062 
G01 X-2.5965 Y1.6117 
G01 X-2.5917 Y1.6165 
G01 X-2.5862 Y1.6202 
G01 X-2.5799 Y1.6228 
G01 X-2.5734 Y1.6241 
G01 X-2.5066 Y1.6241 
G01 X-2.5001 Y1.6228 
G01 X-2.4938 Y1.6202 
G01 X-2.4883 Y1.6165 
G01 X-2.4859 Y1.6141 
G01 X-2.3576 Y1.6141 
G01 X-2.3530 Y1.6132 
G01 X-2.3486 Y1.6114 
G01 X-2.3446 Y1.6087 
G01 X-2.2793 Y1.5434 
G01 X-2.2766 Y1.5394 
G01 X-2.2752 Y1.5358 
G01 X-2.2716 Y1.5344 
G01 X-2.2676 Y1.5317 
G01 X-2.0400 Y1.3041 
G01 X-1.3435 Y1.3041 
G01 X-1.3375 Y1.3101 
G00 Z0.1000 
G00 X-2.3281 Y1.9005 
G01 Z-0.0100 F10.00 
G01 X-2.3281 Y1.9255 
G01 X-2.3221 Y1.9315 
G01 X-2.3221 Y2.0865 
G01 X-2.3374 Y2.0865 
G01 X-2.3440 Y2.0878 
G01 X-2.3502 Y2.0904 
G01 X-2.3558 Y2.0941 
G01 X-2.3605 Y2.0988 
G01 X-2.3643 Y2.1044 
G01 X-2.3668 Y2.1106 
G01 X-2.3681 Y2.1172 
G01 X-2.3681 Y2.1239 
G01 X-2.3668 Y2.1305 
G01 X-2.3643 Y2.1367 
G01 X-2.3605 Y2.1423 
G01 X-2.3558 Y2.1471 
G01 X-2.3502 Y2.1508 
G01 X-2.3440 Y2.1534 
G01 X-2.3374 Y2.1547 
G01 X-2.2707 Y2.1547 
G01 X-2.2641 Y2.1534 
G01 X-2.2579 Y2.1508 
G01 X-2.2523 Y2.1471 
G01 X-2.2476 Y2.1423 
G01 X-2.2438 Y2.1367 
G01 X-2.2413 Y2.1305 
G01 X-2.2399 Y2.1239 
G01 X-2.2399 Y2.1172 
G01 X-2.2413 Y2.1106 
G01 X-2.2438 Y2.1044 
G01 X-2.2476 Y2.0988 
G01 X-2.2523 Y2.0941 
G01 X-2.2579 Y2.0904 
G01 X-2.2641 Y2.0878 
G01 X-2.2707 Y2.0865 
G01 X-2.2739 Y2.0865 
G01 X-2.2739 Y1.9315 
G01 X-2.2679 Y1.9255 
G01 X-2.2679 Y1.9005 
G01 X-2.2855 Y1.8829 
G01 X-2.3105 Y1.8829 
G01 X-2.3281 Y1.9005 
G00 Z0.1000 
G00 X-2.0701 Y1.1225 
G01 Z-0.0100 F10.00 
G01 X-2.0525 Y1.1401 
G01 X-2.0275 Y1.1401 
G01 X-2.0099 Y1.1225 
G01 X-2.0099 Y1.0975 
G01 X-2.0275 Y1.0799 
G01 X-2.0360 Y1.0799 
G01 X-2.2146 Y0.9013 
G01 X-2.2186 Y0.8986 
G01 X-2.2230 Y0.8968 
G01 X-2.2276 Y0.8959 
G01 X-2.3924 Y0.8959 
G01 X-2.3970 Y0.8968 
G01 X-2.4014 Y0.8986 
G01 X-2.4054 Y0.9013 
G01 X-2.4087 Y0.9046 
G01 X-2.4287 Y0.9246 
G01 X-2.4314 Y0.9286 
G01 X-2.4332 Y0.9330 
G01 X-2.4341 Y0.9376 
G01 X-2.4341 Y1.0800 
G01 X-2.4600 Y1.1059 
G01 X-2.4859 Y1.1059 
G01 X-2.4883 Y1.1035 
G01 X-2.4938 Y1.0998 
G01 X-2.5001 Y1.0972 
G01 X-2.5066 Y1.0959 
G01 X-2.5734 Y1.0959 
G01 X-2.5799 Y1.0972 
G01 X-2.5862 Y1.0998 
G01 X-2.5917 Y1.1035 
G01 X-2.5965 Y1.1083 
G01 X-2.6002 Y1.1138 
G01 X-2.6028 Y1.1201 
G01 X-2.6041 Y1.1266 
G01 X-2.6041 Y1.1334 
G01 X-2.6028 Y1.1399 
G01 X-2.6002 Y1.1462 
G01 X-2.5965 Y1.1517 
G01 X-2.5917 Y1.1565 
G01 X-2.5862 Y1.1602 
G01 X-2.5799 Y1.1628 
G01 X-2.5734 Y1.1641 
G01 X-2.5066 Y1.1641 
G01 X-2.5001 Y1.1628 
G01 X-2.4938 Y1.1602 
G01 X-2.4883 Y1.1565 
G01 X-2.4859 Y1.1541 
G01 X-2.4476 Y1.1541 
G01 X-2.4430 Y1.1532 
G01 X-2.4386 Y1.1514 
G01 X-2.4346 Y1.1487 
G01 X-2.3946 Y1.1087 
G01 X-2.3913 Y1.1054 
G01 X-2.3886 Y1.1014 
G01 X-2.3868 Y1.0970 
G01 X-2.3859 Y1.0924 
G01 X-2.3859 Y0.9500 
G01 X-2.3800 Y0.9441 
G01 X-2.2400 Y0.9441 
G01 X-2.0701 Y1.1140 
G01 X-2.0701 Y1.1225 
G00 Z0.1000 
G00 X-2.0701 Y0.5975 
G01 Z-0.0100 F10.00 
G01 X-2.0701 Y0.6225 
G01 X-2.0525 Y0.6401 
G01 X-2.0275 Y0.6401 
G01 X-2.0215 Y0.6341 
G01 X-1.9076 Y0.6341 
G01 X-1.9030 Y0.6332 
G01 X-1.8986 Y0.6314 
G01 X-1.8946 Y0.6287 
G01 X-1.7034 Y0.4375 
G01 X-1.5041 Y0.4375 
G01 X-1.5017 Y0.4399 
G01 X-1.4961 Y0.4436 
G01 X-1.4899 Y0.4462 
G01 X-1.4833 Y0.4475 
G01 X-1.4166 Y0.4475 
G01 X-1.4100 Y0.4462 
G01 X-1.4038 Y0.4436 
G01 X-1.3982 Y0.4399 
G01 X-1.3935 Y0.4352 
G01 X-1.3897 Y0.4296 
G01 X-1.3872 Y0.4234 
G01 X-1.3859 Y0.4168 
G01 X-1.3859 Y0.4101 
G01 X-1.3872 Y0.4035 
G01 X-1.3897 Y0.3973 
G01 X-1.3935 Y0.3917 
G01 X-1.3982 Y0.3869 
G01 X-1.4038 Y0.3832 
G01 X-1.4100 Y0.3806 
G01 X-1.4166 Y0.3793 
G01 X-1.4833 Y0.3793 
G01 X-1.4899 Y0.3806 
G01 X-1.4961 Y0.3832 
G01 X-1.5017 Y0.3869 
G01 X-1.5041 Y0.3893 
G01 X-1.7158 Y0.3893 
G01 X-1.7205 Y0.3903 
G01 X-1.7248 Y0.3921 
G01 X-1.7288 Y0.3947 
G01 X-1.9200 Y0.5859 
G01 X-2.0215 Y0.5859 
G01 X-2.0275 Y0.5799 
G01 X-2.0525 Y0.5799 
G01 X-2.0701 Y0.5975 
G00 Z0.1000 
G00 X-1.0924 Y2.8541 
G01 Z-0.0100 F10.00 
G01 X-0.5976 Y2.8541 
G01 X-0.5930 Y2.8532 
G01 X-0.5886 Y2.8514 
G01 X-0.5846 Y2.8487 
G01 X-0.5813 Y2.8454 
G01 X-0.1013 Y2.3654 
G01 X-0.0986 Y2.3614 
G01 X-0.0968 Y2.3570 
G01 X-0.0959 Y2.3524 
G01 X-0.0959 Y1.0076 
G01 X-0.0962 Y1.0060 
G01 X-0.0962 Y0.3940 
G01 X-0.0959 Y0.3924 
G01 X-0.0959 Y0.3876 
G01 X-0.0968 Y0.3830 
G01 X-0.0986 Y0.3786 
G01 X-0.1013 Y0.3746 
G01 X-0.2222 Y0.2537 
G01 X-0.2222 Y0.1959 
G01 X-0.2237 Y0.1883 
G01 X-0.2267 Y0.1811 
G01 X-0.2310 Y0.1747 
G01 X-0.2365 Y0.1692 
G01 X-0.2375 Y0.1685 
G01 X-0.2375 Y0.1561 
G01 X-0.2384 Y0.1514 
G01 X-0.2402 Y0.1470 
G01 X-0.2429 Y0.1431 
G01 X-0.3013 Y0.0846 
G01 X-0.3046 Y0.0813 
G01 X-0.3086 Y0.0786 
G01 X-0.3130 Y0.0768 
G01 X-0.3176 Y0.0759 
G01 X-0.7469 Y0.0759 
G01 X-0.7516 Y0.0768 
G01 X-0.7560 Y0.0786 
G01 X-0.7599 Y0.0813 
G01 X-0.8532 Y0.1745 
G01 X-0.8565 Y0.1712 
G01 X-0.8629 Y0.1669 
G01 X-0.8701 Y0.1639 
G01 X-0.8777 Y0.1624 
G01 X-0.8855 Y0.1624 
G01 X-0.8931 Y0.1639 
G01 X-0.9002 Y0.1669 
G01 X-0.9067 Y0.1712 
G01 X-0.9121 Y0.1767 
G01 X-0.9164 Y0.1831 
G01 X-0.9194 Y0.1903 
G01 X-0.9209 Y0.1979 
G01 X-0.9209 Y0.2761 
G01 X-0.9194 Y0.2837 
G01 X-0.9164 Y0.2909 
G01 X-0.9121 Y0.2973 
G01 X-0.9067 Y0.3028 
G01 X-0.9002 Y0.3071 
G01 X-0.8931 Y0.3101 
G01 X-0.8855 Y0.3116 
G01 X-0.8777 Y0.3116 
G01 X-0.8701 Y0.3101 
G01 X-0.8629 Y0.3071 
G01 X-0.8565 Y0.3028 
G01 X-0.8510 Y0.2973 
G01 X-0.8467 Y0.2909 
G01 X-0.8437 Y0.2837 
G01 X-0.8422 Y0.2761 
G01 X-0.8422 Y0.2317 
G01 X-0.7346 Y0.1241 
G01 X-0.3300 Y0.1241 
G01 X-0.2857 Y0.1684 
G01 X-0.2857 Y0.1685 
G01 X-0.2867 Y0.1692 
G01 X-0.2921 Y0.1747 
G01 X-0.2964 Y0.1811 
G01 X-0.2994 Y0.1883 
G01 X-0.3009 Y0.1959 
G01 X-0.3009 Y0.2741 
G01 X-0.2994 Y0.2817 
G01 X-0.2964 Y0.2889 
G01 X-0.2921 Y0.2953 
G01 X-0.2867 Y0.3008 
G01 X-0.2802 Y0.3051 
G01 X-0.2731 Y0.3081 
G01 X-0.2655 Y0.3096 
G01 X-0.2577 Y0.3096 
G01 X-0.2501 Y0.3081 
G01 X-0.2429 Y0.3051 
G01 X-0.2406 Y0.3035 
G01 X-0.1438 Y0.4003 
G01 X-0.1438 Y1.0060 
G01 X-0.1441 Y1.0076 
G01 X-0.1441 Y2.3400 
G01 X-0.6100 Y2.8059 
G01 X-1.0800 Y2.8059 
G01 X-1.1859 Y2.7000 
G01 X-1.1859 Y2.6459 
G01 X-1.1874 Y2.6383 
G01 X-1.1904 Y2.6311 
G01 X-1.1947 Y2.6247 
G01 X-1.2002 Y2.6192 
G01 X-1.2066 Y2.6149 
G01 X-1.2138 Y2.6119 
G01 X-1.2214 Y2.6104 
G01 X-1.2292 Y2.6104 
G01 X-1.2368 Y2.6119 
G01 X-1.2439 Y2.6149 
G01 X-1.2504 Y2.6192 
G01 X-1.2558 Y2.6247 
G01 X-1.2601 Y2.6311 
G01 X-1.2631 Y2.6383 
G01 X-1.2646 Y2.6459 
G01 X-1.2646 Y2.7241 
G01 X-1.2631 Y2.7317 
G01 X-1.2601 Y2.7389 
G01 X-1.2558 Y2.7453 
G01 X-1.2504 Y2.7508 
G01 X-1.2439 Y2.7551 
G01 X-1.2368 Y2.7581 
G01 X-1.2292 Y2.7596 
G01 X-1.2214 Y2.7596 
G01 X-1.2138 Y2.7581 
G01 X-1.2066 Y2.7551 
G01 X-1.2020 Y2.7520 
G01 X-1.1482 Y2.8059 
G01 X-2.2700 Y2.8059 
G01 X-2.3759 Y2.7000 
G01 X-2.3759 Y2.6509 
G01 X-2.3774 Y2.6433 
G01 X-2.3804 Y2.6361 
G01 X-2.3847 Y2.6297 
G01 X-2.3902 Y2.6242 
G01 X-2.3966 Y2.6199 
G01 X-2.4038 Y2.6169 
G01 X-2.4114 Y2.6154 
G01 X-2.4192 Y2.6154 
G01 X-2.4268 Y2.6169 
G01 X-2.4339 Y2.6199 
G01 X-2.4404 Y2.6242 
G01 X-2.4437 Y2.6275 
G01 X-2.6559 Y2.4153 
G01 X-2.6559 Y0.6200 
G01 X-2.4582 Y0.4223 
G01 X-2.4582 Y0.4223 
G01 X-2.4549 Y0.4189 
G01 X-2.4522 Y0.4150 
G01 X-2.4504 Y0.4106 
G01 X-2.4495 Y0.4059 
G01 X-2.4495 Y0.3985 
G01 X-2.4485 Y0.3978 
G01 X-2.4430 Y0.3923 
G01 X-2.4387 Y0.3859 
G01 X-2.4357 Y0.3787 
G01 X-2.4342 Y0.3711 
G01 X-2.4342 Y0.2929 
G01 X-2.4357 Y0.2853 
G01 X-2.4387 Y0.2781 
G01 X-2.4430 Y0.2717 
G01 X-2.4485 Y0.2662 
G01 X-2.4549 Y0.2619 
G01 X-2.4621 Y0.2589 
G01 X-2.4697 Y0.2574 
G01 X-2.4775 Y0.2574 
G01 X-2.4851 Y0.2589 
G01 X-2.4922 Y0.2619 
G01 X-2.4987 Y0.2662 
G01 X-2.5041 Y0.2717 
G01 X-2.5084 Y0.2781 
G01 X-2.5114 Y0.2853 
G01 X-2.5129 Y0.2929 
G01 X-2.5129 Y0.3711 
G01 X-2.5114 Y0.3787 
G01 X-2.5084 Y0.3859 
G01 X-2.5041 Y0.3923 
G01 X-2.5003 Y0.3962 
G01 X-2.6954 Y0.5913 
G01 X-2.6987 Y0.5946 
G01 X-2.7014 Y0.5986 
G01 X-2.7032 Y0.6030 
G01 X-2.7041 Y0.6076 
G01 X-2.7041 Y2.4324 
G01 X-2.7032 Y2.4370 
G01 X-2.7014 Y2.4414 
G01 X-2.6987 Y2.4454 
G01 X-2.6954 Y2.4487 
G01 X-2.6914 Y2.4514 
G01 X-2.6870 Y2.4532 
G01 X-2.6860 Y2.4534 
G01 X-2.4546 Y2.6847 
G01 X-2.4546 Y2.7291 
G01 X-2.4531 Y2.7367 
G01 X-2.4501 Y2.7439 
G01 X-2.4458 Y2.7503 
G01 X-2.4404 Y2.7558 
G01 X-2.4339 Y2.7601 
G01 X-2.4268 Y2.7631 
G01 X-2.4192 Y2.7646 
G01 X-2.4114 Y2.7646 
G01 X-2.4038 Y2.7631 
G01 X-2.3966 Y2.7601 
G01 X-2.3902 Y2.7558 
G01 X-2.3892 Y2.7549 
G01 X-2.2954 Y2.8487 
G01 X-2.2914 Y2.8514 
G01 X-2.2870 Y2.8532 
G01 X-2.2824 Y2.8541 
G01 X-2.2776 Y2.8541 
G01 X-1.0924 Y2.8541 
G00 Z0.1000 
G00 X-1.0929 Y2.8591 
G01 Z-0.0100 F10.00 
G01 X-0.5971 Y2.8591 
G01 X-0.5915 Y2.8580 
G01 X-0.5862 Y2.8558 
G01 X-0.5814 Y2.8526 
G01 X-0.5774 Y2.8486 
G01 X-0.0974 Y2.3686 
G01 X-0.0942 Y2.3638 
G01 X-0.0920 Y2.3585 
G01 X-0.0909 Y2.3529 
G01 X-0.0909 Y1.0071 
G01 X-0.0912 Y1.0056 
G01 X-0.0912 Y0.3944 
G01 X-0.0909 Y0.3929 
G01 X-0.0909 Y0.3871 
G01 X-0.0920 Y0.3815 
G01 X-0.0942 Y0.3762 
G01 X-0.0974 Y0.3714 
G01 X-0.2172 Y0.2516 
G01 X-0.2172 Y0.1963 
G01 X-0.2183 Y0.1894 
G01 X-0.2205 Y0.1827 
G01 X-0.2236 Y0.1765 
G01 X-0.2277 Y0.1709 
G01 X-0.2325 Y0.1661 
G01 X-0.2325 Y0.1556 
G01 X-0.2336 Y0.1499 
G01 X-0.2358 Y0.1446 
G01 X-0.2390 Y0.1399 
G01 X-0.2974 Y0.0814 
G01 X-0.3014 Y0.0774 
G01 X-0.3062 Y0.0742 
G01 X-0.3115 Y0.0720 
G01 X-0.3171 Y0.0709 
G01 X-0.7474 Y0.0709 
G01 X-0.7531 Y0.0720 
G01 X-0.7584 Y0.0742 
G01 X-0.7631 Y0.0774 
G01 X-0.8532 Y0.1675 
G01 X-0.8583 Y0.1638 
G01 X-0.8646 Y0.1606 
G01 X-0.8712 Y0.1585 
G01 X-0.8781 Y0.1574 
G01 X-0.8851 Y0.1574 
G01 X-0.8920 Y0.1585 
G01 X-0.8986 Y0.1606 
G01 X-0.9048 Y0.1638 
G01 X-0.9105 Y0.1679 
G01 X-0.9154 Y0.1729 
G01 X-0.9195 Y0.1785 
G01 X-0.9227 Y0.1847 
G01 X-0.9248 Y0.1914 
G01 X-0.9259 Y0.1983 
G01 X-0.9259 Y0.2757 
G01 X-0.9248 Y0.2826 
G01 X-0.9227 Y0.2893 
G01 X-0.9195 Y0.2955 
G01 X-0.9154 Y0.3011 
G01 X-0.9105 Y0.3061 
G01 X-0.9048 Y0.3102 
G01 X-0.8986 Y0.3134 
G01 X-0.8920 Y0.3155 
G01 X-0.8851 Y0.3166 
G01 X-0.8781 Y0.3166 
G01 X-0.8712 Y0.3155 
G01 X-0.8646 Y0.3134 
G01 X-0.8583 Y0.3102 
G01 X-0.8527 Y0.3061 
G01 X-0.8477 Y0.3011 
G01 X-0.8436 Y0.2955 
G01 X-0.8405 Y0.2893 
G01 X-0.8383 Y0.2826 
G01 X-0.8372 Y0.2757 
G01 X-0.8372 Y0.2338 
G01 X-0.7325 Y0.1291 
G01 X-0.3321 Y0.1291 
G01 X-0.2928 Y0.1683 
G01 X-0.2954 Y0.1709 
G01 X-0.2995 Y0.1765 
G01 X-0.3027 Y0.1827 
G01 X-0.3048 Y0.1894 
G01 X-0.3059 Y0.1963 
G01 X-0.3059 Y0.2737 
G01 X-0.3048 Y0.2806 
G01 X-0.3027 Y0.2873 
G01 X-0.2995 Y0.2935 
G01 X-0.2954 Y0.2991 
G01 X-0.2905 Y0.3041 
G01 X-0.2848 Y0.3082 
G01 X-0.2786 Y0.3114 
G01 X-0.2720 Y0.3135 
G01 X-0.2651 Y0.3146 
G01 X-0.2581 Y0.3146 
G01 X-0.2512 Y0.3135 
G01 X-0.2446 Y0.3114 
G01 X-0.2414 Y0.3097 
G01 X-0.1488 Y0.4024 
G01 X-0.1488 Y1.0056 
G01 X-0.1491 Y1.0071 
G01 X-0.1491 Y2.3379 
G01 X-0.6121 Y2.8009 
G01 X-1.0779 Y2.8009 
G01 X-1.1809 Y2.6979 
G01 X-1.1809 Y2.6463 
G01 X-1.1820 Y2.6394 
G01 X-1.1842 Y2.6327 
G01 X-1.1873 Y2.6265 
G01 X-1.1914 Y2.6209 
G01 X-1.1964 Y2.6159 
G01 X-1.2020 Y2.6118 
G01 X-1.2083 Y2.6086 
G01 X-1.2149 Y2.6065 
G01 X-1.2218 Y2.6054 
G01 X-1.2288 Y2.6054 
G01 X-1.2357 Y2.6065 
G01 X-1.2423 Y2.6086 
G01 X-1.2485 Y2.6118 
G01 X-1.2542 Y2.6159 
G01 X-1.2591 Y2.6209 
G01 X-1.2632 Y2.6265 
G01 X-1.2664 Y2.6327 
G01 X-1.2685 Y2.6394 
G01 X-1.2696 Y2.6463 
G01 X-1.2696 Y2.7237 
G01 X-1.2685 Y2.7306 
G01 X-1.2664 Y2.7373 
G01 X-1.2632 Y2.7435 
G01 X-1.2591 Y2.7491 
G01 X-1.2542 Y2.7541 
G01 X-1.2485 Y2.7582 
G01 X-1.2423 Y2.7614 
G01 X-1.2357 Y2.7635 
G01 X-1.2288 Y2.7646 
G01 X-1.2218 Y2.7646 
G01 X-1.2149 Y2.7635 
G01 X-1.2083 Y2.7614 
G01 X-1.2027 Y2.7585 
G01 X-1.1603 Y2.8009 
G01 X-2.2679 Y2.8009 
G01 X-2.3709 Y2.6979 
G01 X-2.3709 Y2.6513 
G01 X-2.3720 Y2.6444 
G01 X-2.3742 Y2.6377 
G01 X-2.3773 Y2.6315 
G01 X-2.3814 Y2.6259 
G01 X-2.3864 Y2.6209 
G01 X-2.3920 Y2.6168 
G01 X-2.3983 Y2.6136 
G01 X-2.4049 Y2.6115 
G01 X-2.4118 Y2.6104 
G01 X-2.4188 Y2.6104 
G01 X-2.4257 Y2.6115 
G01 X-2.4323 Y2.6136 
G01 X-2.4385 Y2.6168 
G01 X-2.4436 Y2.6205 
G01 X-2.6509 Y2.4132 
G01 X-2.6509 Y0.6221 
G01 X-2.4550 Y0.4262 
G01 X-2.4550 Y0.4262 
G01 X-2.4510 Y0.4221 
G01 X-2.4478 Y0.4174 
G01 X-2.4456 Y0.4121 
G01 X-2.4445 Y0.4064 
G01 X-2.4445 Y0.4009 
G01 X-2.4397 Y0.3961 
G01 X-2.4356 Y0.3905 
G01 X-2.4325 Y0.3843 
G01 X-2.4303 Y0.3776 
G01 X-2.4292 Y0.3707 
G01 X-2.4292 Y0.2933 
G01 X-2.4303 Y0.2864 
G01 X-2.4325 Y0.2797 
G01 X-2.4356 Y0.2735 
G01 X-2.4397 Y0.2679 
G01 X-2.4447 Y0.2629 
G01 X-2.4503 Y0.2588 
G01 X-2.4566 Y0.2556 
G01 X-2.4632 Y0.2535 
G01 X-2.4701 Y0.2524 
G01 X-2.4771 Y0.2524 
G01 X-2.4840 Y0.2535 
G01 X-2.4906 Y0.2556 
G01 X-2.4968 Y0.2588 
G01 X-2.5025 Y0.2629 
G01 X-2.5074 Y0.2679 
G01 X-2.5115 Y0.2735 
G01 X-2.5147 Y0.2797 
G01 X-2.5168 Y0.2864 
G01 X-2.5179 Y0.2933 
G01 X-2.5179 Y0.3707 
G01 X-2.5168 Y0.3776 
G01 X-2.5147 Y0.3843 
G01 X-2.5115 Y0.3905 
G01 X-2.5074 Y0.3961 
G01 X-2.5073 Y0.3962 
G01 X-2.6986 Y0.5874 
G01 X-2.7026 Y0.5914 
G01 X-2.7058 Y0.5962 
G01 X-2.7080 Y0.6015 
G01 X-2.7091 Y0.6071 
G01 X-2.7091 Y2.4329 
G01 X-2.7080 Y2.4385 
G01 X-2.7058 Y2.4438 
G01 X-2.7026 Y2.4486 
G01 X-2.6986 Y2.4526 
G01 X-2.6938 Y2.4558 
G01 X-2.6885 Y2.4580 
G01 X-2.6884 Y2.4580 
G01 X-2.4596 Y2.6868 
G01 X-2.4596 Y2.7287 
G01 X-2.4585 Y2.7356 
G01 X-2.4564 Y2.7423 
G01 X-2.4532 Y2.7485 
G01 X-2.4491 Y2.7541 
G01 X-2.4442 Y2.7591 
G01 X-2.4385 Y2.7632 
G01 X-2.4323 Y2.7664 
G01 X-2.4257 Y2.7685 
G01 X-2.4188 Y2.7696 
G01 X-2.4118 Y2.7696 
G01 X-2.4049 Y2.7685 
G01 X-2.3983 Y2.7664 
G01 X-2.3920 Y2.7632 
G01 X-2.3897 Y2.7615 
G01 X-2.2986 Y2.8526 
G01 X-2.2938 Y2.8558 
G01 X-2.2885 Y2.8580 
G01 X-2.2829 Y2.8591 
G01 X-2.2771 Y2.8591 
G01 X-1.0929 Y2.8591 
G00 Z0.1000 
G00 X-2.0751 Y0.5955 
G01 Z-0.0100 F10.00 
G01 X-2.0751 Y0.6245 
G01 X-2.0545 Y0.6451 
G01 X-2.0255 Y0.6451 
G01 X-2.0195 Y0.6391 
G01 X-1.9071 Y0.6391 
G01 X-1.9015 Y0.6380 
G01 X-1.8962 Y0.6358 
G01 X-1.8914 Y0.6326 
G01 X-1.7014 Y0.4425 
G01 X-1.5061 Y0.4425 
G01 X-1.5049 Y0.4438 
G01 X-1.4985 Y0.4481 
G01 X-1.4914 Y0.4510 
G01 X-1.4838 Y0.4525 
G01 X-1.4161 Y0.4525 
G01 X-1.4085 Y0.4510 
G01 X-1.4014 Y0.4481 
G01 X-1.3950 Y0.4438 
G01 X-1.3896 Y0.4383 
G01 X-1.3853 Y0.4319 
G01 X-1.3824 Y0.4248 
G01 X-1.3809 Y0.4173 
G01 X-1.3809 Y0.4096 
G01 X-1.3824 Y0.4020 
G01 X-1.3853 Y0.3949 
G01 X-1.3896 Y0.3885 
G01 X-1.3950 Y0.3831 
G01 X-1.4014 Y0.3788 
G01 X-1.4085 Y0.3758 
G01 X-1.4161 Y0.3743 
G01 X-1.4838 Y0.3743 
G01 X-1.4914 Y0.3758 
G01 X-1.4985 Y0.3788 
G01 X-1.5049 Y0.3831 
G01 X-1.5061 Y0.3843 
G01 X-1.7163 Y0.3843 
G01 X-1.7219 Y0.3854 
G01 X-1.7272 Y0.3876 
G01 X-1.7320 Y0.3908 
G01 X-1.9221 Y0.5809 
G01 X-2.0195 Y0.5809 
G01 X-2.0255 Y0.5749 
G01 X-2.0545 Y0.5749 
G01 X-2.0751 Y0.5955 
G00 Z0.1000 
G00 X-2.0751 Y1.1245 
G01 Z-0.0100 F10.00 
G01 X-2.0545 Y1.1451 
G01 X-2.0255 Y1.1451 
G01 X-2.0049 Y1.1245 
G01 X-2.0049 Y1.0955 
G01 X-2.0255 Y1.0749 
G01 X-2.0339 Y1.0749 
G01 X-2.2114 Y0.8974 
G01 X-2.2162 Y0.8942 
G01 X-2.2215 Y0.8920 
G01 X-2.2271 Y0.8909 
G01 X-2.3929 Y0.8909 
G01 X-2.3985 Y0.8920 
G01 X-2.4038 Y0.8942 
G01 X-2.4086 Y0.8974 
G01 X-2.4126 Y0.9014 
G01 X-2.4326 Y0.9214 
G01 X-2.4358 Y0.9262 
G01 X-2.4380 Y0.9315 
G01 X-2.4391 Y0.9371 
G01 X-2.4391 Y1.0779 
G01 X-2.4621 Y1.1009 
G01 X-2.4838 Y1.1009 
G01 X-2.4851 Y1.0996 
G01 X-2.4915 Y1.0954 
G01 X-2.4986 Y1.0924 
G01 X-2.5061 Y1.0909 
G01 X-2.5739 Y1.0909 
G01 X-2.5814 Y1.0924 
G01 X-2.5885 Y1.0954 
G01 X-2.5949 Y1.0996 
G01 X-2.6004 Y1.1051 
G01 X-2.6046 Y1.1115 
G01 X-2.6076 Y1.1186 
G01 X-2.6091 Y1.1261 
G01 X-2.6091 Y1.1339 
G01 X-2.6076 Y1.1414 
G01 X-2.6046 Y1.1485 
G01 X-2.6004 Y1.1549 
G01 X-2.5949 Y1.1604 
G01 X-2.5885 Y1.1646 
G01 X-2.5814 Y1.1676 
G01 X-2.5739 Y1.1691 
G01 X-2.5061 Y1.1691 
G01 X-2.4986 Y1.1676 
G01 X-2.4915 Y1.1646 
G01 X-2.4851 Y1.1604 
G01 X-2.4838 Y1.1591 
G01 X-2.4471 Y1.1591 
G01 X-2.4415 Y1.1580 
G01 X-2.4362 Y1.1558 
G01 X-2.4314 Y1.1526 
G01 X-2.3914 Y1.1126 
G01 X-2.3874 Y1.1086 
G01 X-2.3842 Y1.1038 
G01 X-2.3820 Y1.0985 
G01 X-2.3809 Y1.0929 
G01 X-2.3809 Y0.9521 
G01 X-2.3779 Y0.9491 
G01 X-2.2421 Y0.9491 
G01 X-2.0751 Y1.1161 
G01 X-2.0751 Y1.1245 
G00 Z0.1000 
G00 X-1.3601 Y1.6655 
G01 Z-0.0100 F10.00 
G01 X-1.3601 Y1.6945 
G01 X-1.3541 Y1.7005 
G01 X-1.3541 Y1.8829 
G01 X-1.3530 Y1.8885 
G01 X-1.3508 Y1.8938 
G01 X-1.3476 Y1.8986 
G01 X-1.2251 Y2.0210 
G01 X-1.2251 Y2.0795 
G01 X-1.2299 Y2.0795 
G01 X-1.2375 Y2.0810 
G01 X-1.2446 Y2.0839 
G01 X-1.2510 Y2.0882 
G01 X-1.2564 Y2.0936 
G01 X-1.2607 Y2.1001 
G01 X-1.2636 Y2.1072 
G01 X-1.2651 Y2.1147 
G01 X-1.2651 Y2.1224 
G01 X-1.2636 Y2.1300 
G01 X-1.2607 Y2.1371 
G01 X-1.2564 Y2.1435 
G01 X-1.2510 Y2.1489 
G01 X-1.2446 Y2.1532 
G01 X-1.2375 Y2.1562 
G01 X-1.2299 Y2.1577 
G01 X-1.1622 Y2.1577 
G01 X-1.1546 Y2.1562 
G01 X-1.1475 Y2.1532 
G01 X-1.1411 Y2.1489 
G01 X-1.1357 Y2.1435 
G01 X-1.1314 Y2.1371 
G01 X-1.1284 Y2.1300 
G01 X-1.1269 Y2.1224 
G01 X-1.1269 Y2.1147 
G01 X-1.1284 Y2.1072 
G01 X-1.1314 Y2.1001 
G01 X-1.1357 Y2.0936 
G01 X-1.1411 Y2.0882 
G01 X-1.1475 Y2.0839 
G01 X-1.1546 Y2.0810 
G01 X-1.1622 Y2.0795 
G01 X-1.1669 Y2.0795 
G01 X-1.1669 Y2.0061 
G01 X-1.1681 Y2.0005 
G01 X-1.1703 Y1.9952 
G01 X-1.1734 Y1.9904 
G01 X-1.2959 Y1.8679 
G01 X-1.2959 Y1.7005 
G01 X-1.2899 Y1.6945 
G01 X-1.2899 Y1.6655 
G01 X-1.3105 Y1.6449 
G01 X-1.3395 Y1.6449 
G01 X-1.3601 Y1.6655 
G00 Z0.1000 
G00 X-1.3395 Y1.3151 
G01 Z-0.0100 F10.00 
G01 X-1.3105 Y1.3151 
G01 X-1.2899 Y1.2945 
G01 X-1.2899 Y1.2655 
G01 X-1.3105 Y1.2449 
G01 X-1.3395 Y1.2449 
G01 X-1.3455 Y1.2509 
G01 X-2.0529 Y1.2509 
G01 X-2.0585 Y1.2520 
G01 X-2.0638 Y1.2542 
G01 X-2.0686 Y1.2574 
G01 X-2.0726 Y1.2614 
G01 X-2.2891 Y1.4779 
G01 X-2.3125 Y1.4779 
G01 X-2.3331 Y1.4985 
G01 X-2.3331 Y1.5219 
G01 X-2.3721 Y1.5609 
G01 X-2.4838 Y1.5609 
G01 X-2.4851 Y1.5596 
G01 X-2.4915 Y1.5554 
G01 X-2.4986 Y1.5524 
G01 X-2.5061 Y1.5509 
G01 X-2.5739 Y1.5509 
G01 X-2.5814 Y1.5524 
G01 X-2.5885 Y1.5554 
G01 X-2.5949 Y1.5596 
G01 X-2.6004 Y1.5651 
G01 X-2.6046 Y1.5715 
G01 X-2.6076 Y1.5786 
G01 X-2.6091 Y1.5861 
G01 X-2.6091 Y1.5939 
G01 X-2.6076 Y1.6014 
G01 X-2.6046 Y1.6085 
G01 X-2.6004 Y1.6149 
G01 X-2.5949 Y1.6204 
G01 X-2.5885 Y1.6246 
G01 X-2.5814 Y1.6276 
G01 X-2.5739 Y1.6291 
G01 X-2.5061 Y1.6291 
G01 X-2.4986 Y1.6276 
G01 X-2.4915 Y1.6246 
G01 X-2.4851 Y1.6204 
G01 X-2.4838 Y1.6191 
G01 X-2.3571 Y1.6191 
G01 X-2.3515 Y1.6180 
G01 X-2.3462 Y1.6158 
G01 X-2.3414 Y1.6126 
G01 X-2.2754 Y1.5466 
G01 X-2.2722 Y1.5418 
G01 X-2.2713 Y1.5397 
G01 X-2.2692 Y1.5388 
G01 X-2.2644 Y1.5356 
G01 X-2.0379 Y1.3091 
G01 X-1.3455 Y1.3091 
G01 X-1.3395 Y1.3151 
G00 Z0.1000 
G00 X-2.0225 Y1.5111 
G01 Z-0.0100 F10.00 
G01 X-1.9935 Y1.5111 
G01 X-1.9729 Y1.4905 
G01 X-1.9729 Y1.4841 
G01 X-1.8879 Y1.3991 
G01 X-1.2171 Y1.3991 
G01 X-1.2115 Y1.3980 
G01 X-1.2062 Y1.3958 
G01 X-1.2014 Y1.3926 
G01 X-1.1139 Y1.3051 
G01 X-1.1095 Y1.3051 
G01 X-1.0889 Y1.2845 
G01 X-1.0889 Y1.2555 
G01 X-1.1095 Y1.2349 
G01 X-1.1385 Y1.2349 
G01 X-1.1591 Y1.2555 
G01 X-1.1591 Y1.2679 
G01 X-1.2321 Y1.3409 
G01 X-1.9029 Y1.3409 
G01 X-1.9085 Y1.3420 
G01 X-1.9138 Y1.3442 
G01 X-1.9186 Y1.3474 
G01 X-2.0121 Y1.4409 
G01 X-2.0225 Y1.4409 
G01 X-2.0285 Y1.4469 
G01 X-2.0989 Y1.4469 
G01 X-2.1045 Y1.4480 
G01 X-2.1098 Y1.4502 
G01 X-2.1146 Y1.4534 
G01 X-2.1186 Y1.4574 
G01 X-2.1186 Y1.4574 
G01 X-2.3221 Y1.6609 
G01 X-2.4838 Y1.6609 
G01 X-2.4851 Y1.6596 
G01 X-2.4915 Y1.6554 
G01 X-2.4986 Y1.6524 
G01 X-2.5061 Y1.6509 
G01 X-2.5739 Y1.6509 
G01 X-2.5814 Y1.6524 
G01 X-2.5885 Y1.6554 
G01 X-2.5949 Y1.6596 
G01 X-2.6004 Y1.6651 
G01 X-2.6046 Y1.6715 
G01 X-2.6076 Y1.6786 
G01 X-2.6091 Y1.6861 
G01 X-2.6091 Y1.6939 
G01 X-2.6076 Y1.7014 
G01 X-2.6046 Y1.7085 
G01 X-2.6004 Y1.7149 
G01 X-2.5949 Y1.7204 
G01 X-2.5885 Y1.7246 
G01 X-2.5814 Y1.7276 
G01 X-2.5739 Y1.7291 
G01 X-2.5061 Y1.7291 
G01 X-2.4986 Y1.7276 
G01 X-2.4915 Y1.7246 
G01 X-2.4851 Y1.7204 
G01 X-2.4838 Y1.7191 
G01 X-2.3071 Y1.7191 
G01 X-2.3015 Y1.7180 
G01 X-2.2962 Y1.7158 
G01 X-2.2914 Y1.7126 
G01 X-2.2874 Y1.7086 
G01 X-2.0839 Y1.5051 
G01 X-2.0285 Y1.5051 
G01 X-2.0225 Y1.5111 
G00 Z0.1000 
G00 X-1.6861 Y1.5345 
G01 Z-0.0100 F10.00 
G01 X-1.6861 Y1.5449 
G01 X-1.7521 Y1.6109 
G01 X-2.1229 Y1.6109 
G01 X-2.1285 Y1.6120 
G01 X-2.1338 Y1.6142 
G01 X-2.1386 Y1.6174 
G01 X-2.2821 Y1.7609 
G01 X-2.4838 Y1.7609 
G01 X-2.4851 Y1.7596 
G01 X-2.4915 Y1.7554 
G01 X-2.4986 Y1.7524 
G01 X-2.5061 Y1.7509 
G01 X-2.5739 Y1.7509 
G01 X-2.5814 Y1.7524 
G01 X-2.5885 Y1.7554 
G01 X-2.5949 Y1.7596 
G01 X-2.6004 Y1.7651 
G01 X-2.6046 Y1.7715 
G01 X-2.6076 Y1.7786 
G01 X-2.6091 Y1.7861 
G01 X-2.6091 Y1.7939 
G01 X-2.6076 Y1.8014 
G01 X-2.6046 Y1.8085 
G01 X-2.6004 Y1.8149 
G01 X-2.5949 Y1.8204 
G01 X-2.5885 Y1.8246 
G01 X-2.5814 Y1.8276 
G01 X-2.5739 Y1.8291 
G01 X-2.5061 Y1.8291 
G01 X-2.4986 Y1.8276 
G01 X-2.4915 Y1.8246 
G01 X-2.4851 Y1.8204 
G01 X-2.4838 Y1.8191 
G01 X-2.2671 Y1.8191 
G01 X-2.2615 Y1.8180 
G01 X-2.2562 Y1.8158 
G01 X-2.2514 Y1.8126 
G01 X-2.2474 Y1.8086 
G01 X-2.2474 Y1.8085 
G01 X-2.1079 Y1.6691 
G01 X-1.7371 Y1.6691 
G01 X-1.7315 Y1.6680 
G01 X-1.7262 Y1.6658 
G01 X-1.7214 Y1.6626 
G01 X-1.6429 Y1.5841 
G01 X-1.6365 Y1.5841 
G01 X-1.6159 Y1.5635 
G01 X-1.6159 Y1.5551 
G01 X-1.5499 Y1.4891 
G01 X-0.9171 Y1.4891 
G01 X-0.9115 Y1.4880 
G01 X-0.9062 Y1.4858 
G01 X-0.9014 Y1.4826 
G01 X-0.8974 Y1.4786 
G01 X-0.8934 Y1.4746 
G01 X-0.8902 Y1.4698 
G01 X-0.8880 Y1.4645 
G01 X-0.8869 Y1.4589 
G01 X-0.8869 Y1.2905 
G01 X-0.8809 Y1.2845 
G01 X-0.8809 Y1.2555 
G01 X-0.9015 Y1.2349 
G01 X-0.9305 Y1.2349 
G01 X-0.9511 Y1.2555 
G01 X-0.9511 Y1.2845 
G01 X-0.9451 Y1.2905 
G01 X-0.9451 Y1.4309 
G01 X-1.5649 Y1.4309 
G01 X-1.5705 Y1.4320 
G01 X-1.5758 Y1.4342 
G01 X-1.5806 Y1.4374 
G01 X-1.6571 Y1.5139 
G01 X-1.6655 Y1.5139 
G01 X-1.6861 Y1.5345 
G00 Z0.1000 
G00 X-1.9762 Y2.1799 
G01 Z-0.0100 F10.00 
G01 X-2.0439 Y2.1799 
G01 X-2.0515 Y2.1814 
G01 X-2.0586 Y2.1844 
G01 X-2.0650 Y2.1886 
G01 X-2.0704 Y2.1941 
G01 X-2.0747 Y2.2005 
G01 X-2.0776 Y2.2076 
G01 X-2.0791 Y2.2151 
G01 X-2.0791 Y2.2229 
G01 X-2.0776 Y2.2304 
G01 X-2.0747 Y2.2375 
G01 X-2.0704 Y2.2439 
G01 X-2.0650 Y2.2494 
G01 X-2.0586 Y2.2536 
G01 X-2.0515 Y2.2566 
G01 X-2.0439 Y2.2581 
G01 X-1.9762 Y2.2581 
G01 X-1.9686 Y2.2566 
G01 X-1.9615 Y2.2536 
G01 X-1.9551 Y2.2494 
G01 X-1.9539 Y2.2481 
G01 X-1.9191 Y2.2481 
G01 X-1.9191 Y2.5464 
G01 X-1.9932 Y2.6205 
G01 X-1.9983 Y2.6168 
G01 X-2.0046 Y2.6136 
G01 X-2.0112 Y2.6115 
G01 X-2.0181 Y2.6104 
G01 X-2.0251 Y2.6104 
G01 X-2.0320 Y2.6115 
G01 X-2.0386 Y2.6136 
G01 X-2.0448 Y2.6168 
G01 X-2.0505 Y2.6209 
G01 X-2.0554 Y2.6259 
G01 X-2.0595 Y2.6315 
G01 X-2.0627 Y2.6377 
G01 X-2.0648 Y2.6444 
G01 X-2.0659 Y2.6513 
G01 X-2.0659 Y2.7287 
G01 X-2.0648 Y2.7356 
G01 X-2.0627 Y2.7423 
G01 X-2.0595 Y2.7485 
G01 X-2.0554 Y2.7541 
G01 X-2.0505 Y2.7591 
G01 X-2.0448 Y2.7632 
G01 X-2.0386 Y2.7664 
G01 X-2.0320 Y2.7685 
G01 X-2.0251 Y2.7696 
G01 X-2.0181 Y2.7696 
G01 X-2.0112 Y2.7685 
G01 X-2.0046 Y2.7664 
G01 X-1.9983 Y2.7632 
G01 X-1.9927 Y2.7591 
G01 X-1.9877 Y2.7541 
G01 X-1.9836 Y2.7485 
G01 X-1.9805 Y2.7423 
G01 X-1.9783 Y2.7356 
G01 X-1.9772 Y2.7287 
G01 X-1.9772 Y2.6868 
G01 X-1.8714 Y2.5810 
G01 X-1.8714 Y2.5810 
G01 X-1.8674 Y2.5770 
G01 X-1.8642 Y2.5722 
G01 X-1.8620 Y2.5669 
G01 X-1.8609 Y2.5613 
G01 X-1.8609 Y2.2171 
G01 X-1.8620 Y2.2115 
G01 X-1.8642 Y2.2062 
G01 X-1.8674 Y2.2014 
G01 X-1.8714 Y2.1974 
G01 X-1.8714 Y2.1974 
G01 X-1.8724 Y2.1964 
G01 X-1.8772 Y2.1932 
G01 X-1.8825 Y2.1910 
G01 X-1.8881 Y2.1899 
G01 X-1.9539 Y2.1899 
G01 X-1.9551 Y2.1886 
G01 X-1.9615 Y2.1844 
G01 X-1.9686 Y2.1814 
G01 X-1.9762 Y2.1799 
G00 Z0.1000 
G00 X-1.9762 Y2.0815 
G01 Z-0.0100 F10.00 
G01 X-1.9789 Y2.0815 
G01 X-1.9789 Y1.8965 
G01 X-1.9729 Y1.8905 
G01 X-1.9729 Y1.8615 
G01 X-1.9935 Y1.8409 
G01 X-2.0225 Y1.8409 
G01 X-2.0431 Y1.8615 
G01 X-2.0431 Y1.8905 
G01 X-2.0371 Y1.8965 
G01 X-2.0371 Y2.0815 
G01 X-2.0439 Y2.0815 
G01 X-2.0515 Y2.0830 
G01 X-2.0586 Y2.0859 
G01 X-2.0650 Y2.0902 
G01 X-2.0704 Y2.0956 
G01 X-2.0747 Y2.1021 
G01 X-2.0776 Y2.1092 
G01 X-2.0791 Y2.1167 
G01 X-2.0791 Y2.1244 
G01 X-2.0776 Y2.1320 
G01 X-2.0747 Y2.1391 
G01 X-2.0704 Y2.1455 
G01 X-2.0650 Y2.1509 
G01 X-2.0586 Y2.1552 
G01 X-2.0515 Y2.1582 
G01 X-2.0439 Y2.1597 
G01 X-1.9762 Y2.1597 
G01 X-1.9686 Y2.1582 
G01 X-1.9615 Y2.1552 
G01 X-1.9551 Y2.1509 
G01 X-1.9497 Y2.1455 
G01 X-1.9454 Y2.1391 
G01 X-1.9424 Y2.1320 
G01 X-1.9409 Y2.1244 
G01 X-1.9409 Y2.1167 
G01 X-1.9424 Y2.1092 
G01 X-1.9454 Y2.1021 
G01 X-1.9497 Y2.0956 
G01 X-1.9551 Y2.0902 
G01 X-1.9615 Y2.0859 
G01 X-1.9686 Y2.0830 
G01 X-1.9762 Y2.0815 
G00 Z0.1000 
G00 X-1.1622 Y2.1779 
G01 Z-0.0100 F10.00 
G01 X-1.2299 Y2.1779 
G01 X-1.2375 Y2.1794 
G01 X-1.2446 Y2.1824 
G01 X-1.2510 Y2.1866 
G01 X-1.2564 Y2.1921 
G01 X-1.2607 Y2.1985 
G01 X-1.2636 Y2.2056 
G01 X-1.2651 Y2.2131 
G01 X-1.2651 Y2.2209 
G01 X-1.2636 Y2.2284 
G01 X-1.2607 Y2.2355 
G01 X-1.2564 Y2.2419 
G01 X-1.2510 Y2.2474 
G01 X-1.2446 Y2.2516 
G01 X-1.2375 Y2.2546 
G01 X-1.2299 Y2.2561 
G01 X-1.1622 Y2.2561 
G01 X-1.1546 Y2.2546 
G01 X-1.1475 Y2.2516 
G01 X-1.1411 Y2.2474 
G01 X-1.1399 Y2.2461 
G01 X-1.1251 Y2.2461 
G01 X-1.0591 Y2.3121 
G01 X-1.0591 Y2.6177 
G01 X-1.0623 Y2.6209 
G01 X-1.0664 Y2.6265 
G01 X-1.0695 Y2.6327 
G01 X-1.0717 Y2.6394 
G01 X-1.0728 Y2.6463 
G01 X-1.0728 Y2.7237 
G01 X-1.0717 Y2.7306 
G01 X-1.0695 Y2.7373 
G01 X-1.0664 Y2.7435 
G01 X-1.0623 Y2.7491 
G01 X-1.0573 Y2.7541 
G01 X-1.0517 Y2.7582 
G01 X-1.0454 Y2.7614 
G01 X-1.0388 Y2.7635 
G01 X-1.0319 Y2.7646 
G01 X-1.0249 Y2.7646 
G01 X-1.0180 Y2.7635 
G01 X-1.0114 Y2.7614 
G01 X-1.0052 Y2.7582 
G01 X-0.9995 Y2.7541 
G01 X-0.9946 Y2.7491 
G01 X-0.9905 Y2.7435 
G01 X-0.9873 Y2.7373 
G01 X-0.9852 Y2.7306 
G01 X-0.9841 Y2.7237 
G01 X-0.9841 Y2.6463 
G01 X-0.9852 Y2.6394 
G01 X-0.9873 Y2.6327 
G01 X-0.9905 Y2.6265 
G01 X-0.9946 Y2.6209 
G01 X-0.9995 Y2.6159 
G01 X-1.0009 Y2.6149 
G01 X-1.0009 Y2.2971 
G01 X-1.0020 Y2.2915 
G01 X-1.0042 Y2.2862 
G01 X-1.0074 Y2.2814 
G01 X-1.0944 Y2.1944 
G01 X-1.0992 Y2.1912 
G01 X-1.1045 Y2.1890 
G01 X-1.1101 Y2.1879 
G01 X-1.1399 Y2.1879 
G01 X-1.1411 Y2.1866 
G01 X-1.1475 Y2.1824 
G01 X-1.1546 Y2.1794 
G01 X-1.1622 Y2.1779 
G00 Z0.1000 
G00 X-2.2702 Y2.2783 
G01 Z-0.0100 F10.00 
G01 X-2.3379 Y2.2783 
G01 X-2.3455 Y2.2798 
G01 X-2.3526 Y2.2828 
G01 X-2.3590 Y2.2871 
G01 X-2.3644 Y2.2925 
G01 X-2.3687 Y2.2989 
G01 X-2.3716 Y2.3060 
G01 X-2.3731 Y2.3136 
G01 X-2.3731 Y2.3213 
G01 X-2.3716 Y2.3288 
G01 X-2.3687 Y2.3359 
G01 X-2.3644 Y2.3423 
G01 X-2.3590 Y2.3478 
G01 X-2.3526 Y2.3521 
G01 X-2.3455 Y2.3550 
G01 X-2.3379 Y2.3565 
G01 X-2.2702 Y2.3565 
G01 X-2.2626 Y2.3550 
G01 X-2.2555 Y2.3521 
G01 X-2.2491 Y2.3478 
G01 X-2.2479 Y2.3465 
G01 X-2.0662 Y2.3465 
G01 X-2.0650 Y2.3478 
G01 X-2.0586 Y2.3521 
G01 X-2.0515 Y2.3550 
G01 X-2.0439 Y2.3565 
G01 X-1.9762 Y2.3565 
G01 X-1.9686 Y2.3550 
G01 X-1.9615 Y2.3521 
G01 X-1.9551 Y2.3478 
G01 X-1.9497 Y2.3423 
G01 X-1.9454 Y2.3359 
G01 X-1.9424 Y2.3288 
G01 X-1.9409 Y2.3213 
G01 X-1.9409 Y2.3136 
G01 X-1.9424 Y2.3060 
G01 X-1.9454 Y2.2989 
G01 X-1.9497 Y2.2925 
G01 X-1.9551 Y2.2871 
G01 X-1.9615 Y2.2828 
G01 X-1.9686 Y2.2798 
G01 X-1.9762 Y2.2783 
G01 X-2.0439 Y2.2783 
G01 X-2.0515 Y2.2798 
G01 X-2.0586 Y2.2828 
G01 X-2.0650 Y2.2871 
G01 X-2.0662 Y2.2883 
G01 X-2.1509 Y2.2883 
G01 X-2.1509 Y1.8521 
G01 X-2.0879 Y1.7891 
G01 X-1.5191 Y1.7891 
G01 X-1.5191 Y2.2863 
G01 X-1.6069 Y2.2863 
G01 X-1.6091 Y2.2841 
G01 X-1.6155 Y2.2798 
G01 X-1.6226 Y2.2768 
G01 X-1.6302 Y2.2753 
G01 X-1.6979 Y2.2753 
G01 X-1.7055 Y2.2768 
G01 X-1.7126 Y2.2798 
G01 X-1.7190 Y2.2841 
G01 X-1.7244 Y2.2895 
G01 X-1.7287 Y2.2959 
G01 X-1.7316 Y2.3030 
G01 X-1.7331 Y2.3106 
G01 X-1.7331 Y2.3183 
G01 X-1.7316 Y2.3258 
G01 X-1.7287 Y2.3329 
G01 X-1.7244 Y2.3393 
G01 X-1.7190 Y2.3448 
G01 X-1.7126 Y2.3491 
G01 X-1.7055 Y2.3520 
G01 X-1.6979 Y2.3535 
G01 X-1.6302 Y2.3535 
G01 X-1.6226 Y2.3520 
G01 X-1.6155 Y2.3491 
G01 X-1.6091 Y2.3448 
G01 X-1.6089 Y2.3445 
G01 X-1.2522 Y2.3445 
G01 X-1.2510 Y2.3458 
G01 X-1.2446 Y2.3501 
G01 X-1.2375 Y2.3530 
G01 X-1.2299 Y2.3545 
G01 X-1.1622 Y2.3545 
G01 X-1.1546 Y2.3530 
G01 X-1.1475 Y2.3501 
G01 X-1.1411 Y2.3458 
G01 X-1.1357 Y2.3403 
G01 X-1.1314 Y2.3339 
G01 X-1.1284 Y2.3268 
G01 X-1.1269 Y2.3193 
G01 X-1.1269 Y2.3116 
G01 X-1.1284 Y2.3040 
G01 X-1.1314 Y2.2969 
G01 X-1.1357 Y2.2905 
G01 X-1.1411 Y2.2851 
G01 X-1.1475 Y2.2808 
G01 X-1.1546 Y2.2778 
G01 X-1.1622 Y2.2763 
G01 X-1.2299 Y2.2763 
G01 X-1.2375 Y2.2778 
G01 X-1.2446 Y2.2808 
G01 X-1.2510 Y2.2851 
G01 X-1.2522 Y2.2863 
G01 X-1.4609 Y2.2863 
G01 X-1.4609 Y1.6421 
G01 X-1.4279 Y1.6091 
G01 X-1.2491 Y1.6091 
G01 X-1.2491 Y1.7729 
G01 X-1.2480 Y1.7785 
G01 X-1.2458 Y1.7838 
G01 X-1.2426 Y1.7886 
G01 X-1.2386 Y1.7926 
G01 X-1.2385 Y1.7926 
G01 X-0.9291 Y2.1021 
G01 X-0.9291 Y2.2329 
G01 X-0.9280 Y2.2385 
G01 X-0.9258 Y2.2438 
G01 X-0.9226 Y2.2486 
G01 X-0.9186 Y2.2526 
G01 X-0.9185 Y2.2526 
G01 X-0.8381 Y2.3330 
G01 X-0.8334 Y2.3362 
G01 X-0.8281 Y2.3384 
G01 X-0.8224 Y2.3395 
G01 X-0.8142 Y2.3395 
G01 X-0.8130 Y2.3408 
G01 X-0.8066 Y2.3451 
G01 X-0.7995 Y2.3480 
G01 X-0.7919 Y2.3495 
G01 X-0.7242 Y2.3495 
G01 X-0.7166 Y2.3480 
G01 X-0.7095 Y2.3451 
G01 X-0.7031 Y2.3408 
G01 X-0.6977 Y2.3353 
G01 X-0.6934 Y2.3289 
G01 X-0.6904 Y2.3218 
G01 X-0.6889 Y2.3143 
G01 X-0.6889 Y2.3066 
G01 X-0.6904 Y2.2990 
G01 X-0.6934 Y2.2919 
G01 X-0.6977 Y2.2855 
G01 X-0.7031 Y2.2801 
G01 X-0.7095 Y2.2758 
G01 X-0.7166 Y2.2728 
G01 X-0.7242 Y2.2713 
G01 X-0.7919 Y2.2713 
G01 X-0.7995 Y2.2728 
G01 X-0.8066 Y2.2758 
G01 X-0.8105 Y2.2784 
G01 X-0.8709 Y2.2179 
G01 X-0.8709 Y2.0871 
G01 X-0.8720 Y2.0815 
G01 X-0.8742 Y2.0762 
G01 X-0.8774 Y2.0714 
G01 X-0.8814 Y2.0674 
G01 X-0.8815 Y2.0674 
G01 X-1.1909 Y1.7579 
G01 X-1.1909 Y1.6091 
G01 X-0.8821 Y1.6091 
G01 X-0.8091 Y1.6821 
G01 X-0.8091 Y1.8529 
G01 X-0.8080 Y1.8585 
G01 X-0.8058 Y1.8638 
G01 X-0.8026 Y1.8686 
G01 X-0.7226 Y1.9486 
G01 X-0.7186 Y1.9526 
G01 X-0.7138 Y1.9558 
G01 X-0.7085 Y1.9580 
G01 X-0.7029 Y1.9591 
G01 X-0.2891 Y1.9591 
G01 X-0.2891 Y2.2379 
G01 X-0.3421 Y2.2909 
G01 X-0.3434 Y2.2909 
G01 X-0.3495 Y2.2868 
G01 X-0.3566 Y2.2838 
G01 X-0.3642 Y2.2823 
G01 X-0.4319 Y2.2823 
G01 X-0.4395 Y2.2838 
G01 X-0.4466 Y2.2868 
G01 X-0.4530 Y2.2911 
G01 X-0.4584 Y2.2965 
G01 X-0.4627 Y2.3029 
G01 X-0.4656 Y2.3100 
G01 X-0.4671 Y2.3176 
G01 X-0.4671 Y2.3253 
G01 X-0.4656 Y2.3328 
G01 X-0.4627 Y2.3399 
G01 X-0.4584 Y2.3463 
G01 X-0.4530 Y2.3518 
G01 X-0.4466 Y2.3561 
G01 X-0.4395 Y2.3590 
G01 X-0.4319 Y2.3605 
G01 X-0.3642 Y2.3605 
G01 X-0.3566 Y2.3590 
G01 X-0.3495 Y2.3561 
G01 X-0.3431 Y2.3518 
G01 X-0.3404 Y2.3491 
G01 X-0.3271 Y2.3491 
G01 X-0.3215 Y2.3480 
G01 X-0.3162 Y2.3458 
G01 X-0.3114 Y2.3426 
G01 X-0.3074 Y2.3386 
G01 X-0.2374 Y2.2686 
G01 X-0.2342 Y2.2638 
G01 X-0.2320 Y2.2585 
G01 X-0.2309 Y2.2529 
G01 X-0.2309 Y0.4306 
G01 X-0.2320 Y0.4249 
G01 X-0.2342 Y0.4196 
G01 X-0.2374 Y0.4149 
G01 X-0.4141 Y0.2382 
G01 X-0.4141 Y0.1963 
G01 X-0.4152 Y0.1894 
G01 X-0.4173 Y0.1827 
G01 X-0.4205 Y0.1765 
G01 X-0.4246 Y0.1709 
G01 X-0.4295 Y0.1659 
G01 X-0.4352 Y0.1618 
G01 X-0.4414 Y0.1586 
G01 X-0.4480 Y0.1565 
G01 X-0.4549 Y0.1554 
G01 X-0.4619 Y0.1554 
G01 X-0.4688 Y0.1565 
G01 X-0.4754 Y0.1586 
G01 X-0.4817 Y0.1618 
G01 X-0.4873 Y0.1659 
G01 X-0.4923 Y0.1709 
G01 X-0.4964 Y0.1765 
G01 X-0.4995 Y0.1827 
G01 X-0.5017 Y0.1894 
G01 X-0.5028 Y0.1963 
G01 X-0.5028 Y0.2382 
G01 X-0.6255 Y0.3609 
G01 X-0.8629 Y0.3609 
G01 X-0.8644 Y0.3612 
G01 X-0.9509 Y0.3612 
G01 X-0.9509 Y0.1471 
G01 X-0.9520 Y0.1415 
G01 X-0.9542 Y0.1362 
G01 X-0.9574 Y0.1314 
G01 X-0.9614 Y0.1274 
G01 X-0.9615 Y0.1274 
G01 X-1.0174 Y0.0715 
G01 X-1.0174 Y0.0714 
G01 X-1.0214 Y0.0674 
G01 X-1.0262 Y0.0642 
G01 X-1.0315 Y0.0620 
G01 X-1.0371 Y0.0609 
G01 X-1.3262 Y0.0609 
G01 X-1.3319 Y0.0620 
G01 X-1.3372 Y0.0642 
G01 X-1.3419 Y0.0674 
G01 X-1.4520 Y0.1775 
G01 X-1.4838 Y0.1775 
G01 X-1.4914 Y0.1790 
G01 X-1.4985 Y0.1819 
G01 X-1.5049 Y0.1862 
G01 X-1.5061 Y0.1875 
G01 X-1.9868 Y0.1875 
G01 X-1.9880 Y0.1862 
G01 X-1.9944 Y0.1819 
G01 X-2.0015 Y0.1790 
G01 X-2.0091 Y0.1775 
G01 X-2.0768 Y0.1775 
G01 X-2.0844 Y0.1790 
G01 X-2.0915 Y0.1819 
G01 X-2.0979 Y0.1862 
G01 X-2.1033 Y0.1916 
G01 X-2.1076 Y0.1981 
G01 X-2.1106 Y0.2052 
G01 X-2.1121 Y0.2127 
G01 X-2.1121 Y0.2204 
G01 X-2.1106 Y0.2280 
G01 X-2.1076 Y0.2351 
G01 X-2.1033 Y0.2415 
G01 X-2.0979 Y0.2469 
G01 X-2.0915 Y0.2512 
G01 X-2.0844 Y0.2542 
G01 X-2.0768 Y0.2557 
G01 X-2.0091 Y0.2557 
G01 X-2.0015 Y0.2542 
G01 X-1.9944 Y0.2512 
G01 X-1.9880 Y0.2469 
G01 X-1.9868 Y0.2457 
G01 X-1.5061 Y0.2457 
G01 X-1.5049 Y0.2469 
G01 X-1.4985 Y0.2512 
G01 X-1.4914 Y0.2542 
G01 X-1.4838 Y0.2557 
G01 X-1.4161 Y0.2557 
G01 X-1.4085 Y0.2542 
G01 X-1.4014 Y0.2512 
G01 X-1.3950 Y0.2469 
G01 X-1.3896 Y0.2415 
G01 X-1.3853 Y0.2351 
G01 X-1.3824 Y0.2280 
G01 X-1.3809 Y0.2204 
G01 X-1.3809 Y0.2127 
G01 X-1.3824 Y0.2052 
G01 X-1.3853 Y0.1981 
G01 X-1.3873 Y0.1951 
G01 X-1.3113 Y0.1191 
G01 X-1.0521 Y0.1191 
G01 X-1.0091 Y0.1621 
G01 X-1.0091 Y0.6009 
G01 X-1.6538 Y0.6009 
G01 X-1.6551 Y0.5996 
G01 X-1.6615 Y0.5954 
G01 X-1.6686 Y0.5924 
G01 X-1.6761 Y0.5909 
G01 X-1.7439 Y0.5909 
G01 X-1.7514 Y0.5924 
G01 X-1.7585 Y0.5954 
G01 X-1.7649 Y0.5996 
G01 X-1.7704 Y0.6051 
G01 X-1.7746 Y0.6115 
G01 X-1.7776 Y0.6186 
G01 X-1.7791 Y0.6261 
G01 X-1.7791 Y0.6339 
G01 X-1.7776 Y0.6414 
G01 X-1.7746 Y0.6485 
G01 X-1.7704 Y0.6549 
G01 X-1.7649 Y0.6604 
G01 X-1.7585 Y0.6646 
G01 X-1.7514 Y0.6676 
G01 X-1.7439 Y0.6691 
G01 X-1.6761 Y0.6691 
G01 X-1.6686 Y0.6676 
G01 X-1.6615 Y0.6646 
G01 X-1.6551 Y0.6604 
G01 X-1.6538 Y0.6591 
G01 X-0.9771 Y0.6591 
G01 X-0.9715 Y0.6580 
G01 X-0.9662 Y0.6558 
G01 X-0.9614 Y0.6526 
G01 X-0.9574 Y0.6486 
G01 X-0.9542 Y0.6438 
G01 X-0.9520 Y0.6385 
G01 X-0.9509 Y0.6329 
G01 X-0.9509 Y0.4188 
G01 X-0.8644 Y0.4188 
G01 X-0.8629 Y0.4191 
G01 X-0.6106 Y0.4191 
G01 X-0.6049 Y0.4180 
G01 X-0.5996 Y0.4158 
G01 X-0.5949 Y0.4126 
G01 X-0.5908 Y0.4086 
G01 X-0.4868 Y0.3045 
G01 X-0.4817 Y0.3082 
G01 X-0.4754 Y0.3114 
G01 X-0.4688 Y0.3135 
G01 X-0.4619 Y0.3146 
G01 X-0.4549 Y0.3146 
G01 X-0.4480 Y0.3135 
G01 X-0.4414 Y0.3114 
G01 X-0.4352 Y0.3082 
G01 X-0.4301 Y0.3045 
G01 X-0.2891 Y0.4455 
G01 X-0.2891 Y1.4009 
G01 X-0.5838 Y1.4009 
G01 X-0.5851 Y1.3996 
G01 X-0.5915 Y1.3954 
G01 X-0.5986 Y1.3924 
G01 X-0.6061 Y1.3909 
G01 X-0.6739 Y1.3909 
G01 X-0.6814 Y1.3924 
G01 X-0.6885 Y1.3954 
G01 X-0.6949 Y1.3996 
G01 X-0.7004 Y1.4051 
G01 X-0.7046 Y1.4115 
G01 X-0.7076 Y1.4186 
G01 X-0.7091 Y1.4261 
G01 X-0.7091 Y1.4339 
G01 X-0.7076 Y1.4414 
G01 X-0.7046 Y1.4485 
G01 X-0.7004 Y1.4549 
G01 X-0.6949 Y1.4604 
G01 X-0.6885 Y1.4646 
G01 X-0.6814 Y1.4676 
G01 X-0.6739 Y1.4691 
G01 X-0.6061 Y1.4691 
G01 X-0.5986 Y1.4676 
G01 X-0.5915 Y1.4646 
G01 X-0.5851 Y1.4604 
G01 X-0.5838 Y1.4591 
G01 X-0.2891 Y1.4591 
G01 X-0.2891 Y1.9009 
G01 X-0.6879 Y1.9009 
G01 X-0.7509 Y1.8379 
G01 X-0.7509 Y1.6671 
G01 X-0.7520 Y1.6615 
G01 X-0.7542 Y1.6562 
G01 X-0.7574 Y1.6514 
G01 X-0.7614 Y1.6474 
G01 X-0.7614 Y1.6474 
G01 X-0.8474 Y1.5614 
G01 X-0.8474 Y1.5614 
G01 X-0.8514 Y1.5574 
G01 X-0.8562 Y1.5542 
G01 X-0.8615 Y1.5520 
G01 X-0.8671 Y1.5509 
G01 X-1.4429 Y1.5509 
G01 X-1.4485 Y1.5520 
G01 X-1.4538 Y1.5542 
G01 X-1.4586 Y1.5574 
G01 X-1.4626 Y1.5614 
G01 X-1.5086 Y1.6074 
G01 X-1.5126 Y1.6114 
G01 X-1.5158 Y1.6162 
G01 X-1.5180 Y1.6215 
G01 X-1.5191 Y1.6271 
G01 X-1.5191 Y1.7309 
G01 X-2.1029 Y1.7309 
G01 X-2.1085 Y1.7320 
G01 X-2.1138 Y1.7342 
G01 X-2.1186 Y1.7374 
G01 X-2.1226 Y1.7414 
G01 X-2.2026 Y1.8214 
G01 X-2.2058 Y1.8262 
G01 X-2.2080 Y1.8315 
G01 X-2.2091 Y1.8371 
G01 X-2.2091 Y2.2883 
G01 X-2.2479 Y2.2883 
G01 X-2.2491 Y2.2871 
G01 X-2.2555 Y2.2828 
G01 X-2.2626 Y2.2798 
G01 X-2.2702 Y2.2783 
G00 Z0.1000 
G00 X-2.2702 Y2.1799 
G01 Z-0.0100 F10.00 
G01 X-2.3379 Y2.1799 
G01 X-2.3455 Y2.1814 
G01 X-2.3526 Y2.1844 
G01 X-2.3590 Y2.1886 
G01 X-2.3602 Y2.1899 
G01 X-2.3919 Y2.1899 
G01 X-2.3975 Y2.1910 
G01 X-2.4028 Y2.1932 
G01 X-2.4076 Y2.1964 
G01 X-2.4785 Y2.2674 
G01 X-2.4786 Y2.2674 
G01 X-2.4826 Y2.2714 
G01 X-2.4858 Y2.2762 
G01 X-2.4880 Y2.2815 
G01 X-2.4891 Y2.2871 
G01 X-2.4891 Y2.4429 
G01 X-2.4880 Y2.4485 
G01 X-2.4858 Y2.4538 
G01 X-2.4826 Y2.4586 
G01 X-2.3826 Y2.5586 
G01 X-2.3786 Y2.5626 
G01 X-2.3738 Y2.5658 
G01 X-2.3685 Y2.5680 
G01 X-2.3629 Y2.5691 
G01 X-2.2491 Y2.5691 
G01 X-2.2491 Y2.6227 
G01 X-2.2523 Y2.6259 
G01 X-2.2564 Y2.6315 
G01 X-2.2595 Y2.6377 
G01 X-2.2617 Y2.6444 
G01 X-2.2628 Y2.6513 
G01 X-2.2628 Y2.7287 
G01 X-2.2617 Y2.7356 
G01 X-2.2595 Y2.7423 
G01 X-2.2564 Y2.7485 
G01 X-2.2523 Y2.7541 
G01 X-2.2473 Y2.7591 
G01 X-2.2417 Y2.7632 
G01 X-2.2354 Y2.7664 
G01 X-2.2288 Y2.7685 
G01 X-2.2219 Y2.7696 
G01 X-2.2149 Y2.7696 
G01 X-2.2080 Y2.7685 
G01 X-2.2014 Y2.7664 
G01 X-2.1952 Y2.7632 
G01 X-2.1895 Y2.7591 
G01 X-2.1846 Y2.7541 
G01 X-2.1805 Y2.7485 
G01 X-2.1773 Y2.7423 
G01 X-2.1752 Y2.7356 
G01 X-2.1741 Y2.7287 
G01 X-2.1741 Y2.6513 
G01 X-2.1752 Y2.6444 
G01 X-2.1773 Y2.6377 
G01 X-2.1805 Y2.6315 
G01 X-2.1846 Y2.6259 
G01 X-2.1895 Y2.6209 
G01 X-2.1909 Y2.6199 
G01 X-2.1909 Y2.5371 
G01 X-2.1920 Y2.5315 
G01 X-2.1942 Y2.5262 
G01 X-2.1974 Y2.5214 
G01 X-2.2014 Y2.5174 
G01 X-2.2062 Y2.5142 
G01 X-2.2115 Y2.5120 
G01 X-2.2171 Y2.5109 
G01 X-2.3479 Y2.5109 
G01 X-2.4309 Y2.4279 
G01 X-2.4309 Y2.3021 
G01 X-2.3769 Y2.2481 
G01 X-2.3602 Y2.2481 
G01 X-2.3590 Y2.2494 
G01 X-2.3526 Y2.2536 
G01 X-2.3455 Y2.2566 
G01 X-2.3379 Y2.2581 
G01 X-2.2702 Y2.2581 
G01 X-2.2626 Y2.2566 
G01 X-2.2555 Y2.2536 
G01 X-2.2491 Y2.2494 
G01 X-2.2437 Y2.2439 
G01 X-2.2394 Y2.2375 
G01 X-2.2364 Y2.2304 
G01 X-2.2349 Y2.2229 
G01 X-2.2349 Y2.2151 
G01 X-2.2364 Y2.2076 
G01 X-2.2394 Y2.2005 
G01 X-2.2437 Y2.1941 
G01 X-2.2491 Y2.1886 
G01 X-2.2555 Y2.1844 
G01 X-2.2626 Y2.1814 
G01 X-2.2702 Y2.1799 
G00 Z0.1000 
G00 X-2.3379 Y2.0815 
G01 Z-0.0100 F10.00 
G01 X-2.3455 Y2.0830 
G01 X-2.3526 Y2.0859 
G01 X-2.3590 Y2.0902 
G01 X-2.3644 Y2.0956 
G01 X-2.3687 Y2.1021 
G01 X-2.3716 Y2.1092 
G01 X-2.3731 Y2.1167 
G01 X-2.3731 Y2.1244 
G01 X-2.3716 Y2.1320 
G01 X-2.3687 Y2.1391 
G01 X-2.3644 Y2.1455 
G01 X-2.3590 Y2.1509 
G01 X-2.3526 Y2.1552 
G01 X-2.3455 Y2.1582 
G01 X-2.3379 Y2.1597 
G01 X-2.2702 Y2.1597 
G01 X-2.2626 Y2.1582 
G01 X-2.2555 Y2.1552 
G01 X-2.2491 Y2.1509 
G01 X-2.2437 Y2.1455 
G01 X-2.2394 Y2.1391 
G01 X-2.2364 Y2.1320 
G01 X-2.2349 Y2.1244 
G01 X-2.2349 Y2.1167 
G01 X-2.2364 Y2.1092 
G01 X-2.2394 Y2.1021 
G01 X-2.2437 Y2.0956 
G01 X-2.2491 Y2.0902 
G01 X-2.2555 Y2.0859 
G01 X-2.2626 Y2.0830 
G01 X-2.2689 Y2.0817 
G01 X-2.2689 Y1.9335 
G01 X-2.2629 Y1.9275 
G01 X-2.2629 Y1.8985 
G01 X-2.2835 Y1.8779 
G01 X-2.3125 Y1.8779 
G01 X-2.3331 Y1.8985 
G01 X-2.3331 Y1.9275 
G01 X-2.3271 Y1.9335 
G01 X-2.3271 Y2.0815 
G01 X-2.3379 Y2.0815 
G00 Z0.1000 
G00 X-0.7242 Y2.1729 
G01 Z-0.0100 F10.00 
G01 X-0.7919 Y2.1729 
G01 X-0.7995 Y2.1744 
G01 X-0.8066 Y2.1774 
G01 X-0.8130 Y2.1816 
G01 X-0.8184 Y2.1871 
G01 X-0.8227 Y2.1935 
G01 X-0.8256 Y2.2006 
G01 X-0.8271 Y2.2081 
G01 X-0.8271 Y2.2159 
G01 X-0.8256 Y2.2234 
G01 X-0.8227 Y2.2305 
G01 X-0.8184 Y2.2369 
G01 X-0.8130 Y2.2424 
G01 X-0.8066 Y2.2466 
G01 X-0.7995 Y2.2496 
G01 X-0.7919 Y2.2511 
G01 X-0.7242 Y2.2511 
G01 X-0.7166 Y2.2496 
G01 X-0.7095 Y2.2466 
G01 X-0.7031 Y2.2424 
G01 X-0.7019 Y2.2411 
G01 X-0.6491 Y2.2411 
G01 X-0.6491 Y2.3179 
G01 X-0.8501 Y2.5190 
G01 X-0.8542 Y2.5230 
G01 X-0.8574 Y2.5278 
G01 X-0.8596 Y2.5331 
G01 X-0.8607 Y2.5387 
G01 X-0.8607 Y2.6161 
G01 X-0.8654 Y2.6209 
G01 X-0.8695 Y2.6265 
G01 X-0.8727 Y2.6327 
G01 X-0.8748 Y2.6394 
G01 X-0.8759 Y2.6463 
G01 X-0.8759 Y2.7237 
G01 X-0.8748 Y2.7306 
G01 X-0.8727 Y2.7373 
G01 X-0.8695 Y2.7435 
G01 X-0.8654 Y2.7491 
G01 X-0.8605 Y2.7541 
G01 X-0.8548 Y2.7582 
G01 X-0.8486 Y2.7614 
G01 X-0.8420 Y2.7635 
G01 X-0.8351 Y2.7646 
G01 X-0.8281 Y2.7646 
G01 X-0.8212 Y2.7635 
G01 X-0.8146 Y2.7614 
G01 X-0.8083 Y2.7582 
G01 X-0.8027 Y2.7541 
G01 X-0.7977 Y2.7491 
G01 X-0.7936 Y2.7435 
G01 X-0.7905 Y2.7373 
G01 X-0.7883 Y2.7306 
G01 X-0.7872 Y2.7237 
G01 X-0.7872 Y2.6463 
G01 X-0.7883 Y2.6394 
G01 X-0.7905 Y2.6327 
G01 X-0.7936 Y2.6265 
G01 X-0.7977 Y2.6209 
G01 X-0.8025 Y2.6161 
G01 X-0.8025 Y2.5536 
G01 X-0.6014 Y2.3526 
G01 X-0.5974 Y2.3486 
G01 X-0.5942 Y2.3438 
G01 X-0.5920 Y2.3385 
G01 X-0.5909 Y2.3329 
G01 X-0.5909 Y2.2171 
G01 X-0.5920 Y2.2115 
G01 X-0.5942 Y2.2062 
G01 X-0.5974 Y2.2014 
G01 X-0.6014 Y2.1974 
G01 X-0.6094 Y2.1894 
G01 X-0.6142 Y2.1862 
G01 X-0.6195 Y2.1840 
G01 X-0.6251 Y2.1829 
G01 X-0.7019 Y2.1829 
G01 X-0.7031 Y2.1816 
G01 X-0.7095 Y2.1774 
G01 X-0.7166 Y2.1744 
G01 X-0.7242 Y2.1729 
G00 Z0.1000 
G00 X-0.7242 Y2.0745 
G01 Z-0.0100 F10.00 
G01 X-0.7544 Y2.0745 
G01 X-1.0909 Y1.7379 
G01 X-1.0909 Y1.6865 
G01 X-1.0889 Y1.6845 
G01 X-1.0889 Y1.6555 
G01 X-1.1095 Y1.6349 
G01 X-1.1385 Y1.6349 
G01 X-1.1591 Y1.6555 
G01 X-1.1591 Y1.6845 
G01 X-1.1491 Y1.6945 
G01 X-1.1491 Y1.7529 
G01 X-1.1480 Y1.7585 
G01 X-1.1458 Y1.7638 
G01 X-1.1426 Y1.7686 
G01 X-0.8201 Y2.0911 
G01 X-0.8227 Y2.0951 
G01 X-0.8256 Y2.1022 
G01 X-0.8271 Y2.1097 
G01 X-0.8271 Y2.1174 
G01 X-0.8256 Y2.1250 
G01 X-0.8227 Y2.1321 
G01 X-0.8184 Y2.1385 
G01 X-0.8130 Y2.1439 
G01 X-0.8066 Y2.1482 
G01 X-0.7995 Y2.1512 
G01 X-0.7919 Y2.1527 
G01 X-0.7242 Y2.1527 
G01 X-0.7166 Y2.1512 
G01 X-0.7095 Y2.1482 
G01 X-0.7031 Y2.1439 
G01 X-0.6977 Y2.1385 
G01 X-0.6934 Y2.1321 
G01 X-0.6904 Y2.1250 
G01 X-0.6889 Y2.1174 
G01 X-0.6889 Y2.1097 
G01 X-0.6904 Y2.1022 
G01 X-0.6934 Y2.0951 
G01 X-0.6977 Y2.0886 
G01 X-0.7031 Y2.0832 
G01 X-0.7095 Y2.0789 
G01 X-0.7166 Y2.0760 
G01 X-0.7242 Y2.0745 
G00 Z0.1000 
G00 X-0.3642 Y2.1839 
G01 Z-0.0100 F10.00 
G01 X-0.4319 Y2.1839 
G01 X-0.4395 Y2.1854 
G01 X-0.4466 Y2.1884 
G01 X-0.4530 Y2.1926 
G01 X-0.4542 Y2.1939 
G01 X-0.4859 Y2.1939 
G01 X-0.4915 Y2.1950 
G01 X-0.4968 Y2.1972 
G01 X-0.5016 Y2.2004 
G01 X-0.5526 Y2.2514 
G01 X-0.5558 Y2.2562 
G01 X-0.5580 Y2.2615 
G01 X-0.5591 Y2.2671 
G01 X-0.5591 Y2.5679 
G01 X-0.6066 Y2.6154 
G01 X-0.6115 Y2.6118 
G01 X-0.6177 Y2.6086 
G01 X-0.6243 Y2.6065 
G01 X-0.6312 Y2.6054 
G01 X-0.6382 Y2.6054 
G01 X-0.6451 Y2.6065 
G01 X-0.6517 Y2.6086 
G01 X-0.6580 Y2.6118 
G01 X-0.6636 Y2.6159 
G01 X-0.6686 Y2.6209 
G01 X-0.6727 Y2.6265 
G01 X-0.6758 Y2.6327 
G01 X-0.6780 Y2.6394 
G01 X-0.6791 Y2.6463 
G01 X-0.6791 Y2.7237 
G01 X-0.6780 Y2.7306 
G01 X-0.6758 Y2.7373 
G01 X-0.6727 Y2.7435 
G01 X-0.6686 Y2.7491 
G01 X-0.6636 Y2.7541 
G01 X-0.6580 Y2.7582 
G01 X-0.6517 Y2.7614 
G01 X-0.6451 Y2.7635 
G01 X-0.6382 Y2.7646 
G01 X-0.6312 Y2.7646 
G01 X-0.6243 Y2.7635 
G01 X-0.6177 Y2.7614 
G01 X-0.6115 Y2.7582 
G01 X-0.6058 Y2.7541 
G01 X-0.6009 Y2.7491 
G01 X-0.5968 Y2.7435 
G01 X-0.5936 Y2.7373 
G01 X-0.5915 Y2.7306 
G01 X-0.5904 Y2.7237 
G01 X-0.5904 Y2.6815 
G01 X-0.5114 Y2.6026 
G01 X-0.5074 Y2.5986 
G01 X-0.5042 Y2.5938 
G01 X-0.5020 Y2.5885 
G01 X-0.5009 Y2.5829 
G01 X-0.5009 Y2.2821 
G01 X-0.4709 Y2.2521 
G01 X-0.4542 Y2.2521 
G01 X-0.4530 Y2.2534 
G01 X-0.4466 Y2.2576 
G01 X-0.4395 Y2.2606 
G01 X-0.4319 Y2.2621 
G01 X-0.3642 Y2.2621 
G01 X-0.3566 Y2.2606 
G01 X-0.3495 Y2.2576 
G01 X-0.3431 Y2.2534 
G01 X-0.3377 Y2.2479 
G01 X-0.3334 Y2.2415 
G01 X-0.3304 Y2.2344 
G01 X-0.3289 Y2.2269 
G01 X-0.3289 Y2.2191 
G01 X-0.3304 Y2.2116 
G01 X-0.3334 Y2.2045 
G01 X-0.3377 Y2.1981 
G01 X-0.3431 Y2.1926 
G01 X-0.3495 Y2.1884 
G01 X-0.3566 Y2.1854 
G01 X-0.3642 Y2.1839 
G00 Z0.1000 
G00 X-0.3642 Y2.0855 
G01 Z-0.0100 F10.00 
G01 X-0.3689 Y2.0855 
G01 X-0.3689 Y2.0491 
G01 X-0.3701 Y2.0435 
G01 X-0.3723 Y2.0382 
G01 X-0.3754 Y2.0334 
G01 X-0.4214 Y1.9874 
G01 X-0.4262 Y1.9842 
G01 X-0.4315 Y1.9820 
G01 X-0.4371 Y1.9809 
G01 X-0.7279 Y1.9809 
G01 X-0.8309 Y1.8779 
G01 X-0.8309 Y1.7071 
G01 X-0.8320 Y1.7015 
G01 X-0.8342 Y1.6962 
G01 X-0.8374 Y1.6914 
G01 X-0.8414 Y1.6874 
G01 X-0.8774 Y1.6514 
G01 X-0.8774 Y1.6514 
G01 X-0.8814 Y1.6474 
G01 X-0.8862 Y1.6442 
G01 X-0.8915 Y1.6420 
G01 X-0.8950 Y1.6413 
G01 X-0.9015 Y1.6349 
