( This gcode generated by /Applications/EAGLE-6.4.0/ulp/pcb-gcode.ulp )
( Copyright 2005 by John Johnson. See readme.txt for licensing terms. )

( This file generated from the board /Users/thiago/Documents/IsThisArt/2013-04 -- Five42Lights/Five42Lights/Five42LightsEagle/Five42LightsEagle.brd )

( Settings from pcb-machine.h )
( tool size = 0.0080 )
( z high = 0.5000	z up = 0.1000	z down = -0.0100 )
( drill depth = -0.0700 )
( spindle on time = 3.0000 )
( milling depth = -0.0700 )
( tool change at X0.0000, Y0.0000, Z5.0000 )
( feed rate = 10.0000	feed rate z = 5.0000 )

( Settings from pcb-defaults.h )
( Default isolate = 0.0001 )
( isolate max = 0.0200 )
( isolate step = 0.0050 )
( Generated: bottom outlines, bottom drill,  )
( Unit of measure: inch )


( T01 0.032000 )
( T02 0.040000 )
( T03 0.047000 )
G20

G90
M05
G00 X0.0000 Y0.0000 Z5.0000 
G00 Z0.1000 
M03
G04 P3.000000
G82 X-1.3250 Y1.2800 Z-0.0700 F5.00  R0.1000 P0.100000
G82 X-1.3250 Y1.6800 
G82 X-1.6510 Y1.5490 
G82 X-1.6510 Y1.9490 
G82 X-2.0080 Y1.4760 
G82 X-2.0080 Y1.8760 
G82 X-2.0400 Y0.6100 
G82 X-2.0400 Y1.1100 
G82 X-2.2700 Y0.5300 
G82 X-2.2700 Y1.0300 
G82 X-2.2980 Y1.5130 
G82 X-2.2980 Y1.9130 
G82 X-0.9160 Y1.2700 
G82 X-0.9160 Y1.6700 
G82 X-1.1240 Y1.2700 
G82 X-1.1240 Y1.6700 
M05
G00 X0.0000 Y0.0000 Z5.0000 
G00 Z0.1000 
M03
G04 P3.000000
G82 X-1.4500 Y0.2166 Z-0.0700 F5.00  R0.1000 P0.100000
G82 X-1.4500 Y0.3150 
G82 X-1.4500 Y0.4134 
G82 X-1.6640 Y2.1176 
G82 X-1.6640 Y2.2160 
G82 X-1.6640 Y2.3144 
G82 X-1.7100 Y0.6300 
G82 X-1.7100 Y0.7300 
G82 X-1.7100 Y0.8300 
G82 X-1.7100 Y0.9300 
G82 X-1.7100 Y1.0300 
G82 X-1.7100 Y1.1300 
G82 X-2.0100 Y2.1206 
G82 X-2.0100 Y2.2190 
G82 X-2.0100 Y2.3174 
G82 X-2.0430 Y0.2166 
G82 X-2.0430 Y0.3150 
G82 X-2.0430 Y0.4134 
G82 X-2.3040 Y2.1206 
G82 X-2.3040 Y2.2190 
G82 X-2.3040 Y2.3174 
G82 X-2.5400 Y1.3300 
G82 X-2.5400 Y1.4900 
G82 X-2.5400 Y1.5900 
G82 X-2.5400 Y1.6900 
G82 X-2.5400 Y1.7900 
G82 X-2.5400 Y1.8900 
G82 X-2.5400 Y1.9900 
G82 X-2.5400 Y2.0900 
G82 X-2.5400 Y2.1900 
G82 X-2.5400 Y0.6300 
G82 X-2.5400 Y0.7300 
G82 X-2.5400 Y0.8300 
G82 X-2.5400 Y0.9300 
G82 X-2.5400 Y1.0300 
G82 X-2.5400 Y1.1300 
G82 X-2.5400 Y1.2300 
G82 X-0.3980 Y2.1246 
G82 X-0.3980 Y2.2230 
G82 X-0.3980 Y2.3214 
G82 X-0.6400 Y1.3300 
G82 X-0.6400 Y1.4300 
G82 X-0.6400 Y1.5300 
G82 X-0.6400 Y1.6300 
G82 X-0.6400 Y1.7300 
G82 X-0.6400 Y1.8300 
G82 X-0.6400 Y0.6300 
G82 X-0.6400 Y0.7300 
G82 X-0.6400 Y0.8300 
G82 X-0.6400 Y0.9300 
G82 X-0.6400 Y1.0300 
G82 X-0.6400 Y1.1300 
G82 X-0.7580 Y2.1136 
G82 X-0.7580 Y2.2120 
G82 X-0.7580 Y2.3104 
G82 X-1.1960 Y2.1186 
G82 X-1.1960 Y2.2170 
G82 X-1.1960 Y2.3154 
M05
G00 X0.0000 Y0.0000 Z5.0000 
G00 Z0.1000 
M03
G04 P3.000000
G82 X-1.8247 Y2.6900 Z-0.0700 F5.00  R0.1000 P0.100000
G82 X-2.0216 Y2.6900 
G82 X-2.2184 Y2.6900 
G82 X-2.4153 Y2.6900 
G82 X-2.4736 Y0.3320 
G82 X-0.2616 Y0.2350 
G82 X-2.6704 Y0.3320 
G82 X-0.4584 Y0.2350 
G82 X-0.6347 Y2.6850 
G82 X-0.8316 Y2.6850 
G82 X-0.8816 Y0.2370 
G82 X-1.0284 Y2.6850 
G82 X-1.0784 Y0.2370 
G82 X-1.2253 Y2.6850 
(File Footer)
T01 
G00 Z0.5000 
M05
M02
