( This gcode generated by /Applications/EAGLE-6.4.0/ulp/pcb-gcode.ulp )
( Copyright 2005 by John Johnson. See readme.txt for licensing terms. )

( This file generated from the board /Users/thiago/Documents/IsThisArt/2013-04 -- Five42Lights/Five42Lights/Five42LightsEagle/Five42LightsEagle.brd )

( Settings from pcb-machine.h )
( tool size = 0.0080 )
( z high = 0.5000	z up = 0.1000	z down = -0.0100 )
( drill depth = -0.0750 )
( spindle on time = 3.0000 )
( milling depth = -0.0750 )
( tool change at X0.0000, Y0.0000, Z5.0000 )
( feed rate = 10.0000	feed rate z = 3.0000 )

( Settings from pcb-defaults.h )
( Default isolate = 0.0001 )
( isolate max = 0.0100 )
( isolate step = 0.0050 )
( Generated: bottom outlines, bottom drill,  )
( Unit of measure: inch )


G20

G90
G00 Z0.5000 
G00 X0 Y0
M03
G04 P3.000000
G00 Z0.1000 
G00 X-1.0924 Y2.8541 
G01 Z-0.0100 F10.00 
G01 X-0.5976 Y2.8541 
G01 X-0.5930 Y2.8532 
G01 X-0.5886 Y2.8514 
G01 X-0.5846 Y2.8487 
G01 X-0.5813 Y2.8454 
G01 X-0.1013 Y2.3654 
G01 X-0.0986 Y2.3614 
G01 X-0.0968 Y2.3570 
G01 X-0.0959 Y2.3524 
G01 X-0.0959 Y1.0076 
G01 X-0.0962 Y1.0060 
G01 X-0.0962 Y0.3940 
G01 X-0.0959 Y0.3924 
G01 X-0.0959 Y0.3876 
G01 X-0.0968 Y0.3830 
G01 X-0.0986 Y0.3786 
G01 X-0.1013 Y0.3746 
G01 X-0.2182 Y0.2577 
G01 X-0.2182 Y0.1923 
G01 X-0.2193 Y0.1856 
G01 X-0.2214 Y0.1791 
G01 X-0.2245 Y0.1730 
G01 X-0.2285 Y0.1675 
G01 X-0.2333 Y0.1627 
G01 X-0.2375 Y0.1597 
G01 X-0.2375 Y0.1561 
G01 X-0.2384 Y0.1514 
G01 X-0.2402 Y0.1470 
G01 X-0.2429 Y0.1431 
G01 X-0.3013 Y0.0846 
G01 X-0.3046 Y0.0813 
G01 X-0.3086 Y0.0786 
G01 X-0.3130 Y0.0768 
G01 X-0.3176 Y0.0759 
G01 X-0.7469 Y0.0759 
G01 X-0.7516 Y0.0768 
G01 X-0.7560 Y0.0786 
G01 X-0.7599 Y0.0813 
G01 X-0.8484 Y0.1697 
G01 X-0.8485 Y0.1695 
G01 X-0.8533 Y0.1647 
G01 X-0.8589 Y0.1607 
G01 X-0.8649 Y0.1576 
G01 X-0.8714 Y0.1555 
G01 X-0.8782 Y0.1544 
G01 X-0.8850 Y0.1544 
G01 X-0.8917 Y0.1555 
G01 X-0.8982 Y0.1576 
G01 X-0.9043 Y0.1607 
G01 X-0.9098 Y0.1647 
G01 X-0.9146 Y0.1695 
G01 X-0.9186 Y0.1750 
G01 X-0.9217 Y0.1811 
G01 X-0.9239 Y0.1876 
G01 X-0.9249 Y0.1943 
G01 X-0.9249 Y0.2797 
G01 X-0.9239 Y0.2864 
G01 X-0.9217 Y0.2929 
G01 X-0.9186 Y0.2990 
G01 X-0.9146 Y0.3045 
G01 X-0.9098 Y0.3093 
G01 X-0.9043 Y0.3133 
G01 X-0.8982 Y0.3164 
G01 X-0.8917 Y0.3185 
G01 X-0.8850 Y0.3196 
G01 X-0.8782 Y0.3196 
G01 X-0.8714 Y0.3185 
G01 X-0.8649 Y0.3164 
G01 X-0.8589 Y0.3133 
G01 X-0.8533 Y0.3093 
G01 X-0.8485 Y0.3045 
G01 X-0.8445 Y0.2990 
G01 X-0.8414 Y0.2929 
G01 X-0.8393 Y0.2864 
G01 X-0.8382 Y0.2797 
G01 X-0.8382 Y0.2277 
G01 X-0.7346 Y0.1241 
G01 X-0.3300 Y0.1241 
G01 X-0.2906 Y0.1635 
G01 X-0.2946 Y0.1675 
G01 X-0.2986 Y0.1730 
G01 X-0.3017 Y0.1791 
G01 X-0.3039 Y0.1856 
G01 X-0.3049 Y0.1923 
G01 X-0.3049 Y0.2777 
G01 X-0.3039 Y0.2844 
G01 X-0.3017 Y0.2909 
G01 X-0.2986 Y0.2970 
G01 X-0.2946 Y0.3025 
G01 X-0.2898 Y0.3073 
G01 X-0.2843 Y0.3113 
G01 X-0.2782 Y0.3144 
G01 X-0.2717 Y0.3165 
G01 X-0.2650 Y0.3176 
G01 X-0.2582 Y0.3176 
G01 X-0.2514 Y0.3165 
G01 X-0.2449 Y0.3144 
G01 X-0.2389 Y0.3113 
G01 X-0.2353 Y0.3088 
G01 X-0.1438 Y0.4003 
G01 X-0.1438 Y1.0060 
G01 X-0.1441 Y1.0076 
G01 X-0.1441 Y2.3400 
G01 X-0.6100 Y2.8059 
G01 X-1.0800 Y2.8059 
G01 X-1.1819 Y2.7040 
G01 X-1.1819 Y2.6423 
G01 X-1.1830 Y2.6356 
G01 X-1.1851 Y2.6291 
G01 X-1.1882 Y2.6230 
G01 X-1.1922 Y2.6175 
G01 X-1.1970 Y2.6127 
G01 X-1.2026 Y2.6087 
G01 X-1.2086 Y2.6056 
G01 X-1.2151 Y2.6035 
G01 X-1.2219 Y2.6024 
G01 X-1.2287 Y2.6024 
G01 X-1.2354 Y2.6035 
G01 X-1.2419 Y2.6056 
G01 X-1.2480 Y2.6087 
G01 X-1.2535 Y2.6127 
G01 X-1.2583 Y2.6175 
G01 X-1.2624 Y2.6230 
G01 X-1.2654 Y2.6291 
G01 X-1.2676 Y2.6356 
G01 X-1.2686 Y2.6423 
G01 X-1.2686 Y2.7277 
G01 X-1.2676 Y2.7344 
G01 X-1.2654 Y2.7409 
G01 X-1.2624 Y2.7470 
G01 X-1.2583 Y2.7525 
G01 X-1.2535 Y2.7573 
G01 X-1.2480 Y2.7613 
G01 X-1.2419 Y2.7644 
G01 X-1.2354 Y2.7665 
G01 X-1.2287 Y2.7676 
G01 X-1.2219 Y2.7676 
G01 X-1.2151 Y2.7665 
G01 X-1.2086 Y2.7644 
G01 X-1.2026 Y2.7613 
G01 X-1.1970 Y2.7573 
G01 X-1.1969 Y2.7572 
G01 X-1.1482 Y2.8059 
G01 X-2.2700 Y2.8059 
G01 X-2.3719 Y2.7040 
G01 X-2.3719 Y2.6473 
G01 X-2.3730 Y2.6406 
G01 X-2.3751 Y2.6341 
G01 X-2.3782 Y2.6280 
G01 X-2.3822 Y2.6225 
G01 X-2.3870 Y2.6177 
G01 X-2.3926 Y2.6137 
G01 X-2.3986 Y2.6106 
G01 X-2.4051 Y2.6085 
G01 X-2.4119 Y2.6074 
G01 X-2.4187 Y2.6074 
G01 X-2.4254 Y2.6085 
G01 X-2.4319 Y2.6106 
G01 X-2.4380 Y2.6137 
G01 X-2.4435 Y2.6177 
G01 X-2.4483 Y2.6225 
G01 X-2.4485 Y2.6227 
G01 X-2.6559 Y2.4153 
G01 X-2.6559 Y0.6200 
G01 X-2.4582 Y0.4223 
G01 X-2.4582 Y0.4223 
G01 X-2.4549 Y0.4189 
G01 X-2.4522 Y0.4150 
G01 X-2.4504 Y0.4106 
G01 X-2.4498 Y0.4076 
G01 X-2.4453 Y0.4043 
G01 X-2.4405 Y0.3995 
G01 X-2.4365 Y0.3940 
G01 X-2.4334 Y0.3879 
G01 X-2.4313 Y0.3814 
G01 X-2.4302 Y0.3747 
G01 X-2.4302 Y0.2893 
G01 X-2.4313 Y0.2826 
G01 X-2.4334 Y0.2761 
G01 X-2.4365 Y0.2700 
G01 X-2.4405 Y0.2645 
G01 X-2.4453 Y0.2597 
G01 X-2.4509 Y0.2557 
G01 X-2.4569 Y0.2526 
G01 X-2.4634 Y0.2505 
G01 X-2.4702 Y0.2494 
G01 X-2.4770 Y0.2494 
G01 X-2.4837 Y0.2505 
G01 X-2.4902 Y0.2526 
G01 X-2.4963 Y0.2557 
G01 X-2.5018 Y0.2597 
G01 X-2.5066 Y0.2645 
G01 X-2.5106 Y0.2700 
G01 X-2.5137 Y0.2761 
G01 X-2.5159 Y0.2826 
G01 X-2.5169 Y0.2893 
G01 X-2.5169 Y0.3747 
G01 X-2.5159 Y0.3814 
G01 X-2.5137 Y0.3879 
G01 X-2.5106 Y0.3940 
G01 X-2.5066 Y0.3995 
G01 X-2.5051 Y0.4010 
G01 X-2.6954 Y0.5913 
G01 X-2.6987 Y0.5946 
G01 X-2.7014 Y0.5986 
G01 X-2.7032 Y0.6030 
G01 X-2.7041 Y0.6076 
G01 X-2.7041 Y2.4324 
G01 X-2.7032 Y2.4370 
G01 X-2.7014 Y2.4414 
G01 X-2.6987 Y2.4454 
G01 X-2.6954 Y2.4487 
G01 X-2.6914 Y2.4514 
G01 X-2.6870 Y2.4532 
G01 X-2.6860 Y2.4534 
G01 X-2.4586 Y2.6807 
G01 X-2.4586 Y2.7327 
G01 X-2.4576 Y2.7394 
G01 X-2.4554 Y2.7459 
G01 X-2.4524 Y2.7520 
G01 X-2.4483 Y2.7575 
G01 X-2.4435 Y2.7623 
G01 X-2.4380 Y2.7663 
G01 X-2.4319 Y2.7694 
G01 X-2.4254 Y2.7715 
G01 X-2.4187 Y2.7726 
G01 X-2.4119 Y2.7726 
G01 X-2.4051 Y2.7715 
G01 X-2.3986 Y2.7694 
G01 X-2.3926 Y2.7663 
G01 X-2.3870 Y2.7623 
G01 X-2.3844 Y2.7597 
G01 X-2.2954 Y2.8487 
G01 X-2.2914 Y2.8514 
G01 X-2.2870 Y2.8532 
G01 X-2.2824 Y2.8541 
G01 X-2.2776 Y2.8541 
G01 X-1.0924 Y2.8541 
G00 Z0.1000 
G00 X-2.0758 Y0.5952 
G01 Z-0.0100 F10.00 
G01 X-2.0758 Y0.6248 
G01 X-2.0548 Y0.6458 
G01 X-2.0252 Y0.6458 
G01 X-2.0134 Y0.6341 
G01 X-1.9076 Y0.6341 
G01 X-1.9030 Y0.6332 
G01 X-1.8986 Y0.6314 
G01 X-1.8946 Y0.6287 
G01 X-1.7034 Y0.4375 
G01 X-1.5175 Y0.4375 
G01 X-1.5167 Y0.4388 
G01 X-1.5111 Y0.4444 
G01 X-1.5046 Y0.4487 
G01 X-1.4973 Y0.4517 
G01 X-1.4896 Y0.4533 
G01 X-1.4103 Y0.4533 
G01 X-1.4026 Y0.4517 
G01 X-1.3953 Y0.4487 
G01 X-1.3888 Y0.4444 
G01 X-1.3833 Y0.4388 
G01 X-1.3789 Y0.4323 
G01 X-1.3759 Y0.4250 
G01 X-1.3744 Y0.4173 
G01 X-1.3744 Y0.4095 
G01 X-1.3759 Y0.4018 
G01 X-1.3789 Y0.3945 
G01 X-1.3833 Y0.3880 
G01 X-1.3888 Y0.3825 
G01 X-1.3953 Y0.3781 
G01 X-1.4026 Y0.3751 
G01 X-1.4103 Y0.3736 
G01 X-1.4896 Y0.3736 
G01 X-1.4973 Y0.3751 
G01 X-1.5046 Y0.3781 
G01 X-1.5111 Y0.3825 
G01 X-1.5167 Y0.3880 
G01 X-1.5175 Y0.3893 
G01 X-1.7158 Y0.3893 
G01 X-1.7205 Y0.3903 
G01 X-1.7248 Y0.3921 
G01 X-1.7288 Y0.3947 
G01 X-1.9200 Y0.5859 
G01 X-2.0134 Y0.5859 
G01 X-2.0252 Y0.5742 
G01 X-2.0548 Y0.5742 
G01 X-2.0758 Y0.5952 
G00 Z0.1000 
G00 X-2.0758 Y1.1248 
G01 Z-0.0100 F10.00 
G01 X-2.0548 Y1.1458 
G01 X-2.0252 Y1.1458 
G01 X-2.0042 Y1.1248 
G01 X-2.0042 Y1.0952 
G01 X-2.0252 Y1.0742 
G01 X-2.0418 Y1.0742 
G01 X-2.2146 Y0.9013 
G01 X-2.2186 Y0.8986 
G01 X-2.2230 Y0.8968 
G01 X-2.2276 Y0.8959 
G01 X-2.3924 Y0.8959 
G01 X-2.3970 Y0.8968 
G01 X-2.4014 Y0.8986 
G01 X-2.4054 Y0.9013 
G01 X-2.4087 Y0.9046 
G01 X-2.4287 Y0.9246 
G01 X-2.4314 Y0.9286 
G01 X-2.4332 Y0.9330 
G01 X-2.4341 Y0.9376 
G01 X-2.4341 Y1.0800 
G01 X-2.4600 Y1.1059 
G01 X-2.4724 Y1.1059 
G01 X-2.4733 Y1.1046 
G01 X-2.4789 Y1.0990 
G01 X-2.4854 Y1.0947 
G01 X-2.4926 Y1.0917 
G01 X-2.5003 Y1.0902 
G01 X-2.5797 Y1.0902 
G01 X-2.5874 Y1.0917 
G01 X-2.5946 Y1.0947 
G01 X-2.6011 Y1.0990 
G01 X-2.6067 Y1.1046 
G01 X-2.6111 Y1.1111 
G01 X-2.6141 Y1.1184 
G01 X-2.6156 Y1.1261 
G01 X-2.6156 Y1.1339 
G01 X-2.6141 Y1.1416 
G01 X-2.6111 Y1.1489 
G01 X-2.6067 Y1.1554 
G01 X-2.6011 Y1.1610 
G01 X-2.5946 Y1.1653 
G01 X-2.5874 Y1.1683 
G01 X-2.5797 Y1.1698 
G01 X-2.5003 Y1.1698 
G01 X-2.4926 Y1.1683 
G01 X-2.4854 Y1.1653 
G01 X-2.4789 Y1.1610 
G01 X-2.4733 Y1.1554 
G01 X-2.4724 Y1.1541 
G01 X-2.4476 Y1.1541 
G01 X-2.4430 Y1.1532 
G01 X-2.4386 Y1.1514 
G01 X-2.4346 Y1.1487 
G01 X-2.3946 Y1.1087 
G01 X-2.3913 Y1.1054 
G01 X-2.3886 Y1.1014 
G01 X-2.3868 Y1.0970 
G01 X-2.3859 Y1.0924 
G01 X-2.3859 Y0.9500 
G01 X-2.3800 Y0.9441 
G01 X-2.2400 Y0.9441 
G01 X-2.0758 Y1.1082 
G01 X-2.0758 Y1.1248 
G00 Z0.1000 
G00 X-1.3608 Y1.6652 
G01 Z-0.0100 F10.00 
G01 X-1.3608 Y1.6948 
G01 X-1.3491 Y1.7066 
G01 X-1.3491 Y1.8824 
G01 X-1.3482 Y1.8870 
G01 X-1.3464 Y1.8914 
G01 X-1.3437 Y1.8954 
G01 X-1.2201 Y2.0189 
G01 X-1.2201 Y2.0787 
G01 X-1.2357 Y2.0787 
G01 X-1.2434 Y2.0803 
G01 X-1.2507 Y2.0833 
G01 X-1.2572 Y2.0876 
G01 X-1.2627 Y2.0932 
G01 X-1.2671 Y2.0997 
G01 X-1.2701 Y2.1070 
G01 X-1.2716 Y2.1146 
G01 X-1.2716 Y2.1225 
G01 X-1.2701 Y2.1302 
G01 X-1.2671 Y2.1374 
G01 X-1.2627 Y2.1440 
G01 X-1.2572 Y2.1495 
G01 X-1.2507 Y2.1539 
G01 X-1.2434 Y2.1569 
G01 X-1.2357 Y2.1584 
G01 X-1.1564 Y2.1584 
G01 X-1.1487 Y2.1569 
G01 X-1.1414 Y2.1539 
G01 X-1.1349 Y2.1495 
G01 X-1.1293 Y2.1440 
G01 X-1.1250 Y2.1374 
G01 X-1.1220 Y2.1302 
G01 X-1.1205 Y2.1225 
G01 X-1.1205 Y2.1146 
G01 X-1.1220 Y2.1070 
G01 X-1.1250 Y2.0997 
G01 X-1.1293 Y2.0932 
G01 X-1.1349 Y2.0876 
G01 X-1.1414 Y2.0833 
G01 X-1.1487 Y2.0803 
G01 X-1.1564 Y2.0787 
G01 X-1.1719 Y2.0787 
G01 X-1.1719 Y2.0066 
G01 X-1.1729 Y2.0019 
G01 X-1.1747 Y1.9975 
G01 X-1.1773 Y1.9936 
G01 X-1.3009 Y1.8700 
G01 X-1.3009 Y1.7066 
G01 X-1.2892 Y1.6948 
G01 X-1.2892 Y1.6652 
G01 X-1.3102 Y1.6442 
G01 X-1.3398 Y1.6442 
G01 X-1.3608 Y1.6652 
G00 Z0.1000 
G00 X-1.3398 Y1.3158 
G01 Z-0.0100 F10.00 
G01 X-1.3102 Y1.3158 
G01 X-1.2892 Y1.2948 
G01 X-1.2892 Y1.2652 
G01 X-1.3102 Y1.2442 
G01 X-1.3398 Y1.2442 
G01 X-1.3516 Y1.2559 
G01 X-2.0524 Y1.2559 
G01 X-2.0570 Y1.2568 
G01 X-2.0614 Y1.2586 
G01 X-2.0654 Y1.2613 
G01 X-2.0687 Y1.2646 
G01 X-2.2822 Y1.4781 
G01 X-2.2832 Y1.4772 
G01 X-2.3128 Y1.4772 
G01 X-2.3338 Y1.4982 
G01 X-2.3338 Y1.5278 
G01 X-2.3329 Y1.5288 
G01 X-2.3700 Y1.5659 
G01 X-2.4724 Y1.5659 
G01 X-2.4733 Y1.5646 
G01 X-2.4789 Y1.5590 
G01 X-2.4854 Y1.5547 
G01 X-2.4926 Y1.5517 
G01 X-2.5003 Y1.5502 
G01 X-2.5797 Y1.5502 
G01 X-2.5874 Y1.5517 
G01 X-2.5946 Y1.5547 
G01 X-2.6011 Y1.5590 
G01 X-2.6067 Y1.5646 
G01 X-2.6111 Y1.5711 
G01 X-2.6141 Y1.5784 
G01 X-2.6156 Y1.5861 
G01 X-2.6156 Y1.5939 
G01 X-2.6141 Y1.6016 
G01 X-2.6111 Y1.6089 
G01 X-2.6067 Y1.6154 
G01 X-2.6011 Y1.6210 
G01 X-2.5946 Y1.6253 
G01 X-2.5874 Y1.6283 
G01 X-2.5797 Y1.6298 
G01 X-2.5003 Y1.6298 
G01 X-2.4926 Y1.6283 
G01 X-2.4854 Y1.6253 
G01 X-2.4789 Y1.6210 
G01 X-2.4733 Y1.6154 
G01 X-2.4724 Y1.6141 
G01 X-2.3576 Y1.6141 
G01 X-2.3530 Y1.6132 
G01 X-2.3486 Y1.6114 
G01 X-2.3446 Y1.6087 
G01 X-2.2848 Y1.5488 
G01 X-2.2832 Y1.5488 
G01 X-2.2622 Y1.5278 
G01 X-2.2622 Y1.5262 
G01 X-2.0400 Y1.3041 
G01 X-1.3516 Y1.3041 
G01 X-1.3398 Y1.3158 
G00 Z0.1000 
G00 X-0.9518 Y1.6552 
G01 Z-0.0100 F10.00 
G01 X-0.9518 Y1.6848 
G01 X-0.9308 Y1.7058 
G01 X-0.9012 Y1.7058 
G01 X-0.8997 Y1.7044 
G01 X-0.8841 Y1.7200 
G01 X-0.8841 Y1.8924 
G01 X-0.8832 Y1.8970 
G01 X-0.8814 Y1.9014 
G01 X-0.8787 Y1.9054 
G01 X-0.7587 Y2.0254 
G01 X-0.7554 Y2.0287 
G01 X-0.7514 Y2.0314 
G01 X-0.7470 Y2.0332 
G01 X-0.7424 Y2.0341 
G01 X-0.4500 Y2.0341 
G01 X-0.4221 Y2.0619 
G01 X-0.4221 Y2.0847 
G01 X-0.4377 Y2.0847 
G01 X-0.4454 Y2.0863 
G01 X-0.4527 Y2.0893 
G01 X-0.4592 Y2.0936 
G01 X-0.4647 Y2.0992 
G01 X-0.4691 Y2.1057 
G01 X-0.4721 Y2.1130 
G01 X-0.4736 Y2.1206 
G01 X-0.4736 Y2.1285 
G01 X-0.4721 Y2.1362 
G01 X-0.4691 Y2.1434 
G01 X-0.4647 Y2.1500 
G01 X-0.4592 Y2.1555 
G01 X-0.4527 Y2.1599 
G01 X-0.4454 Y2.1629 
G01 X-0.4377 Y2.1644 
G01 X-0.3584 Y2.1644 
G01 X-0.3507 Y2.1629 
G01 X-0.3434 Y2.1599 
G01 X-0.3369 Y2.1555 
G01 X-0.3313 Y2.1500 
G01 X-0.3270 Y2.1434 
G01 X-0.3240 Y2.1362 
G01 X-0.3225 Y2.1285 
G01 X-0.3225 Y2.1206 
G01 X-0.3240 Y2.1130 
G01 X-0.3270 Y2.1057 
G01 X-0.3313 Y2.0992 
G01 X-0.3369 Y2.0936 
G01 X-0.3434 Y2.0893 
G01 X-0.3507 Y2.0863 
G01 X-0.3584 Y2.0847 
G01 X-0.3739 Y2.0847 
G01 X-0.3739 Y2.0496 
G01 X-0.3749 Y2.0449 
G01 X-0.3767 Y2.0405 
G01 X-0.3793 Y2.0366 
G01 X-0.4246 Y1.9913 
G01 X-0.4286 Y1.9886 
G01 X-0.4330 Y1.9868 
G01 X-0.4376 Y1.9859 
G01 X-0.7300 Y1.9859 
G01 X-0.8359 Y1.8800 
G01 X-0.8359 Y1.7076 
G01 X-0.8368 Y1.7030 
G01 X-0.8386 Y1.6986 
G01 X-0.8413 Y1.6946 
G01 X-0.8784 Y1.6576 
G01 X-0.8787 Y1.6572 
G01 X-0.8802 Y1.6558 
G01 X-0.8802 Y1.6552 
G01 X-0.9012 Y1.6342 
G01 X-0.9308 Y1.6342 
G01 X-0.9518 Y1.6552 
G00 Z0.1000 
G00 X-2.0228 Y1.5118 
G01 Z-0.0100 F10.00 
G01 X-1.9932 Y1.5118 
G01 X-1.9722 Y1.4908 
G01 X-1.9722 Y1.4762 
G01 X-1.8900 Y1.3941 
G01 X-1.2176 Y1.3941 
G01 X-1.2130 Y1.3932 
G01 X-1.2086 Y1.3914 
G01 X-1.2046 Y1.3887 
G01 X-1.1218 Y1.3058 
G01 X-1.1092 Y1.3058 
G01 X-1.0882 Y1.2848 
G01 X-1.0882 Y1.2552 
G01 X-1.1092 Y1.2342 
G01 X-1.1388 Y1.2342 
G01 X-1.1598 Y1.2552 
G01 X-1.1598 Y1.2758 
G01 X-1.2300 Y1.3459 
G01 X-1.9024 Y1.3459 
G01 X-1.9070 Y1.3468 
G01 X-1.9114 Y1.3486 
G01 X-1.9154 Y1.3513 
G01 X-2.0042 Y1.4402 
G01 X-2.0228 Y1.4402 
G01 X-2.0346 Y1.4519 
G01 X-2.0984 Y1.4519 
G01 X-2.1030 Y1.4528 
G01 X-2.1074 Y1.4546 
G01 X-2.1114 Y1.4573 
G01 X-2.1147 Y1.4606 
G01 X-2.1147 Y1.4606 
G01 X-2.3200 Y1.6659 
G01 X-2.4724 Y1.6659 
G01 X-2.4733 Y1.6646 
G01 X-2.4789 Y1.6590 
G01 X-2.4854 Y1.6547 
G01 X-2.4926 Y1.6517 
G01 X-2.5003 Y1.6502 
G01 X-2.5797 Y1.6502 
G01 X-2.5874 Y1.6517 
G01 X-2.5946 Y1.6547 
G01 X-2.6011 Y1.6590 
G01 X-2.6067 Y1.6646 
G01 X-2.6111 Y1.6711 
G01 X-2.6141 Y1.6784 
G01 X-2.6156 Y1.6861 
G01 X-2.6156 Y1.6939 
G01 X-2.6141 Y1.7016 
G01 X-2.6111 Y1.7089 
G01 X-2.6067 Y1.7154 
G01 X-2.6011 Y1.7210 
G01 X-2.5946 Y1.7253 
G01 X-2.5874 Y1.7283 
G01 X-2.5797 Y1.7298 
G01 X-2.5003 Y1.7298 
G01 X-2.4926 Y1.7283 
G01 X-2.4854 Y1.7253 
G01 X-2.4789 Y1.7210 
G01 X-2.4733 Y1.7154 
G01 X-2.4724 Y1.7141 
G01 X-2.3076 Y1.7141 
G01 X-2.3030 Y1.7132 
G01 X-2.2986 Y1.7114 
G01 X-2.2946 Y1.7087 
G01 X-2.2913 Y1.7054 
G01 X-2.0860 Y1.5001 
G01 X-2.0346 Y1.5001 
G01 X-2.0228 Y1.5118 
G00 Z0.1000 
G00 X-1.6868 Y1.9342 
G01 Z-0.0100 F10.00 
G01 X-1.6868 Y1.9638 
G01 X-1.6751 Y1.9756 
G01 X-1.6751 Y2.0777 
G01 X-1.7037 Y2.0777 
G01 X-1.7114 Y2.0793 
G01 X-1.7187 Y2.0823 
G01 X-1.7252 Y2.0866 
G01 X-1.7307 Y2.0922 
G01 X-1.7351 Y2.0987 
G01 X-1.7381 Y2.1060 
G01 X-1.7396 Y2.1136 
G01 X-1.7396 Y2.1215 
G01 X-1.7381 Y2.1292 
G01 X-1.7351 Y2.1364 
G01 X-1.7307 Y2.1430 
G01 X-1.7252 Y2.1485 
G01 X-1.7187 Y2.1529 
G01 X-1.7114 Y2.1559 
G01 X-1.7037 Y2.1574 
G01 X-1.6244 Y2.1574 
G01 X-1.6167 Y2.1559 
G01 X-1.6094 Y2.1529 
G01 X-1.6029 Y2.1485 
G01 X-1.5973 Y2.1430 
G01 X-1.5930 Y2.1364 
G01 X-1.5900 Y2.1292 
G01 X-1.5885 Y2.1215 
G01 X-1.5885 Y2.1136 
G01 X-1.5900 Y2.1060 
G01 X-1.5930 Y2.0987 
G01 X-1.5973 Y2.0922 
G01 X-1.6029 Y2.0866 
G01 X-1.6094 Y2.0823 
G01 X-1.6167 Y2.0793 
G01 X-1.6244 Y2.0777 
G01 X-1.6269 Y2.0777 
G01 X-1.6269 Y1.9756 
G01 X-1.6152 Y1.9638 
G01 X-1.6152 Y1.9342 
G01 X-1.6362 Y1.9132 
G01 X-1.6658 Y1.9132 
G01 X-1.6868 Y1.9342 
G00 Z0.1000 
G00 X-1.6868 Y1.5342 
G01 Z-0.0100 F10.00 
G01 X-1.6868 Y1.5528 
G01 X-1.7500 Y1.6159 
G01 X-2.1224 Y1.6159 
G01 X-2.1270 Y1.6168 
G01 X-2.1314 Y1.6186 
G01 X-2.1354 Y1.6213 
G01 X-2.2800 Y1.7659 
G01 X-2.4724 Y1.7659 
G01 X-2.4733 Y1.7646 
G01 X-2.4789 Y1.7590 
G01 X-2.4854 Y1.7547 
G01 X-2.4926 Y1.7517 
G01 X-2.5003 Y1.7502 
G01 X-2.5797 Y1.7502 
G01 X-2.5874 Y1.7517 
G01 X-2.5946 Y1.7547 
G01 X-2.6011 Y1.7590 
G01 X-2.6067 Y1.7646 
G01 X-2.6111 Y1.7711 
G01 X-2.6141 Y1.7784 
G01 X-2.6156 Y1.7861 
G01 X-2.6156 Y1.7939 
G01 X-2.6141 Y1.8016 
G01 X-2.6111 Y1.8089 
G01 X-2.6067 Y1.8154 
G01 X-2.6011 Y1.8210 
G01 X-2.5946 Y1.8253 
G01 X-2.5874 Y1.8283 
G01 X-2.5797 Y1.8298 
G01 X-2.5003 Y1.8298 
G01 X-2.4926 Y1.8283 
G01 X-2.4854 Y1.8253 
G01 X-2.4789 Y1.8210 
G01 X-2.4733 Y1.8154 
G01 X-2.4724 Y1.8141 
G01 X-2.2676 Y1.8141 
G01 X-2.2630 Y1.8132 
G01 X-2.2586 Y1.8114 
G01 X-2.2546 Y1.8087 
G01 X-2.2513 Y1.8054 
G01 X-2.2513 Y1.8054 
G01 X-2.1100 Y1.6641 
G01 X-1.7376 Y1.6641 
G01 X-1.7330 Y1.6632 
G01 X-1.7286 Y1.6614 
G01 X-1.7246 Y1.6587 
G01 X-1.6508 Y1.5848 
G01 X-1.6362 Y1.5848 
G01 X-1.6152 Y1.5638 
G01 X-1.6152 Y1.5472 
G01 X-1.5520 Y1.4841 
G01 X-0.9176 Y1.4841 
G01 X-0.9130 Y1.4832 
G01 X-0.9086 Y1.4814 
G01 X-0.9046 Y1.4787 
G01 X-0.9013 Y1.4754 
G01 X-0.8973 Y1.4714 
G01 X-0.8946 Y1.4674 
G01 X-0.8928 Y1.4630 
G01 X-0.8919 Y1.4584 
G01 X-0.8919 Y1.2966 
G01 X-0.8802 Y1.2848 
G01 X-0.8802 Y1.2552 
G01 X-0.9012 Y1.2342 
G01 X-0.9308 Y1.2342 
G01 X-0.9518 Y1.2552 
G01 X-0.9518 Y1.2848 
G01 X-0.9401 Y1.2966 
G01 X-0.9401 Y1.4359 
G01 X-1.5644 Y1.4359 
G01 X-1.5690 Y1.4368 
G01 X-1.5734 Y1.4386 
G01 X-1.5774 Y1.4413 
G01 X-1.6492 Y1.5132 
G01 X-1.6658 Y1.5132 
G01 X-1.6868 Y1.5342 
G00 Z0.1000 
G00 X-1.9704 Y2.0807 
G01 Z-0.0100 F10.00 
G01 X-1.9839 Y2.0807 
G01 X-1.9839 Y1.9026 
G01 X-1.9722 Y1.8908 
G01 X-1.9722 Y1.8612 
G01 X-1.9932 Y1.8402 
G01 X-2.0228 Y1.8402 
G01 X-2.0438 Y1.8612 
G01 X-2.0438 Y1.8908 
G01 X-2.0321 Y1.9026 
G01 X-2.0321 Y2.0807 
G01 X-2.0497 Y2.0807 
G01 X-2.0574 Y2.0823 
G01 X-2.0647 Y2.0853 
G01 X-2.0712 Y2.0896 
G01 X-2.0767 Y2.0952 
G01 X-2.0811 Y2.1017 
G01 X-2.0841 Y2.1090 
G01 X-2.0856 Y2.1166 
G01 X-2.0856 Y2.1245 
G01 X-2.0841 Y2.1322 
G01 X-2.0811 Y2.1394 
G01 X-2.0767 Y2.1460 
G01 X-2.0712 Y2.1515 
G01 X-2.0647 Y2.1559 
G01 X-2.0574 Y2.1589 
G01 X-2.0497 Y2.1604 
G01 X-1.9704 Y2.1604 
G01 X-1.9627 Y2.1589 
G01 X-1.9554 Y2.1559 
G01 X-1.9489 Y2.1515 
G01 X-1.9433 Y2.1460 
G01 X-1.9390 Y2.1394 
G01 X-1.9360 Y2.1322 
G01 X-1.9345 Y2.1245 
G01 X-1.9345 Y2.1166 
G01 X-1.9360 Y2.1090 
G01 X-1.9390 Y2.1017 
G01 X-1.9433 Y2.0952 
G01 X-1.9489 Y2.0896 
G01 X-1.9554 Y2.0853 
G01 X-1.9627 Y2.0823 
G01 X-1.9704 Y2.0807 
G00 Z0.1000 
G00 X-2.2644 Y2.2776 
G01 Z-0.0100 F10.00 
G01 X-2.3437 Y2.2776 
G01 X-2.3514 Y2.2791 
G01 X-2.3587 Y2.2821 
G01 X-2.3652 Y2.2865 
G01 X-2.3707 Y2.2920 
G01 X-2.3751 Y2.2985 
G01 X-2.3781 Y2.3058 
G01 X-2.3796 Y2.3135 
G01 X-2.3796 Y2.3213 
G01 X-2.3781 Y2.3290 
G01 X-2.3751 Y2.3363 
G01 X-2.3707 Y2.3428 
G01 X-2.3652 Y2.3484 
G01 X-2.3587 Y2.3527 
G01 X-2.3514 Y2.3557 
G01 X-2.3437 Y2.3573 
G01 X-2.2644 Y2.3573 
G01 X-2.2567 Y2.3557 
G01 X-2.2494 Y2.3527 
G01 X-2.2429 Y2.3484 
G01 X-2.2373 Y2.3428 
G01 X-2.2365 Y2.3415 
G01 X-2.0776 Y2.3415 
G01 X-2.0767 Y2.3428 
G01 X-2.0712 Y2.3484 
G01 X-2.0647 Y2.3527 
G01 X-2.0574 Y2.3557 
G01 X-2.0497 Y2.3573 
G01 X-1.9704 Y2.3573 
G01 X-1.9627 Y2.3557 
G01 X-1.9554 Y2.3527 
G01 X-1.9489 Y2.3484 
G01 X-1.9433 Y2.3428 
G01 X-1.9390 Y2.3363 
G01 X-1.9360 Y2.3290 
G01 X-1.9345 Y2.3213 
G01 X-1.9345 Y2.3135 
G01 X-1.9360 Y2.3058 
G01 X-1.9390 Y2.2985 
G01 X-1.9433 Y2.2920 
G01 X-1.9489 Y2.2865 
G01 X-1.9554 Y2.2821 
G01 X-1.9627 Y2.2791 
G01 X-1.9704 Y2.2776 
G01 X-2.0497 Y2.2776 
G01 X-2.0574 Y2.2791 
G01 X-2.0647 Y2.2821 
G01 X-2.0712 Y2.2865 
G01 X-2.0767 Y2.2920 
G01 X-2.0776 Y2.2933 
G01 X-2.1559 Y2.2933 
G01 X-2.1559 Y1.8500 
G01 X-2.0900 Y1.7841 
G01 X-1.5141 Y1.7841 
G01 X-1.5141 Y2.2913 
G01 X-1.5958 Y2.2913 
G01 X-1.5973 Y2.2890 
G01 X-1.6029 Y2.2835 
G01 X-1.6094 Y2.2791 
G01 X-1.6167 Y2.2761 
G01 X-1.6244 Y2.2746 
G01 X-1.7037 Y2.2746 
G01 X-1.7114 Y2.2761 
G01 X-1.7187 Y2.2791 
G01 X-1.7252 Y2.2835 
G01 X-1.7307 Y2.2890 
G01 X-1.7351 Y2.2955 
G01 X-1.7381 Y2.3028 
G01 X-1.7396 Y2.3105 
G01 X-1.7396 Y2.3183 
G01 X-1.7381 Y2.3260 
G01 X-1.7351 Y2.3333 
G01 X-1.7307 Y2.3398 
G01 X-1.7252 Y2.3454 
G01 X-1.7187 Y2.3497 
G01 X-1.7114 Y2.3527 
G01 X-1.7037 Y2.3543 
G01 X-1.6244 Y2.3543 
G01 X-1.6167 Y2.3527 
G01 X-1.6094 Y2.3497 
G01 X-1.6029 Y2.3454 
G01 X-1.5973 Y2.3398 
G01 X-1.5971 Y2.3395 
G01 X-1.2636 Y2.3395 
G01 X-1.2627 Y2.3408 
G01 X-1.2572 Y2.3464 
G01 X-1.2507 Y2.3507 
G01 X-1.2434 Y2.3537 
G01 X-1.2357 Y2.3553 
G01 X-1.1564 Y2.3553 
G01 X-1.1487 Y2.3537 
G01 X-1.1414 Y2.3507 
G01 X-1.1349 Y2.3464 
G01 X-1.1293 Y2.3408 
G01 X-1.1250 Y2.3343 
G01 X-1.1220 Y2.3270 
G01 X-1.1205 Y2.3193 
G01 X-1.1205 Y2.3115 
G01 X-1.1220 Y2.3038 
G01 X-1.1250 Y2.2965 
G01 X-1.1293 Y2.2900 
G01 X-1.1349 Y2.2845 
G01 X-1.1414 Y2.2801 
G01 X-1.1487 Y2.2771 
G01 X-1.1564 Y2.2756 
G01 X-1.2357 Y2.2756 
G01 X-1.2434 Y2.2771 
G01 X-1.2507 Y2.2801 
G01 X-1.2572 Y2.2845 
G01 X-1.2627 Y2.2900 
G01 X-1.2636 Y2.2913 
G01 X-1.4646 Y2.2913 
G01 X-1.4659 Y2.2900 
G01 X-1.4659 Y1.6400 
G01 X-1.4300 Y1.6041 
G01 X-1.2441 Y1.6041 
G01 X-1.2441 Y1.7724 
G01 X-1.2432 Y1.7770 
G01 X-1.2414 Y1.7814 
G01 X-1.2387 Y1.7854 
G01 X-1.2354 Y1.7887 
G01 X-1.2354 Y1.7887 
G01 X-0.9241 Y2.1000 
G01 X-0.9241 Y2.2324 
G01 X-0.9232 Y2.2370 
G01 X-0.9214 Y2.2414 
G01 X-0.9187 Y2.2454 
G01 X-0.9154 Y2.2487 
G01 X-0.9154 Y2.2487 
G01 X-0.8349 Y2.3291 
G01 X-0.8310 Y2.3318 
G01 X-0.8266 Y2.3336 
G01 X-0.8262 Y2.3337 
G01 X-0.8247 Y2.3358 
G01 X-0.8192 Y2.3414 
G01 X-0.8127 Y2.3457 
G01 X-0.8054 Y2.3487 
G01 X-0.7977 Y2.3503 
G01 X-0.7184 Y2.3503 
G01 X-0.7107 Y2.3487 
G01 X-0.7034 Y2.3457 
G01 X-0.6969 Y2.3414 
G01 X-0.6913 Y2.3358 
G01 X-0.6870 Y2.3293 
G01 X-0.6840 Y2.3220 
G01 X-0.6825 Y2.3143 
G01 X-0.6825 Y2.3065 
G01 X-0.6840 Y2.2988 
G01 X-0.6870 Y2.2915 
G01 X-0.6913 Y2.2850 
G01 X-0.6969 Y2.2795 
G01 X-0.7034 Y2.2751 
G01 X-0.7107 Y2.2721 
G01 X-0.7184 Y2.2706 
G01 X-0.7977 Y2.2706 
G01 X-0.8054 Y2.2721 
G01 X-0.8127 Y2.2751 
G01 X-0.8175 Y2.2784 
G01 X-0.8759 Y2.2200 
G01 X-0.8759 Y2.0876 
G01 X-0.8768 Y2.0830 
G01 X-0.8786 Y2.0786 
G01 X-0.8813 Y2.0746 
G01 X-0.8846 Y2.0713 
G01 X-0.8846 Y2.0713 
G01 X-1.1959 Y1.7600 
G01 X-1.1959 Y1.6041 
G01 X-0.8800 Y1.6041 
G01 X-0.8041 Y1.6800 
G01 X-0.8041 Y1.8524 
G01 X-0.8032 Y1.8570 
G01 X-0.8014 Y1.8614 
G01 X-0.7987 Y1.8654 
G01 X-0.7187 Y1.9454 
G01 X-0.7154 Y1.9487 
G01 X-0.7114 Y1.9514 
G01 X-0.7070 Y1.9532 
G01 X-0.7024 Y1.9541 
G01 X-0.2841 Y1.9541 
G01 X-0.2841 Y2.2400 
G01 X-0.3357 Y2.2916 
G01 X-0.3369 Y2.2905 
G01 X-0.3434 Y2.2861 
G01 X-0.3507 Y2.2831 
G01 X-0.3584 Y2.2816 
G01 X-0.4377 Y2.2816 
G01 X-0.4454 Y2.2831 
G01 X-0.4527 Y2.2861 
G01 X-0.4592 Y2.2905 
G01 X-0.4647 Y2.2960 
G01 X-0.4691 Y2.3025 
G01 X-0.4721 Y2.3098 
G01 X-0.4736 Y2.3175 
G01 X-0.4736 Y2.3253 
G01 X-0.4721 Y2.3330 
G01 X-0.4691 Y2.3403 
G01 X-0.4647 Y2.3468 
G01 X-0.4592 Y2.3524 
G01 X-0.4527 Y2.3567 
G01 X-0.4454 Y2.3597 
G01 X-0.4377 Y2.3613 
G01 X-0.3584 Y2.3613 
G01 X-0.3507 Y2.3597 
G01 X-0.3434 Y2.3567 
G01 X-0.3369 Y2.3524 
G01 X-0.3313 Y2.3468 
G01 X-0.3295 Y2.3441 
G01 X-0.3276 Y2.3441 
G01 X-0.3230 Y2.3432 
G01 X-0.3186 Y2.3414 
G01 X-0.3146 Y2.3387 
G01 X-0.3113 Y2.3354 
G01 X-0.2413 Y2.2654 
G01 X-0.2386 Y2.2614 
G01 X-0.2368 Y2.2570 
G01 X-0.2359 Y2.2524 
G01 X-0.2359 Y0.4311 
G01 X-0.2368 Y0.4264 
G01 X-0.2386 Y0.4220 
G01 X-0.2413 Y0.4181 
G01 X-0.4151 Y0.2443 
G01 X-0.4151 Y0.1923 
G01 X-0.4161 Y0.1856 
G01 X-0.4183 Y0.1791 
G01 X-0.4214 Y0.1730 
G01 X-0.4254 Y0.1675 
G01 X-0.4302 Y0.1627 
G01 X-0.4357 Y0.1587 
G01 X-0.4418 Y0.1556 
G01 X-0.4483 Y0.1535 
G01 X-0.4550 Y0.1524 
G01 X-0.4618 Y0.1524 
G01 X-0.4686 Y0.1535 
G01 X-0.4751 Y0.1556 
G01 X-0.4811 Y0.1587 
G01 X-0.4867 Y0.1627 
G01 X-0.4915 Y0.1675 
G01 X-0.4955 Y0.1730 
G01 X-0.4986 Y0.1791 
G01 X-0.5007 Y0.1856 
G01 X-0.5018 Y0.1923 
G01 X-0.5018 Y0.2443 
G01 X-0.6234 Y0.3659 
G01 X-0.8624 Y0.3659 
G01 X-0.8640 Y0.3662 
G01 X-0.9559 Y0.3662 
G01 X-0.9559 Y0.1476 
G01 X-0.9568 Y0.1430 
G01 X-0.9586 Y0.1386 
G01 X-0.9613 Y0.1346 
G01 X-0.9646 Y0.1313 
G01 X-0.9646 Y0.1313 
G01 X-1.0213 Y0.0746 
G01 X-1.0213 Y0.0746 
G01 X-1.0246 Y0.0713 
G01 X-1.0286 Y0.0686 
G01 X-1.0330 Y0.0668 
G01 X-1.0376 Y0.0659 
G01 X-1.3258 Y0.0659 
G01 X-1.3304 Y0.0668 
G01 X-1.3348 Y0.0686 
G01 X-1.3387 Y0.0713 
G01 X-1.4442 Y0.1767 
G01 X-1.4896 Y0.1767 
G01 X-1.4973 Y0.1783 
G01 X-1.5046 Y0.1813 
G01 X-1.5111 Y0.1856 
G01 X-1.5167 Y0.1912 
G01 X-1.5175 Y0.1925 
G01 X-1.9754 Y0.1925 
G01 X-1.9763 Y0.1912 
G01 X-1.9818 Y0.1856 
G01 X-1.9883 Y0.1813 
G01 X-1.9956 Y0.1783 
G01 X-2.0033 Y0.1767 
G01 X-2.0826 Y0.1767 
G01 X-2.0903 Y0.1783 
G01 X-2.0976 Y0.1813 
G01 X-2.1041 Y0.1856 
G01 X-2.1097 Y0.1912 
G01 X-2.1140 Y0.1977 
G01 X-2.1170 Y0.2050 
G01 X-2.1185 Y0.2126 
G01 X-2.1185 Y0.2205 
G01 X-2.1170 Y0.2282 
G01 X-2.1140 Y0.2354 
G01 X-2.1097 Y0.2420 
G01 X-2.1041 Y0.2475 
G01 X-2.0976 Y0.2519 
G01 X-2.0903 Y0.2549 
G01 X-2.0826 Y0.2564 
G01 X-2.0033 Y0.2564 
G01 X-1.9956 Y0.2549 
G01 X-1.9883 Y0.2519 
G01 X-1.9818 Y0.2475 
G01 X-1.9763 Y0.2420 
G01 X-1.9754 Y0.2407 
G01 X-1.5175 Y0.2407 
G01 X-1.5167 Y0.2420 
G01 X-1.5111 Y0.2475 
G01 X-1.5046 Y0.2519 
G01 X-1.4973 Y0.2549 
G01 X-1.4896 Y0.2564 
G01 X-1.4103 Y0.2564 
G01 X-1.4026 Y0.2549 
G01 X-1.3953 Y0.2519 
G01 X-1.3888 Y0.2475 
G01 X-1.3833 Y0.2420 
G01 X-1.3789 Y0.2354 
G01 X-1.3759 Y0.2282 
G01 X-1.3744 Y0.2205 
G01 X-1.3744 Y0.2126 
G01 X-1.3759 Y0.2050 
G01 X-1.3789 Y0.1977 
G01 X-1.3833 Y0.1912 
G01 X-1.3869 Y0.1876 
G01 X-1.3134 Y0.1141 
G01 X-1.0500 Y0.1141 
G01 X-1.0041 Y0.1600 
G01 X-1.0041 Y0.6059 
G01 X-1.6424 Y0.6059 
G01 X-1.6433 Y0.6046 
G01 X-1.6489 Y0.5990 
G01 X-1.6554 Y0.5947 
G01 X-1.6626 Y0.5917 
G01 X-1.6703 Y0.5902 
G01 X-1.7497 Y0.5902 
G01 X-1.7574 Y0.5917 
G01 X-1.7646 Y0.5947 
G01 X-1.7711 Y0.5990 
G01 X-1.7767 Y0.6046 
G01 X-1.7811 Y0.6111 
G01 X-1.7841 Y0.6184 
G01 X-1.7856 Y0.6261 
G01 X-1.7856 Y0.6339 
G01 X-1.7841 Y0.6416 
G01 X-1.7811 Y0.6489 
G01 X-1.7767 Y0.6554 
G01 X-1.7711 Y0.6610 
G01 X-1.7646 Y0.6653 
G01 X-1.7574 Y0.6683 
G01 X-1.7497 Y0.6698 
G01 X-1.6703 Y0.6698 
G01 X-1.6626 Y0.6683 
G01 X-1.6554 Y0.6653 
G01 X-1.6489 Y0.6610 
G01 X-1.6433 Y0.6554 
G01 X-1.6424 Y0.6541 
G01 X-0.9776 Y0.6541 
G01 X-0.9730 Y0.6532 
G01 X-0.9686 Y0.6514 
G01 X-0.9646 Y0.6487 
G01 X-0.9613 Y0.6454 
G01 X-0.9586 Y0.6414 
G01 X-0.9568 Y0.6370 
G01 X-0.9559 Y0.6324 
G01 X-0.9559 Y0.4138 
G01 X-0.8640 Y0.4138 
G01 X-0.8624 Y0.4141 
G01 X-0.6111 Y0.4141 
G01 X-0.6064 Y0.4132 
G01 X-0.6020 Y0.4114 
G01 X-0.5981 Y0.4087 
G01 X-0.5947 Y0.4054 
G01 X-0.4916 Y0.3023 
G01 X-0.4915 Y0.3025 
G01 X-0.4867 Y0.3073 
G01 X-0.4811 Y0.3113 
G01 X-0.4751 Y0.3144 
G01 X-0.4686 Y0.3165 
G01 X-0.4618 Y0.3176 
G01 X-0.4550 Y0.3176 
G01 X-0.4483 Y0.3165 
G01 X-0.4418 Y0.3144 
G01 X-0.4357 Y0.3113 
G01 X-0.4302 Y0.3073 
G01 X-0.4254 Y0.3025 
G01 X-0.4252 Y0.3023 
G01 X-0.2841 Y0.4434 
G01 X-0.2841 Y1.4059 
G01 X-0.5724 Y1.4059 
G01 X-0.5733 Y1.4046 
G01 X-0.5789 Y1.3990 
G01 X-0.5854 Y1.3947 
G01 X-0.5926 Y1.3917 
G01 X-0.6003 Y1.3902 
G01 X-0.6797 Y1.3902 
G01 X-0.6874 Y1.3917 
G01 X-0.6946 Y1.3947 
G01 X-0.7011 Y1.3990 
G01 X-0.7067 Y1.4046 
G01 X-0.7111 Y1.4111 
G01 X-0.7141 Y1.4184 
G01 X-0.7156 Y1.4261 
G01 X-0.7156 Y1.4339 
G01 X-0.7141 Y1.4416 
G01 X-0.7111 Y1.4489 
G01 X-0.7067 Y1.4554 
G01 X-0.7011 Y1.4610 
G01 X-0.6946 Y1.4653 
G01 X-0.6874 Y1.4683 
G01 X-0.6797 Y1.4698 
G01 X-0.6003 Y1.4698 
G01 X-0.5926 Y1.4683 
G01 X-0.5854 Y1.4653 
G01 X-0.5789 Y1.4610 
G01 X-0.5733 Y1.4554 
G01 X-0.5724 Y1.4541 
G01 X-0.2841 Y1.4541 
G01 X-0.2841 Y1.9059 
G01 X-0.6900 Y1.9059 
G01 X-0.7559 Y1.8400 
G01 X-0.7559 Y1.6676 
G01 X-0.7568 Y1.6630 
G01 X-0.7586 Y1.6586 
G01 X-0.7613 Y1.6546 
G01 X-0.7646 Y1.6513 
G01 X-0.7646 Y1.6513 
G01 X-0.8513 Y1.5646 
G01 X-0.8513 Y1.5646 
G01 X-0.8546 Y1.5613 
G01 X-0.8586 Y1.5586 
G01 X-0.8630 Y1.5568 
G01 X-0.8676 Y1.5559 
G01 X-1.4424 Y1.5559 
G01 X-1.4470 Y1.5568 
G01 X-1.4514 Y1.5586 
G01 X-1.4554 Y1.5613 
G01 X-1.4587 Y1.5646 
G01 X-1.5054 Y1.6113 
G01 X-1.5087 Y1.6146 
G01 X-1.5114 Y1.6186 
G01 X-1.5132 Y1.6230 
G01 X-1.5141 Y1.6276 
G01 X-1.5141 Y1.7359 
G01 X-2.1024 Y1.7359 
G01 X-2.1070 Y1.7368 
G01 X-2.1114 Y1.7386 
G01 X-2.1154 Y1.7413 
G01 X-2.1187 Y1.7446 
G01 X-2.1987 Y1.8246 
G01 X-2.2014 Y1.8286 
G01 X-2.2032 Y1.8330 
G01 X-2.2041 Y1.8376 
G01 X-2.2041 Y2.2933 
G01 X-2.2365 Y2.2933 
G01 X-2.2373 Y2.2920 
G01 X-2.2429 Y2.2865 
G01 X-2.2494 Y2.2821 
G01 X-2.2567 Y2.2791 
G01 X-2.2644 Y2.2776 
G00 Z0.1000 
G00 X-2.2644 Y2.0807 
G01 Z-0.0100 F10.00 
G01 X-2.2739 Y2.0807 
G01 X-2.2739 Y1.9396 
G01 X-2.2622 Y1.9278 
G01 X-2.2622 Y1.8982 
G01 X-2.2832 Y1.8772 
G01 X-2.3128 Y1.8772 
G01 X-2.3338 Y1.8982 
G01 X-2.3338 Y1.9278 
G01 X-2.3221 Y1.9396 
G01 X-2.3221 Y2.0807 
G01 X-2.3437 Y2.0807 
G01 X-2.3514 Y2.0823 
G01 X-2.3587 Y2.0853 
G01 X-2.3652 Y2.0896 
G01 X-2.3707 Y2.0952 
G01 X-2.3751 Y2.1017 
G01 X-2.3781 Y2.1090 
G01 X-2.3796 Y2.1166 
G01 X-2.3796 Y2.1245 
G01 X-2.3781 Y2.1322 
G01 X-2.3751 Y2.1394 
G01 X-2.3707 Y2.1460 
G01 X-2.3652 Y2.1515 
G01 X-2.3587 Y2.1559 
G01 X-2.3514 Y2.1589 
G01 X-2.3437 Y2.1604 
G01 X-2.2644 Y2.1604 
G01 X-2.2567 Y2.1589 
G01 X-2.2494 Y2.1559 
G01 X-2.2429 Y2.1515 
G01 X-2.2373 Y2.1460 
G01 X-2.2330 Y2.1394 
G01 X-2.2300 Y2.1322 
G01 X-2.2285 Y2.1245 
G01 X-2.2285 Y2.1166 
G01 X-2.2300 Y2.1090 
G01 X-2.2330 Y2.1017 
G01 X-2.2373 Y2.0952 
G01 X-2.2429 Y2.0896 
G01 X-2.2494 Y2.0853 
G01 X-2.2567 Y2.0823 
G01 X-2.2644 Y2.0807 
G00 Z0.1000 
G00 X-0.7184 Y2.1722 
G01 Z-0.0100 F10.00 
G01 X-0.7977 Y2.1722 
G01 X-0.8054 Y2.1737 
G01 X-0.8127 Y2.1767 
G01 X-0.8192 Y2.1810 
G01 X-0.8247 Y2.1866 
G01 X-0.8291 Y2.1931 
G01 X-0.8321 Y2.2004 
G01 X-0.8336 Y2.2081 
G01 X-0.8336 Y2.2159 
G01 X-0.8321 Y2.2236 
G01 X-0.8291 Y2.2309 
G01 X-0.8247 Y2.2374 
G01 X-0.8192 Y2.2430 
G01 X-0.8127 Y2.2473 
G01 X-0.8054 Y2.2503 
G01 X-0.7977 Y2.2518 
G01 X-0.7184 Y2.2518 
G01 X-0.7107 Y2.2503 
G01 X-0.7034 Y2.2473 
G01 X-0.6969 Y2.2430 
G01 X-0.6913 Y2.2374 
G01 X-0.6905 Y2.2361 
G01 X-0.6441 Y2.2361 
G01 X-0.6441 Y2.3200 
G01 X-0.8469 Y2.5229 
G01 X-0.8503 Y2.5262 
G01 X-0.8529 Y2.5302 
G01 X-0.8547 Y2.5345 
G01 X-0.8557 Y2.5392 
G01 X-0.8557 Y2.6097 
G01 X-0.8598 Y2.6127 
G01 X-0.8646 Y2.6175 
G01 X-0.8686 Y2.6230 
G01 X-0.8717 Y2.6291 
G01 X-0.8739 Y2.6356 
G01 X-0.8749 Y2.6423 
G01 X-0.8749 Y2.7277 
G01 X-0.8739 Y2.7344 
G01 X-0.8717 Y2.7409 
G01 X-0.8686 Y2.7470 
G01 X-0.8646 Y2.7525 
G01 X-0.8598 Y2.7573 
G01 X-0.8543 Y2.7613 
G01 X-0.8482 Y2.7644 
G01 X-0.8417 Y2.7665 
G01 X-0.8350 Y2.7676 
G01 X-0.8282 Y2.7676 
G01 X-0.8214 Y2.7665 
G01 X-0.8149 Y2.7644 
G01 X-0.8089 Y2.7613 
G01 X-0.8033 Y2.7573 
G01 X-0.7985 Y2.7525 
G01 X-0.7945 Y2.7470 
G01 X-0.7914 Y2.7409 
G01 X-0.7893 Y2.7344 
G01 X-0.7882 Y2.7277 
G01 X-0.7882 Y2.6423 
G01 X-0.7893 Y2.6356 
G01 X-0.7914 Y2.6291 
G01 X-0.7945 Y2.6230 
G01 X-0.7985 Y2.6175 
G01 X-0.8033 Y2.6127 
G01 X-0.8075 Y2.6097 
G01 X-0.8075 Y2.5516 
G01 X-0.6046 Y2.3487 
G01 X-0.6013 Y2.3454 
G01 X-0.5986 Y2.3414 
G01 X-0.5968 Y2.3370 
G01 X-0.5959 Y2.3324 
G01 X-0.5959 Y2.2176 
G01 X-0.5968 Y2.2130 
G01 X-0.5986 Y2.2086 
G01 X-0.6013 Y2.2046 
G01 X-0.6046 Y2.2013 
G01 X-0.6126 Y2.1933 
G01 X-0.6166 Y2.1906 
G01 X-0.6210 Y2.1888 
G01 X-0.6256 Y2.1879 
G01 X-0.6905 Y2.1879 
G01 X-0.6913 Y2.1866 
G01 X-0.6969 Y2.1810 
G01 X-0.7034 Y2.1767 
G01 X-0.7107 Y2.1737 
G01 X-0.7184 Y2.1722 
G00 Z0.1000 
G00 X-0.7184 Y2.0737 
G01 Z-0.0100 F10.00 
G01 X-0.7622 Y2.0737 
G01 X-1.0959 Y1.7400 
G01 X-1.0959 Y1.6926 
G01 X-1.0882 Y1.6848 
G01 X-1.0882 Y1.6552 
G01 X-1.1092 Y1.6342 
G01 X-1.1388 Y1.6342 
G01 X-1.1598 Y1.6552 
G01 X-1.1598 Y1.6848 
G01 X-1.1441 Y1.7006 
G01 X-1.1441 Y1.7524 
G01 X-1.1432 Y1.7570 
G01 X-1.1414 Y1.7614 
G01 X-1.1387 Y1.7654 
G01 X-0.8203 Y2.0838 
G01 X-0.8247 Y2.0882 
G01 X-0.8291 Y2.0947 
G01 X-0.8321 Y2.1020 
G01 X-0.8336 Y2.1096 
G01 X-0.8336 Y2.1175 
G01 X-0.8321 Y2.1252 
G01 X-0.8291 Y2.1324 
G01 X-0.8247 Y2.1390 
G01 X-0.8192 Y2.1445 
G01 X-0.8127 Y2.1489 
G01 X-0.8054 Y2.1519 
G01 X-0.7977 Y2.1534 
G01 X-0.7184 Y2.1534 
G01 X-0.7107 Y2.1519 
G01 X-0.7034 Y2.1489 
G01 X-0.6969 Y2.1445 
G01 X-0.6913 Y2.1390 
G01 X-0.6870 Y2.1324 
G01 X-0.6840 Y2.1252 
G01 X-0.6825 Y2.1175 
G01 X-0.6825 Y2.1096 
G01 X-0.6840 Y2.1020 
G01 X-0.6870 Y2.0947 
G01 X-0.6913 Y2.0882 
G01 X-0.6969 Y2.0826 
G01 X-0.7034 Y2.0783 
G01 X-0.7107 Y2.0753 
G01 X-0.7184 Y2.0737 
G00 Z0.1000 
G00 X-2.0826 Y0.3548 
G01 Z-0.0100 F10.00 
G01 X-2.0033 Y0.3548 
G01 X-1.9956 Y0.3533 
G01 X-1.9883 Y0.3503 
G01 X-1.9818 Y0.3460 
G01 X-1.9763 Y0.3404 
G01 X-1.9719 Y0.3339 
G01 X-1.9689 Y0.3266 
G01 X-1.9674 Y0.3189 
G01 X-1.9674 Y0.3111 
G01 X-1.9689 Y0.3034 
G01 X-1.9719 Y0.2961 
G01 X-1.9763 Y0.2896 
G01 X-1.9818 Y0.2840 
G01 X-1.9883 Y0.2797 
G01 X-1.9956 Y0.2767 
G01 X-2.0033 Y0.2752 
G01 X-2.0826 Y0.2752 
G01 X-2.0903 Y0.2767 
G01 X-2.0976 Y0.2797 
G01 X-2.1041 Y0.2840 
G01 X-2.1097 Y0.2896 
G01 X-2.1105 Y0.2909 
G01 X-2.1650 Y0.2909 
G01 X-2.2846 Y0.1713 
G01 X-2.2886 Y0.1686 
G01 X-2.2930 Y0.1668 
G01 X-2.2976 Y0.1659 
G01 X-2.5224 Y0.1659 
G01 X-2.5270 Y0.1668 
G01 X-2.5314 Y0.1686 
G01 X-2.5354 Y0.1713 
G01 X-2.5387 Y0.1746 
G01 X-2.6337 Y0.2696 
G01 X-2.6374 Y0.2645 
G01 X-2.6422 Y0.2597 
G01 X-2.6477 Y0.2557 
G01 X-2.6538 Y0.2526 
G01 X-2.6603 Y0.2505 
G01 X-2.6670 Y0.2494 
G01 X-2.6738 Y0.2494 
G01 X-2.6806 Y0.2505 
G01 X-2.6871 Y0.2526 
G01 X-2.6931 Y0.2557 
G01 X-2.6987 Y0.2597 
G01 X-2.7035 Y0.2645 
G01 X-2.7075 Y0.2700 
G01 X-2.7106 Y0.2761 
G01 X-2.7127 Y0.2826 
G01 X-2.7138 Y0.2893 
G01 X-2.7138 Y0.3747 
G01 X-2.7127 Y0.3814 
G01 X-2.7106 Y0.3879 
G01 X-2.7075 Y0.3940 
G01 X-2.7035 Y0.3995 
G01 X-2.6987 Y0.4043 
G01 X-2.6931 Y0.4083 
G01 X-2.6871 Y0.4114 
G01 X-2.6806 Y0.4135 
G01 X-2.6738 Y0.4146 
G01 X-2.6670 Y0.4146 
G01 X-2.6603 Y0.4135 
G01 X-2.6538 Y0.4114 
G01 X-2.6477 Y0.4083 
G01 X-2.6422 Y0.4043 
G01 X-2.6374 Y0.3995 
G01 X-2.6334 Y0.3940 
G01 X-2.6303 Y0.3879 
G01 X-2.6281 Y0.3814 
G01 X-2.6271 Y0.3747 
G01 X-2.6271 Y0.3312 
G01 X-2.5100 Y0.2141 
G01 X-2.3100 Y0.2141 
G01 X-2.1904 Y0.3337 
G01 X-2.1864 Y0.3364 
G01 X-2.1820 Y0.3382 
G01 X-2.1774 Y0.3391 
G01 X-2.1105 Y0.3391 
G01 X-2.1097 Y0.3404 
G01 X-2.1041 Y0.3460 
G01 X-2.0976 Y0.3503 
G01 X-2.0903 Y0.3533 
G01 X-2.0826 Y0.3548 
G00 Z0.1000 
G00 X-2.0033 Y0.4533 
G01 Z-0.0100 F10.00 
G01 X-1.9956 Y0.4517 
G01 X-1.9883 Y0.4487 
G01 X-1.9818 Y0.4444 
G01 X-1.9763 Y0.4388 
G01 X-1.9719 Y0.4323 
G01 X-1.9689 Y0.4250 
G01 X-1.9674 Y0.4173 
G01 X-1.9674 Y0.4095 
G01 X-1.9689 Y0.4018 
G01 X-1.9719 Y0.3945 
G01 X-1.9763 Y0.3880 
G01 X-1.9818 Y0.3825 
G01 X-1.9883 Y0.3781 
G01 X-1.9956 Y0.3751 
G01 X-2.0033 Y0.3736 
G01 X-2.0826 Y0.3736 
G01 X-2.0903 Y0.3751 
G01 X-2.0976 Y0.3781 
G01 X-2.1041 Y0.3825 
G01 X-2.1097 Y0.3880 
G01 X-2.1140 Y0.3945 
G01 X-2.1170 Y0.4018 
G01 X-2.1185 Y0.4095 
G01 X-2.1185 Y0.4173 
G01 X-2.1170 Y0.4250 
G01 X-2.1140 Y0.4323 
G01 X-2.1097 Y0.4388 
G01 X-2.1060 Y0.4424 
G01 X-2.1695 Y0.5059 
G01 X-2.2434 Y0.5059 
G01 X-2.2552 Y0.4942 
G01 X-2.2848 Y0.4942 
G01 X-2.3058 Y0.5152 
G01 X-2.3058 Y0.5448 
G01 X-2.2848 Y0.5658 
G01 X-2.2552 Y0.5658 
G01 X-2.2434 Y0.5541 
G01 X-2.1572 Y0.5541 
G01 X-2.1525 Y0.5532 
G01 X-2.1481 Y0.5514 
G01 X-2.1442 Y0.5487 
G01 X-2.0487 Y0.4533 
G01 X-2.0033 Y0.4533 
G00 Z0.1000 
G00 X-2.5797 Y1.5298 
G01 Z-0.0100 F10.00 
G01 X-2.5003 Y1.5298 
G01 X-2.4926 Y1.5283 
G01 X-2.4854 Y1.5253 
G01 X-2.4789 Y1.5210 
G01 X-2.4733 Y1.5154 
G01 X-2.4689 Y1.5089 
G01 X-2.4659 Y1.5016 
G01 X-2.4644 Y1.4939 
G01 X-2.4644 Y1.4861 
G01 X-2.4659 Y1.4784 
G01 X-2.4689 Y1.4711 
G01 X-2.4733 Y1.4646 
G01 X-2.4789 Y1.4590 
G01 X-2.4854 Y1.4547 
G01 X-2.4926 Y1.4517 
G01 X-2.5003 Y1.4502 
G01 X-2.5797 Y1.4502 
G01 X-2.5874 Y1.4517 
G01 X-2.5946 Y1.4547 
G01 X-2.6011 Y1.4590 
G01 X-2.6067 Y1.4646 
G01 X-2.6111 Y1.4711 
G01 X-2.6141 Y1.4784 
G01 X-2.6156 Y1.4861 
G01 X-2.6156 Y1.4939 
G01 X-2.6141 Y1.5016 
G01 X-2.6111 Y1.5089 
G01 X-2.6067 Y1.5154 
G01 X-2.6011 Y1.5210 
G01 X-2.5946 Y1.5253 
G01 X-2.5874 Y1.5283 
G01 X-2.5797 Y1.5298 
G00 Z0.1000 
G00 X-2.5797 Y1.9298 
G01 Z-0.0100 F10.00 
G01 X-2.5003 Y1.9298 
G01 X-2.4926 Y1.9283 
G01 X-2.4854 Y1.9253 
G01 X-2.4789 Y1.9210 
G01 X-2.4733 Y1.9154 
G01 X-2.4689 Y1.9089 
G01 X-2.4659 Y1.9016 
G01 X-2.4644 Y1.8939 
G01 X-2.4644 Y1.8861 
G01 X-2.4659 Y1.8784 
G01 X-2.4689 Y1.8711 
G01 X-2.4733 Y1.8646 
G01 X-2.4789 Y1.8590 
G01 X-2.4854 Y1.8547 
G01 X-2.4926 Y1.8517 
G01 X-2.5003 Y1.8502 
G01 X-2.5797 Y1.8502 
G01 X-2.5874 Y1.8517 
G01 X-2.5946 Y1.8547 
G01 X-2.6011 Y1.8590 
G01 X-2.6067 Y1.8646 
G01 X-2.6111 Y1.8711 
G01 X-2.6141 Y1.8784 
G01 X-2.6156 Y1.8861 
G01 X-2.6156 Y1.8939 
G01 X-2.6141 Y1.9016 
G01 X-2.6111 Y1.9089 
G01 X-2.6067 Y1.9154 
G01 X-2.6011 Y1.9210 
G01 X-2.5946 Y1.9253 
G01 X-2.5874 Y1.9283 
G01 X-2.5797 Y1.9298 
G00 Z0.1000 
G00 X-2.5797 Y2.0298 
G01 Z-0.0100 F10.00 
G01 X-2.5003 Y2.0298 
G01 X-2.4926 Y2.0283 
G01 X-2.4854 Y2.0253 
G01 X-2.4789 Y2.0210 
G01 X-2.4733 Y2.0154 
G01 X-2.4689 Y2.0089 
G01 X-2.4659 Y2.0016 
G01 X-2.4644 Y1.9939 
G01 X-2.4644 Y1.9861 
G01 X-2.4659 Y1.9784 
G01 X-2.4689 Y1.9711 
G01 X-2.4733 Y1.9646 
G01 X-2.4789 Y1.9590 
G01 X-2.4854 Y1.9547 
G01 X-2.4926 Y1.9517 
G01 X-2.5003 Y1.9502 
G01 X-2.5797 Y1.9502 
G01 X-2.5874 Y1.9517 
G01 X-2.5946 Y1.9547 
G01 X-2.6011 Y1.9590 
G01 X-2.6067 Y1.9646 
G01 X-2.6111 Y1.9711 
G01 X-2.6141 Y1.9784 
G01 X-2.6156 Y1.9861 
G01 X-2.6156 Y1.9939 
G01 X-2.6141 Y2.0016 
G01 X-2.6111 Y2.0089 
G01 X-2.6067 Y2.0154 
G01 X-2.6011 Y2.0210 
G01 X-2.5946 Y2.0253 
G01 X-2.5874 Y2.0283 
G01 X-2.5797 Y2.0298 
G00 Z0.1000 
G00 X-2.5797 Y2.1298 
G01 Z-0.0100 F10.00 
G01 X-2.5003 Y2.1298 
G01 X-2.4926 Y2.1283 
G01 X-2.4854 Y2.1253 
G01 X-2.4789 Y2.1210 
G01 X-2.4733 Y2.1154 
G01 X-2.4689 Y2.1089 
G01 X-2.4659 Y2.1016 
G01 X-2.4644 Y2.0939 
G01 X-2.4644 Y2.0861 
G01 X-2.4659 Y2.0784 
G01 X-2.4689 Y2.0711 
G01 X-2.4733 Y2.0646 
G01 X-2.4789 Y2.0590 
G01 X-2.4854 Y2.0547 
G01 X-2.4926 Y2.0517 
G01 X-2.5003 Y2.0502 
G01 X-2.5797 Y2.0502 
G01 X-2.5874 Y2.0517 
G01 X-2.5946 Y2.0547 
G01 X-2.6011 Y2.0590 
G01 X-2.6067 Y2.0646 
G01 X-2.6111 Y2.0711 
G01 X-2.6141 Y2.0784 
G01 X-2.6156 Y2.0861 
G01 X-2.6156 Y2.0939 
G01 X-2.6141 Y2.1016 
G01 X-2.6111 Y2.1089 
G01 X-2.6067 Y2.1154 
G01 X-2.6011 Y2.1210 
G01 X-2.5946 Y2.1253 
G01 X-2.5874 Y2.1283 
G01 X-2.5797 Y2.1298 
G00 Z0.1000 
G00 X-2.5797 Y2.2298 
G01 Z-0.0100 F10.00 
G01 X-2.5003 Y2.2298 
G01 X-2.4926 Y2.2283 
G01 X-2.4854 Y2.2253 
G01 X-2.4789 Y2.2210 
G01 X-2.4733 Y2.2154 
G01 X-2.4689 Y2.2089 
G01 X-2.4659 Y2.2016 
G01 X-2.4644 Y2.1939 
G01 X-2.4644 Y2.1861 
G01 X-2.4659 Y2.1784 
G01 X-2.4689 Y2.1711 
G01 X-2.4733 Y2.1646 
G01 X-2.4789 Y2.1590 
G01 X-2.4854 Y2.1547 
G01 X-2.4926 Y2.1517 
G01 X-2.5003 Y2.1502 
G01 X-2.5797 Y2.1502 
G01 X-2.5874 Y2.1517 
G01 X-2.5946 Y2.1547 
G01 X-2.6011 Y2.1590 
G01 X-2.6067 Y2.1646 
G01 X-2.6111 Y2.1711 
G01 X-2.6141 Y2.1784 
G01 X-2.6156 Y2.1861 
G01 X-2.6156 Y2.1939 
G01 X-2.6141 Y2.2016 
G01 X-2.6111 Y2.2089 
G01 X-2.6067 Y2.2154 
G01 X-2.6011 Y2.2210 
G01 X-2.5946 Y2.2253 
G01 X-2.5874 Y2.2283 
G01 X-2.5797 Y2.2298 
G00 Z0.1000 
G00 X-2.5797 Y0.7698 
G01 Z-0.0100 F10.00 
G01 X-2.5003 Y0.7698 
G01 X-2.4926 Y0.7683 
G01 X-2.4854 Y0.7653 
G01 X-2.4789 Y0.7610 
G01 X-2.4733 Y0.7554 
G01 X-2.4724 Y0.7541 
G01 X-2.4100 Y0.7541 
G01 X-2.3487 Y0.8154 
G01 X-2.3454 Y0.8187 
G01 X-2.3414 Y0.8214 
G01 X-2.3370 Y0.8232 
G01 X-2.3324 Y0.8241 
G01 X-2.1400 Y0.8241 
G01 X-1.9187 Y1.0454 
G01 X-1.9154 Y1.0487 
G01 X-1.9114 Y1.0514 
G01 X-1.9070 Y1.0532 
G01 X-1.9024 Y1.0541 
G01 X-1.7776 Y1.0541 
G01 X-1.7767 Y1.0554 
G01 X-1.7711 Y1.0610 
G01 X-1.7646 Y1.0653 
G01 X-1.7574 Y1.0683 
G01 X-1.7497 Y1.0698 
G01 X-1.6703 Y1.0698 
G01 X-1.6626 Y1.0683 
G01 X-1.6554 Y1.0653 
G01 X-1.6489 Y1.0610 
G01 X-1.6433 Y1.0554 
G01 X-1.6389 Y1.0489 
G01 X-1.6359 Y1.0416 
G01 X-1.6344 Y1.0339 
G01 X-1.6344 Y1.0261 
G01 X-1.6359 Y1.0184 
G01 X-1.6389 Y1.0111 
G01 X-1.6433 Y1.0046 
G01 X-1.6489 Y0.9990 
G01 X-1.6554 Y0.9947 
G01 X-1.6626 Y0.9917 
G01 X-1.6703 Y0.9902 
G01 X-1.7497 Y0.9902 
G01 X-1.7574 Y0.9917 
G01 X-1.7646 Y0.9947 
G01 X-1.7711 Y0.9990 
G01 X-1.7767 Y1.0046 
G01 X-1.7776 Y1.0059 
G01 X-1.8900 Y1.0059 
G01 X-2.1146 Y0.7813 
G01 X-2.1186 Y0.7786 
G01 X-2.1230 Y0.7768 
G01 X-2.1276 Y0.7759 
G01 X-2.3200 Y0.7759 
G01 X-2.3846 Y0.7113 
G01 X-2.3886 Y0.7086 
G01 X-2.3930 Y0.7068 
G01 X-2.3976 Y0.7059 
G01 X-2.4724 Y0.7059 
G01 X-2.4733 Y0.7046 
G01 X-2.4789 Y0.6990 
G01 X-2.4854 Y0.6947 
G01 X-2.4926 Y0.6917 
G01 X-2.5003 Y0.6902 
G01 X-2.5797 Y0.6902 
G01 X-2.5874 Y0.6917 
G01 X-2.5946 Y0.6947 
G01 X-2.6011 Y0.6990 
G01 X-2.6067 Y0.7046 
G01 X-2.6111 Y0.7111 
G01 X-2.6141 Y0.7184 
G01 X-2.6156 Y0.7261 
G01 X-2.6156 Y0.7339 
G01 X-2.6141 Y0.7416 
G01 X-2.6111 Y0.7489 
G01 X-2.6067 Y0.7554 
G01 X-2.6011 Y0.7610 
G01 X-2.5946 Y0.7653 
G01 X-2.5874 Y0.7683 
G01 X-2.5797 Y0.7698 
G00 Z0.1000 
G00 X-2.5797 Y0.8698 
G01 Z-0.0100 F10.00 
G01 X-2.5003 Y0.8698 
G01 X-2.4926 Y0.8683 
G01 X-2.4854 Y0.8653 
G01 X-2.4789 Y0.8610 
G01 X-2.4733 Y0.8554 
G01 X-2.4689 Y0.8489 
G01 X-2.4659 Y0.8416 
G01 X-2.4644 Y0.8339 
G01 X-2.4644 Y0.8261 
G01 X-2.4659 Y0.8184 
G01 X-2.4689 Y0.8111 
G01 X-2.4733 Y0.8046 
G01 X-2.4789 Y0.7990 
G01 X-2.4854 Y0.7947 
G01 X-2.4926 Y0.7917 
G01 X-2.5003 Y0.7902 
G01 X-2.5797 Y0.7902 
G01 X-2.5874 Y0.7917 
G01 X-2.5946 Y0.7947 
G01 X-2.6011 Y0.7990 
G01 X-2.6067 Y0.8046 
G01 X-2.6111 Y0.8111 
G01 X-2.6141 Y0.8184 
G01 X-2.6156 Y0.8261 
G01 X-2.6156 Y0.8339 
G01 X-2.6141 Y0.8416 
G01 X-2.6111 Y0.8489 
G01 X-2.6067 Y0.8554 
G01 X-2.6011 Y0.8610 
G01 X-2.5946 Y0.8653 
G01 X-2.5874 Y0.8683 
G01 X-2.5797 Y0.8698 
G00 Z0.1000 
G00 X-2.5797 Y0.9698 
G01 Z-0.0100 F10.00 
G01 X-2.5003 Y0.9698 
G01 X-2.4926 Y0.9683 
G01 X-2.4854 Y0.9653 
G01 X-2.4789 Y0.9610 
G01 X-2.4733 Y0.9554 
G01 X-2.4689 Y0.9489 
G01 X-2.4659 Y0.9416 
G01 X-2.4644 Y0.9339 
G01 X-2.4644 Y0.9261 
G01 X-2.4659 Y0.9184 
G01 X-2.4689 Y0.9111 
G01 X-2.4733 Y0.9046 
G01 X-2.4789 Y0.8990 
G01 X-2.4854 Y0.8947 
G01 X-2.4926 Y0.8917 
G01 X-2.5003 Y0.8902 
G01 X-2.5797 Y0.8902 
G01 X-2.5874 Y0.8917 
G01 X-2.5946 Y0.8947 
G01 X-2.6011 Y0.8990 
G01 X-2.6067 Y0.9046 
G01 X-2.6111 Y0.9111 
G01 X-2.6141 Y0.9184 
G01 X-2.6156 Y0.9261 
G01 X-2.6156 Y0.9339 
G01 X-2.6141 Y0.9416 
G01 X-2.6111 Y0.9489 
G01 X-2.6067 Y0.9554 
G01 X-2.6011 Y0.9610 
G01 X-2.5946 Y0.9653 
G01 X-2.5874 Y0.9683 
G01 X-2.5797 Y0.9698 
G00 Z0.1000 
G00 X-2.5797 Y1.0698 
G01 Z-0.0100 F10.00 
G01 X-2.5003 Y1.0698 
G01 X-2.4926 Y1.0683 
G01 X-2.4854 Y1.0653 
G01 X-2.4789 Y1.0610 
G01 X-2.4733 Y1.0554 
G01 X-2.4689 Y1.0489 
G01 X-2.4659 Y1.0416 
G01 X-2.4644 Y1.0339 
G01 X-2.4644 Y1.0261 
G01 X-2.4659 Y1.0184 
G01 X-2.4689 Y1.0111 
G01 X-2.4733 Y1.0046 
G01 X-2.4789 Y0.9990 
G01 X-2.4854 Y0.9947 
G01 X-2.4926 Y0.9917 
G01 X-2.5003 Y0.9902 
G01 X-2.5797 Y0.9902 
G01 X-2.5874 Y0.9917 
G01 X-2.5946 Y0.9947 
G01 X-2.6011 Y0.9990 
G01 X-2.6067 Y1.0046 
G01 X-2.6111 Y1.0111 
G01 X-2.6141 Y1.0184 
G01 X-2.6156 Y1.0261 
G01 X-2.6156 Y1.0339 
G01 X-2.6141 Y1.0416 
G01 X-2.6111 Y1.0489 
G01 X-2.6067 Y1.0554 
G01 X-2.6011 Y1.0610 
G01 X-2.5946 Y1.0653 
G01 X-2.5874 Y1.0683 
G01 X-2.5797 Y1.0698 
G00 Z0.1000 
G00 X-2.5797 Y1.2698 
G01 Z-0.0100 F10.00 
G01 X-2.5003 Y1.2698 
G01 X-2.4926 Y1.2683 
G01 X-2.4854 Y1.2653 
G01 X-2.4789 Y1.2610 
G01 X-2.4733 Y1.2554 
G01 X-2.4724 Y1.2541 
G01 X-2.3176 Y1.2541 
G01 X-2.3130 Y1.2532 
G01 X-2.3086 Y1.2514 
G01 X-2.3046 Y1.2487 
G01 X-2.3013 Y1.2454 
G01 X-2.2513 Y1.1954 
G01 X-2.2486 Y1.1914 
G01 X-2.2468 Y1.1870 
G01 X-2.2459 Y1.1824 
G01 X-2.2459 Y1.0566 
G01 X-2.2342 Y1.0448 
G01 X-2.2342 Y1.0152 
G01 X-2.2552 Y0.9942 
G01 X-2.2848 Y0.9942 
G01 X-2.3058 Y1.0152 
G01 X-2.3058 Y1.0448 
G01 X-2.2941 Y1.0566 
G01 X-2.2941 Y1.1700 
G01 X-2.3300 Y1.2059 
G01 X-2.4724 Y1.2059 
G01 X-2.4733 Y1.2046 
G01 X-2.4789 Y1.1990 
G01 X-2.4854 Y1.1947 
G01 X-2.4926 Y1.1917 
G01 X-2.5003 Y1.1902 
G01 X-2.5797 Y1.1902 
G01 X-2.5874 Y1.1917 
G01 X-2.5946 Y1.1947 
G01 X-2.6011 Y1.1990 
G01 X-2.6067 Y1.2046 
G01 X-2.6111 Y1.2111 
G01 X-2.6141 Y1.2184 
G01 X-2.6156 Y1.2261 
G01 X-2.6156 Y1.2339 
G01 X-2.6141 Y1.2416 
G01 X-2.6111 Y1.2489 
G01 X-2.6067 Y1.2554 
G01 X-2.6011 Y1.2610 
G01 X-2.5946 Y1.2653 
G01 X-2.5874 Y1.2683 
G01 X-2.5797 Y1.2698 
G00 Z0.1000 
G00 X-2.5797 Y1.3698 
G01 Z-0.0100 F10.00 
G01 X-2.5003 Y1.3698 
G01 X-2.4926 Y1.3683 
G01 X-2.4854 Y1.3653 
G01 X-2.4789 Y1.3610 
G01 X-2.4733 Y1.3554 
G01 X-2.4689 Y1.3489 
G01 X-2.4659 Y1.3416 
G01 X-2.4644 Y1.3339 
G01 X-2.4644 Y1.3261 
G01 X-2.4659 Y1.3184 
G01 X-2.4689 Y1.3111 
G01 X-2.4733 Y1.3046 
G01 X-2.4789 Y1.2990 
G01 X-2.4854 Y1.2947 
G01 X-2.4926 Y1.2917 
G01 X-2.5003 Y1.2902 
G01 X-2.5797 Y1.2902 
G01 X-2.5874 Y1.2917 
G01 X-2.5946 Y1.2947 
G01 X-2.6011 Y1.2990 
G01 X-2.6067 Y1.3046 
G01 X-2.6111 Y1.3111 
G01 X-2.6141 Y1.3184 
G01 X-2.6156 Y1.3261 
G01 X-2.6156 Y1.3339 
G01 X-2.6141 Y1.3416 
G01 X-2.6111 Y1.3489 
G01 X-2.6067 Y1.3554 
G01 X-2.6011 Y1.3610 
G01 X-2.5946 Y1.3653 
G01 X-2.5874 Y1.3683 
G01 X-2.5797 Y1.3698 
G00 Z0.1000 
G00 X-1.6703 Y1.0902 
G01 Z-0.0100 F10.00 
G01 X-1.7497 Y1.0902 
G01 X-1.7574 Y1.0917 
G01 X-1.7646 Y1.0947 
G01 X-1.7711 Y1.0990 
G01 X-1.7767 Y1.1046 
G01 X-1.7811 Y1.1111 
G01 X-1.7841 Y1.1184 
G01 X-1.7856 Y1.1261 
G01 X-1.7856 Y1.1339 
G01 X-1.7841 Y1.1416 
G01 X-1.7811 Y1.1489 
G01 X-1.7767 Y1.1554 
G01 X-1.7711 Y1.1610 
G01 X-1.7646 Y1.1653 
G01 X-1.7574 Y1.1683 
G01 X-1.7497 Y1.1698 
G01 X-1.6703 Y1.1698 
G01 X-1.6626 Y1.1683 
G01 X-1.6554 Y1.1653 
G01 X-1.6489 Y1.1610 
G01 X-1.6433 Y1.1554 
G01 X-1.6389 Y1.1489 
G01 X-1.6359 Y1.1416 
G01 X-1.6344 Y1.1339 
G01 X-1.6344 Y1.1261 
G01 X-1.6359 Y1.1184 
G01 X-1.6389 Y1.1111 
G01 X-1.6433 Y1.1046 
G01 X-1.6489 Y1.0990 
G01 X-1.6554 Y1.0947 
G01 X-1.6626 Y1.0917 
G01 X-1.6703 Y1.0902 
G00 Z0.1000 
G00 X-1.6703 Y0.8902 
G01 Z-0.0100 F10.00 
G01 X-1.7497 Y0.8902 
G01 X-1.7574 Y0.8917 
G01 X-1.7646 Y0.8947 
G01 X-1.7711 Y0.8990 
G01 X-1.7767 Y0.9046 
G01 X-1.7776 Y0.9059 
G01 X-1.8000 Y0.9059 
G01 X-2.0246 Y0.6813 
G01 X-2.0286 Y0.6786 
G01 X-2.0330 Y0.6768 
G01 X-2.0376 Y0.6759 
G01 X-2.2300 Y0.6759 
G01 X-2.2946 Y0.6113 
G01 X-2.2986 Y0.6086 
G01 X-2.3030 Y0.6068 
G01 X-2.3076 Y0.6059 
G01 X-2.4724 Y0.6059 
G01 X-2.4733 Y0.6046 
G01 X-2.4789 Y0.5990 
G01 X-2.4854 Y0.5947 
G01 X-2.4926 Y0.5917 
G01 X-2.5003 Y0.5902 
G01 X-2.5797 Y0.5902 
G01 X-2.5874 Y0.5917 
G01 X-2.5946 Y0.5947 
G01 X-2.6011 Y0.5990 
G01 X-2.6067 Y0.6046 
G01 X-2.6111 Y0.6111 
G01 X-2.6141 Y0.6184 
G01 X-2.6156 Y0.6261 
G01 X-2.6156 Y0.6339 
G01 X-2.6141 Y0.6416 
G01 X-2.6111 Y0.6489 
G01 X-2.6067 Y0.6554 
G01 X-2.6011 Y0.6610 
G01 X-2.5946 Y0.6653 
G01 X-2.5874 Y0.6683 
G01 X-2.5797 Y0.6698 
G01 X-2.5003 Y0.6698 
G01 X-2.4926 Y0.6683 
G01 X-2.4854 Y0.6653 
G01 X-2.4789 Y0.6610 
G01 X-2.4733 Y0.6554 
G01 X-2.4724 Y0.6541 
G01 X-2.3200 Y0.6541 
G01 X-2.2587 Y0.7154 
G01 X-2.2554 Y0.7187 
G01 X-2.2514 Y0.7214 
G01 X-2.2470 Y0.7232 
G01 X-2.2424 Y0.7241 
G01 X-2.0500 Y0.7241 
G01 X-1.8287 Y0.9454 
G01 X-1.8254 Y0.9487 
G01 X-1.8214 Y0.9514 
G01 X-1.8170 Y0.9532 
G01 X-1.8124 Y0.9541 
G01 X-1.7776 Y0.9541 
G01 X-1.7767 Y0.9554 
G01 X-1.7711 Y0.9610 
G01 X-1.7646 Y0.9653 
G01 X-1.7574 Y0.9683 
G01 X-1.7497 Y0.9698 
G01 X-1.6703 Y0.9698 
G01 X-1.6626 Y0.9683 
G01 X-1.6554 Y0.9653 
G01 X-1.6489 Y0.9610 
G01 X-1.6433 Y0.9554 
G01 X-1.6389 Y0.9489 
G01 X-1.6359 Y0.9416 
G01 X-1.6344 Y0.9339 
G01 X-1.6344 Y0.9261 
G01 X-1.6359 Y0.9184 
G01 X-1.6389 Y0.9111 
G01 X-1.6433 Y0.9046 
G01 X-1.6489 Y0.8990 
G01 X-1.6554 Y0.8947 
G01 X-1.6626 Y0.8917 
G01 X-1.6703 Y0.8902 
G00 Z0.1000 
G00 X-1.6703 Y0.7902 
G01 Z-0.0100 F10.00 
G01 X-1.7497 Y0.7902 
G01 X-1.7574 Y0.7917 
G01 X-1.7646 Y0.7947 
G01 X-1.7711 Y0.7990 
G01 X-1.7767 Y0.8046 
G01 X-1.7811 Y0.8111 
G01 X-1.7841 Y0.8184 
G01 X-1.7856 Y0.8261 
G01 X-1.7856 Y0.8339 
G01 X-1.7841 Y0.8416 
G01 X-1.7811 Y0.8489 
G01 X-1.7767 Y0.8554 
G01 X-1.7711 Y0.8610 
G01 X-1.7646 Y0.8653 
G01 X-1.7574 Y0.8683 
G01 X-1.7497 Y0.8698 
G01 X-1.6703 Y0.8698 
G01 X-1.6626 Y0.8683 
G01 X-1.6554 Y0.8653 
G01 X-1.6489 Y0.8610 
G01 X-1.6433 Y0.8554 
G01 X-1.6424 Y0.8541 
G01 X-1.2300 Y0.8541 
G01 X-0.8441 Y1.2400 
G01 X-0.8441 Y1.5124 
G01 X-0.8432 Y1.5170 
G01 X-0.8414 Y1.5214 
G01 X-0.8387 Y1.5254 
G01 X-0.8354 Y1.5287 
G01 X-0.8354 Y1.5287 
G01 X-0.7154 Y1.6487 
G01 X-0.7114 Y1.6514 
G01 X-0.7086 Y1.6525 
G01 X-0.7067 Y1.6554 
G01 X-0.7011 Y1.6610 
G01 X-0.6946 Y1.6653 
G01 X-0.6874 Y1.6683 
G01 X-0.6797 Y1.6698 
G01 X-0.6003 Y1.6698 
G01 X-0.5926 Y1.6683 
G01 X-0.5854 Y1.6653 
G01 X-0.5789 Y1.6610 
G01 X-0.5733 Y1.6554 
G01 X-0.5689 Y1.6489 
G01 X-0.5659 Y1.6416 
G01 X-0.5644 Y1.6339 
G01 X-0.5644 Y1.6261 
G01 X-0.5659 Y1.6184 
G01 X-0.5689 Y1.6111 
G01 X-0.5733 Y1.6046 
G01 X-0.5789 Y1.5990 
G01 X-0.5854 Y1.5947 
G01 X-0.5926 Y1.5917 
G01 X-0.6003 Y1.5902 
G01 X-0.6797 Y1.5902 
G01 X-0.6874 Y1.5917 
G01 X-0.6946 Y1.5947 
G01 X-0.6986 Y1.5973 
G01 X-0.7959 Y1.5000 
G01 X-0.7959 Y1.2276 
G01 X-0.7968 Y1.2230 
G01 X-0.7986 Y1.2186 
G01 X-0.8013 Y1.2146 
G01 X-1.2013 Y0.8146 
G01 X-1.2013 Y0.8146 
G01 X-1.2046 Y0.8113 
G01 X-1.2086 Y0.8086 
G01 X-1.2130 Y0.8068 
G01 X-1.2176 Y0.8059 
G01 X-1.6424 Y0.8059 
G01 X-1.6433 Y0.8046 
G01 X-1.6489 Y0.7990 
G01 X-1.6554 Y0.7947 
G01 X-1.6626 Y0.7917 
G01 X-1.6703 Y0.7902 
G00 Z0.1000 
G00 X-1.6703 Y0.6902 
G01 Z-0.0100 F10.00 
G01 X-1.7497 Y0.6902 
G01 X-1.7574 Y0.6917 
G01 X-1.7646 Y0.6947 
G01 X-1.7711 Y0.6990 
G01 X-1.7767 Y0.7046 
G01 X-1.7811 Y0.7111 
G01 X-1.7841 Y0.7184 
G01 X-1.7856 Y0.7261 
G01 X-1.7856 Y0.7339 
G01 X-1.7841 Y0.7416 
G01 X-1.7811 Y0.7489 
G01 X-1.7767 Y0.7554 
G01 X-1.7711 Y0.7610 
G01 X-1.7646 Y0.7653 
G01 X-1.7574 Y0.7683 
G01 X-1.7497 Y0.7698 
G01 X-1.6703 Y0.7698 
G01 X-1.6626 Y0.7683 
G01 X-1.6554 Y0.7653 
G01 X-1.6489 Y0.7610 
G01 X-1.6433 Y0.7554 
G01 X-1.6389 Y0.7489 
G01 X-1.6359 Y0.7416 
G01 X-1.6344 Y0.7339 
G01 X-1.6344 Y0.7261 
G01 X-1.6359 Y0.7184 
G01 X-1.6389 Y0.7111 
G01 X-1.6433 Y0.7046 
G01 X-1.6489 Y0.6990 
G01 X-1.6554 Y0.6947 
G01 X-1.6626 Y0.6917 
G01 X-1.6703 Y0.6902 
G00 Z0.1000 
G00 X-0.6003 Y1.7902 
G01 Z-0.0100 F10.00 
G01 X-0.6797 Y1.7902 
G01 X-0.6874 Y1.7917 
G01 X-0.6946 Y1.7947 
G01 X-0.7011 Y1.7990 
G01 X-0.7067 Y1.8046 
G01 X-0.7111 Y1.8111 
G01 X-0.7141 Y1.8184 
G01 X-0.7156 Y1.8261 
G01 X-0.7156 Y1.8339 
G01 X-0.7141 Y1.8416 
G01 X-0.7111 Y1.8489 
G01 X-0.7067 Y1.8554 
G01 X-0.7011 Y1.8610 
G01 X-0.6946 Y1.8653 
G01 X-0.6874 Y1.8683 
G01 X-0.6797 Y1.8698 
G01 X-0.6003 Y1.8698 
G01 X-0.5926 Y1.8683 
G01 X-0.5854 Y1.8653 
G01 X-0.5789 Y1.8610 
G01 X-0.5733 Y1.8554 
G01 X-0.5689 Y1.8489 
G01 X-0.5659 Y1.8416 
G01 X-0.5644 Y1.8339 
G01 X-0.5644 Y1.8261 
G01 X-0.5659 Y1.8184 
G01 X-0.5689 Y1.8111 
G01 X-0.5733 Y1.8046 
G01 X-0.5789 Y1.7990 
G01 X-0.5854 Y1.7947 
G01 X-0.5926 Y1.7917 
G01 X-0.6003 Y1.7902 
G00 Z0.1000 
G00 X-0.6003 Y1.6902 
G01 Z-0.0100 F10.00 
G01 X-0.6797 Y1.6902 
G01 X-0.6874 Y1.6917 
G01 X-0.6946 Y1.6947 
G01 X-0.7011 Y1.6990 
G01 X-0.7067 Y1.7046 
G01 X-0.7111 Y1.7111 
G01 X-0.7141 Y1.7184 
G01 X-0.7156 Y1.7261 
G01 X-0.7156 Y1.7339 
G01 X-0.7141 Y1.7416 
G01 X-0.7111 Y1.7489 
G01 X-0.7067 Y1.7554 
G01 X-0.7011 Y1.7610 
G01 X-0.6946 Y1.7653 
G01 X-0.6874 Y1.7683 
G01 X-0.6797 Y1.7698 
G01 X-0.6003 Y1.7698 
G01 X-0.5926 Y1.7683 
G01 X-0.5854 Y1.7653 
G01 X-0.5789 Y1.7610 
G01 X-0.5733 Y1.7554 
G01 X-0.5689 Y1.7489 
G01 X-0.5659 Y1.7416 
G01 X-0.5644 Y1.7339 
G01 X-0.5644 Y1.7261 
G01 X-0.5659 Y1.7184 
G01 X-0.5689 Y1.7111 
G01 X-0.5733 Y1.7046 
G01 X-0.5789 Y1.6990 
G01 X-0.5854 Y1.6947 
G01 X-0.5926 Y1.6917 
G01 X-0.6003 Y1.6902 
G00 Z0.1000 
G00 X-0.6003 Y1.4902 
G01 Z-0.0100 F10.00 
G01 X-0.6797 Y1.4902 
G01 X-0.6874 Y1.4917 
G01 X-0.6946 Y1.4947 
G01 X-0.7011 Y1.4990 
G01 X-0.7067 Y1.5046 
G01 X-0.7111 Y1.5111 
G01 X-0.7141 Y1.5184 
G01 X-0.7156 Y1.5261 
G01 X-0.7156 Y1.5339 
G01 X-0.7141 Y1.5416 
G01 X-0.7111 Y1.5489 
G01 X-0.7067 Y1.5554 
G01 X-0.7011 Y1.5610 
G01 X-0.6946 Y1.5653 
G01 X-0.6874 Y1.5683 
G01 X-0.6797 Y1.5698 
G01 X-0.6003 Y1.5698 
G01 X-0.5926 Y1.5683 
G01 X-0.5854 Y1.5653 
G01 X-0.5789 Y1.5610 
G01 X-0.5733 Y1.5554 
G01 X-0.5689 Y1.5489 
G01 X-0.5659 Y1.5416 
G01 X-0.5644 Y1.5339 
G01 X-0.5644 Y1.5261 
G01 X-0.5659 Y1.5184 
G01 X-0.5689 Y1.5111 
G01 X-0.5733 Y1.5046 
G01 X-0.5789 Y1.4990 
G01 X-0.5854 Y1.4947 
G01 X-0.5926 Y1.4917 
G01 X-0.6003 Y1.4902 
G00 Z0.1000 
G00 X-0.6003 Y1.2902 
G01 Z-0.0100 F10.00 
G01 X-0.6797 Y1.2902 
G01 X-0.6874 Y1.2917 
G01 X-0.6946 Y1.2947 
G01 X-0.7011 Y1.2990 
G01 X-0.7067 Y1.3046 
G01 X-0.7111 Y1.3111 
G01 X-0.7141 Y1.3184 
G01 X-0.7156 Y1.3261 
G01 X-0.7156 Y1.3339 
G01 X-0.7141 Y1.3416 
G01 X-0.7111 Y1.3489 
G01 X-0.7067 Y1.3554 
G01 X-0.7011 Y1.3610 
G01 X-0.6946 Y1.3653 
G01 X-0.6874 Y1.3683 
G01 X-0.6797 Y1.3698 
G01 X-0.6003 Y1.3698 
G01 X-0.5926 Y1.3683 
G01 X-0.5854 Y1.3653 
G01 X-0.5789 Y1.3610 
G01 X-0.5733 Y1.3554 
G01 X-0.5689 Y1.3489 
G01 X-0.5659 Y1.3416 
G01 X-0.5644 Y1.3339 
G01 X-0.5644 Y1.3261 
G01 X-0.5659 Y1.3184 
G01 X-0.5689 Y1.3111 
G01 X-0.5733 Y1.3046 
G01 X-0.5789 Y1.2990 
G01 X-0.5854 Y1.2947 
G01 X-0.5926 Y1.2917 
G01 X-0.6003 Y1.2902 
G00 Z0.1000 
G00 X-0.6781 Y2.6423 
G01 Z-0.0100 F10.00 
G01 X-0.6781 Y2.7277 
G01 X-0.6770 Y2.7344 
G01 X-0.6749 Y2.7409 
G01 X-0.6718 Y2.7470 
G01 X-0.6678 Y2.7525 
G01 X-0.6630 Y2.7573 
G01 X-0.6574 Y2.7613 
G01 X-0.6514 Y2.7644 
G01 X-0.6449 Y2.7665 
G01 X-0.6381 Y2.7676 
G01 X-0.6313 Y2.7676 
G01 X-0.6246 Y2.7665 
G01 X-0.6181 Y2.7644 
G01 X-0.6120 Y2.7613 
G01 X-0.6065 Y2.7573 
G01 X-0.6017 Y2.7525 
G01 X-0.5976 Y2.7470 
G01 X-0.5946 Y2.7409 
G01 X-0.5924 Y2.7344 
G01 X-0.5914 Y2.7277 
G01 X-0.5914 Y2.6755 
G01 X-0.5146 Y2.5987 
G01 X-0.5113 Y2.5954 
G01 X-0.5086 Y2.5914 
G01 X-0.5068 Y2.5870 
G01 X-0.5059 Y2.5824 
G01 X-0.5059 Y2.2800 
G01 X-0.4730 Y2.2471 
G01 X-0.4656 Y2.2471 
G01 X-0.4647 Y2.2484 
G01 X-0.4592 Y2.2540 
G01 X-0.4527 Y2.2583 
G01 X-0.4454 Y2.2613 
G01 X-0.4377 Y2.2628 
G01 X-0.3584 Y2.2628 
G01 X-0.3507 Y2.2613 
G01 X-0.3434 Y2.2583 
G01 X-0.3369 Y2.2540 
G01 X-0.3313 Y2.2484 
G01 X-0.3270 Y2.2419 
G01 X-0.3240 Y2.2346 
G01 X-0.3225 Y2.2269 
G01 X-0.3225 Y2.2191 
G01 X-0.3240 Y2.2114 
G01 X-0.3270 Y2.2041 
G01 X-0.3313 Y2.1976 
G01 X-0.3369 Y2.1920 
G01 X-0.3434 Y2.1877 
G01 X-0.3507 Y2.1847 
G01 X-0.3584 Y2.1832 
G01 X-0.4377 Y2.1832 
G01 X-0.4454 Y2.1847 
G01 X-0.4527 Y2.1877 
G01 X-0.4592 Y2.1920 
G01 X-0.4647 Y2.1976 
G01 X-0.4656 Y2.1989 
G01 X-0.4854 Y2.1989 
G01 X-0.4900 Y2.1998 
G01 X-0.4944 Y2.2016 
G01 X-0.4984 Y2.2043 
G01 X-0.5487 Y2.2546 
G01 X-0.5514 Y2.2586 
G01 X-0.5532 Y2.2630 
G01 X-0.5541 Y2.2676 
G01 X-0.5541 Y2.5700 
G01 X-0.6016 Y2.6176 
G01 X-0.6017 Y2.6175 
G01 X-0.6065 Y2.6127 
G01 X-0.6120 Y2.6087 
G01 X-0.6181 Y2.6056 
G01 X-0.6246 Y2.6035 
G01 X-0.6313 Y2.6024 
G01 X-0.6381 Y2.6024 
G01 X-0.6449 Y2.6035 
G01 X-0.6514 Y2.6056 
G01 X-0.6574 Y2.6087 
G01 X-0.6630 Y2.6127 
G01 X-0.6678 Y2.6175 
G01 X-0.6718 Y2.6230 
G01 X-0.6749 Y2.6291 
G01 X-0.6770 Y2.6356 
G01 X-0.6781 Y2.6423 
G00 Z0.1000 
G00 X-1.0718 Y2.6423 
G01 Z-0.0100 F10.00 
G01 X-1.0718 Y2.7277 
G01 X-1.0707 Y2.7344 
G01 X-1.0686 Y2.7409 
G01 X-1.0655 Y2.7470 
G01 X-1.0615 Y2.7525 
G01 X-1.0567 Y2.7573 
G01 X-1.0511 Y2.7613 
G01 X-1.0451 Y2.7644 
G01 X-1.0386 Y2.7665 
G01 X-1.0318 Y2.7676 
G01 X-1.0250 Y2.7676 
G01 X-1.0183 Y2.7665 
G01 X-1.0118 Y2.7644 
G01 X-1.0057 Y2.7613 
G01 X-1.0002 Y2.7573 
G01 X-0.9954 Y2.7525 
G01 X-0.9914 Y2.7470 
G01 X-0.9883 Y2.7409 
G01 X-0.9861 Y2.7344 
G01 X-0.9851 Y2.7277 
G01 X-0.9851 Y2.6423 
G01 X-0.9861 Y2.6356 
G01 X-0.9883 Y2.6291 
G01 X-0.9914 Y2.6230 
G01 X-0.9954 Y2.6175 
G01 X-1.0002 Y2.6127 
G01 X-1.0057 Y2.6087 
G01 X-1.0059 Y2.6086 
G01 X-1.0059 Y2.2976 
G01 X-1.0068 Y2.2930 
G01 X-1.0086 Y2.2886 
G01 X-1.0113 Y2.2846 
G01 X-1.0976 Y2.1983 
G01 X-1.1016 Y2.1956 
G01 X-1.1060 Y2.1938 
G01 X-1.1106 Y2.1929 
G01 X-1.1285 Y2.1929 
G01 X-1.1293 Y2.1916 
G01 X-1.1349 Y2.1860 
G01 X-1.1414 Y2.1817 
G01 X-1.1487 Y2.1787 
G01 X-1.1564 Y2.1772 
G01 X-1.2357 Y2.1772 
G01 X-1.2434 Y2.1787 
G01 X-1.2507 Y2.1817 
G01 X-1.2572 Y2.1860 
G01 X-1.2627 Y2.1916 
G01 X-1.2671 Y2.1981 
G01 X-1.2701 Y2.2054 
G01 X-1.2716 Y2.2131 
G01 X-1.2716 Y2.2209 
G01 X-1.2701 Y2.2286 
G01 X-1.2671 Y2.2359 
G01 X-1.2627 Y2.2424 
G01 X-1.2572 Y2.2480 
G01 X-1.2507 Y2.2523 
G01 X-1.2434 Y2.2553 
G01 X-1.2357 Y2.2568 
G01 X-1.1564 Y2.2568 
G01 X-1.1487 Y2.2553 
G01 X-1.1414 Y2.2523 
G01 X-1.1349 Y2.2480 
G01 X-1.1293 Y2.2424 
G01 X-1.1285 Y2.2411 
G01 X-1.1230 Y2.2411 
G01 X-1.0541 Y2.3100 
G01 X-1.0541 Y2.6108 
G01 X-1.0567 Y2.6127 
G01 X-1.0615 Y2.6175 
G01 X-1.0655 Y2.6230 
G01 X-1.0686 Y2.6291 
G01 X-1.0707 Y2.6356 
G01 X-1.0718 Y2.6423 
G00 Z0.1000 
G00 X-1.8681 Y2.6473 
G01 Z-0.0100 F10.00 
G01 X-1.8681 Y2.7327 
G01 X-1.8670 Y2.7394 
G01 X-1.8649 Y2.7459 
G01 X-1.8618 Y2.7520 
G01 X-1.8578 Y2.7575 
G01 X-1.8530 Y2.7623 
G01 X-1.8474 Y2.7663 
G01 X-1.8414 Y2.7694 
G01 X-1.8349 Y2.7715 
G01 X-1.8281 Y2.7726 
G01 X-1.8213 Y2.7726 
G01 X-1.8146 Y2.7715 
G01 X-1.8081 Y2.7694 
G01 X-1.8020 Y2.7663 
G01 X-1.7965 Y2.7623 
G01 X-1.7917 Y2.7575 
G01 X-1.7876 Y2.7520 
G01 X-1.7846 Y2.7459 
G01 X-1.7824 Y2.7394 
G01 X-1.7814 Y2.7327 
G01 X-1.7814 Y2.6807 
G01 X-1.7713 Y2.6706 
G01 X-1.7686 Y2.6667 
G01 X-1.7668 Y2.6623 
G01 X-1.7659 Y2.6576 
G01 X-1.7659 Y2.2800 
G01 X-1.7290 Y2.2431 
G01 X-1.7252 Y2.2470 
G01 X-1.7187 Y2.2513 
G01 X-1.7114 Y2.2543 
G01 X-1.7037 Y2.2558 
G01 X-1.6244 Y2.2558 
G01 X-1.6167 Y2.2543 
G01 X-1.6094 Y2.2513 
G01 X-1.6029 Y2.2470 
G01 X-1.5973 Y2.2414 
G01 X-1.5930 Y2.2349 
G01 X-1.5900 Y2.2276 
G01 X-1.5885 Y2.2199 
G01 X-1.5885 Y2.2121 
G01 X-1.5900 Y2.2044 
G01 X-1.5930 Y2.1971 
G01 X-1.5973 Y2.1906 
G01 X-1.6029 Y2.1850 
G01 X-1.6094 Y2.1807 
G01 X-1.6167 Y2.1777 
G01 X-1.6244 Y2.1762 
G01 X-1.7037 Y2.1762 
G01 X-1.7114 Y2.1777 
G01 X-1.7187 Y2.1807 
G01 X-1.7252 Y2.1850 
G01 X-1.7307 Y2.1906 
G01 X-1.7316 Y2.1919 
G01 X-1.7384 Y2.1919 
G01 X-1.7430 Y2.1928 
G01 X-1.7474 Y2.1946 
G01 X-1.7514 Y2.1973 
G01 X-1.8087 Y2.2546 
G01 X-1.8114 Y2.2586 
G01 X-1.8132 Y2.2630 
G01 X-1.8141 Y2.2676 
G01 X-1.8141 Y2.6086 
G01 X-1.8146 Y2.6085 
G01 X-1.8213 Y2.6074 
G01 X-1.8281 Y2.6074 
G01 X-1.8349 Y2.6085 
G01 X-1.8414 Y2.6106 
G01 X-1.8474 Y2.6137 
G01 X-1.8530 Y2.6177 
G01 X-1.8578 Y2.6225 
G01 X-1.8618 Y2.6280 
G01 X-1.8649 Y2.6341 
G01 X-1.8670 Y2.6406 
G01 X-1.8681 Y2.6473 
G00 Z0.1000 
G00 X-2.0649 Y2.6473 
G01 Z-0.0100 F10.00 
G01 X-2.0649 Y2.7327 
G01 X-2.0639 Y2.7394 
G01 X-2.0617 Y2.7459 
G01 X-2.0586 Y2.7520 
G01 X-2.0546 Y2.7575 
G01 X-2.0498 Y2.7623 
G01 X-2.0443 Y2.7663 
G01 X-2.0382 Y2.7694 
G01 X-2.0317 Y2.7715 
G01 X-2.0250 Y2.7726 
G01 X-2.0182 Y2.7726 
G01 X-2.0114 Y2.7715 
G01 X-2.0049 Y2.7694 
G01 X-1.9989 Y2.7663 
G01 X-1.9933 Y2.7623 
G01 X-1.9885 Y2.7575 
G01 X-1.9845 Y2.7520 
G01 X-1.9814 Y2.7459 
G01 X-1.9793 Y2.7394 
G01 X-1.9782 Y2.7327 
G01 X-1.9782 Y2.6807 
G01 X-1.8746 Y2.5771 
G01 X-1.8746 Y2.5771 
G01 X-1.8713 Y2.5738 
G01 X-1.8686 Y2.5698 
G01 X-1.8668 Y2.5655 
G01 X-1.8659 Y2.5608 
G01 X-1.8659 Y2.2176 
G01 X-1.8668 Y2.2130 
G01 X-1.8686 Y2.2086 
G01 X-1.8713 Y2.2046 
G01 X-1.8746 Y2.2013 
G01 X-1.8746 Y2.2013 
G01 X-1.8756 Y2.2003 
G01 X-1.8796 Y2.1976 
G01 X-1.8840 Y2.1958 
G01 X-1.8886 Y2.1949 
G01 X-1.9425 Y2.1949 
G01 X-1.9433 Y2.1936 
G01 X-1.9489 Y2.1880 
G01 X-1.9554 Y2.1837 
G01 X-1.9627 Y2.1807 
G01 X-1.9704 Y2.1792 
G01 X-2.0497 Y2.1792 
G01 X-2.0574 Y2.1807 
G01 X-2.0647 Y2.1837 
G01 X-2.0712 Y2.1880 
G01 X-2.0767 Y2.1936 
G01 X-2.0811 Y2.2001 
G01 X-2.0841 Y2.2074 
G01 X-2.0856 Y2.2151 
G01 X-2.0856 Y2.2229 
G01 X-2.0841 Y2.2306 
G01 X-2.0811 Y2.2379 
G01 X-2.0767 Y2.2444 
G01 X-2.0712 Y2.2500 
G01 X-2.0647 Y2.2543 
G01 X-2.0574 Y2.2573 
G01 X-2.0497 Y2.2588 
G01 X-1.9704 Y2.2588 
G01 X-1.9627 Y2.2573 
G01 X-1.9554 Y2.2543 
G01 X-1.9489 Y2.2500 
G01 X-1.9433 Y2.2444 
G01 X-1.9425 Y2.2431 
G01 X-1.9141 Y2.2431 
G01 X-1.9141 Y2.5484 
G01 X-1.9884 Y2.6227 
G01 X-1.9885 Y2.6225 
G01 X-1.9933 Y2.6177 
G01 X-1.9989 Y2.6137 
G01 X-2.0049 Y2.6106 
G01 X-2.0114 Y2.6085 
G01 X-2.0182 Y2.6074 
G01 X-2.0250 Y2.6074 
G01 X-2.0317 Y2.6085 
G01 X-2.0382 Y2.6106 
G01 X-2.0443 Y2.6137 
G01 X-2.0498 Y2.6177 
G01 X-2.0546 Y2.6225 
G01 X-2.0586 Y2.6280 
G01 X-2.0617 Y2.6341 
G01 X-2.0639 Y2.6406 
G01 X-2.0649 Y2.6473 
G00 Z0.1000 
G00 X-2.2618 Y2.6473 
G01 Z-0.0100 F10.00 
G01 X-2.2618 Y2.7327 
G01 X-2.2607 Y2.7394 
G01 X-2.2586 Y2.7459 
G01 X-2.2555 Y2.7520 
G01 X-2.2515 Y2.7575 
G01 X-2.2467 Y2.7623 
G01 X-2.2411 Y2.7663 
G01 X-2.2351 Y2.7694 
G01 X-2.2286 Y2.7715 
G01 X-2.2218 Y2.7726 
G01 X-2.2150 Y2.7726 
G01 X-2.2083 Y2.7715 
G01 X-2.2018 Y2.7694 
G01 X-2.1957 Y2.7663 
G01 X-2.1902 Y2.7623 
G01 X-2.1854 Y2.7575 
G01 X-2.1814 Y2.7520 
G01 X-2.1783 Y2.7459 
G01 X-2.1761 Y2.7394 
G01 X-2.1751 Y2.7327 
G01 X-2.1751 Y2.6473 
G01 X-2.1761 Y2.6406 
G01 X-2.1783 Y2.6341 
G01 X-2.1814 Y2.6280 
G01 X-2.1854 Y2.6225 
G01 X-2.1902 Y2.6177 
G01 X-2.1957 Y2.6137 
G01 X-2.1959 Y2.6136 
G01 X-2.1959 Y2.5376 
G01 X-2.1968 Y2.5330 
G01 X-2.1986 Y2.5286 
G01 X-2.2013 Y2.5246 
G01 X-2.2046 Y2.5213 
G01 X-2.2086 Y2.5186 
G01 X-2.2130 Y2.5168 
G01 X-2.2176 Y2.5159 
G01 X-2.3500 Y2.5159 
G01 X-2.4359 Y2.4300 
G01 X-2.4359 Y2.3000 
G01 X-2.3790 Y2.2431 
G01 X-2.3716 Y2.2431 
G01 X-2.3707 Y2.2444 
G01 X-2.3652 Y2.2500 
G01 X-2.3587 Y2.2543 
G01 X-2.3514 Y2.2573 
G01 X-2.3437 Y2.2588 
G01 X-2.2644 Y2.2588 
G01 X-2.2567 Y2.2573 
G01 X-2.2494 Y2.2543 
G01 X-2.2429 Y2.2500 
G01 X-2.2373 Y2.2444 
G01 X-2.2330 Y2.2379 
G01 X-2.2300 Y2.2306 
G01 X-2.2285 Y2.2229 
G01 X-2.2285 Y2.2151 
G01 X-2.2300 Y2.2074 
G01 X-2.2330 Y2.2001 
G01 X-2.2373 Y2.1936 
G01 X-2.2429 Y2.1880 
G01 X-2.2494 Y2.1837 
G01 X-2.2567 Y2.1807 
G01 X-2.2644 Y2.1792 
G01 X-2.3437 Y2.1792 
G01 X-2.3514 Y2.1807 
G01 X-2.3587 Y2.1837 
G01 X-2.3652 Y2.1880 
G01 X-2.3707 Y2.1936 
G01 X-2.3716 Y2.1949 
G01 X-2.3914 Y2.1949 
G01 X-2.3960 Y2.1958 
G01 X-2.4004 Y2.1976 
G01 X-2.4044 Y2.2003 
G01 X-2.4754 Y2.2713 
G01 X-2.4754 Y2.2713 
G01 X-2.4787 Y2.2746 
G01 X-2.4814 Y2.2786 
G01 X-2.4832 Y2.2830 
G01 X-2.4841 Y2.2876 
G01 X-2.4841 Y2.4424 
G01 X-2.4832 Y2.4470 
G01 X-2.4814 Y2.4514 
G01 X-2.4787 Y2.4554 
G01 X-2.3787 Y2.5554 
G01 X-2.3754 Y2.5587 
G01 X-2.3714 Y2.5614 
G01 X-2.3670 Y2.5632 
G01 X-2.3624 Y2.5641 
G01 X-2.2441 Y2.5641 
G01 X-2.2441 Y2.6158 
G01 X-2.2467 Y2.6177 
G01 X-2.2515 Y2.6225 
G01 X-2.2555 Y2.6280 
G01 X-2.2586 Y2.6341 
G01 X-2.2607 Y2.6406 
G01 X-2.2618 Y2.6473 
G00 Z0.1000 
G00 X-1.0351 Y0.2797 
G01 Z-0.0100 F10.00 
G01 X-1.0351 Y0.1943 
G01 X-1.0361 Y0.1876 
G01 X-1.0383 Y0.1811 
G01 X-1.0414 Y0.1750 
G01 X-1.0454 Y0.1695 
G01 X-1.0502 Y0.1647 
G01 X-1.0557 Y0.1607 
G01 X-1.0618 Y0.1576 
G01 X-1.0683 Y0.1555 
G01 X-1.0750 Y0.1544 
G01 X-1.0818 Y0.1544 
G01 X-1.0886 Y0.1555 
G01 X-1.0951 Y0.1576 
G01 X-1.1011 Y0.1607 
G01 X-1.1067 Y0.1647 
G01 X-1.1115 Y0.1695 
G01 X-1.1155 Y0.1750 
G01 X-1.1186 Y0.1811 
G01 X-1.1207 Y0.1876 
G01 X-1.1218 Y0.1943 
G01 X-1.1218 Y0.2259 
G01 X-1.2324 Y0.2259 
G01 X-1.2370 Y0.2268 
G01 X-1.2414 Y0.2286 
G01 X-1.2454 Y0.2313 
G01 X-1.2487 Y0.2346 
G01 X-1.3050 Y0.2909 
G01 X-1.3824 Y0.2909 
G01 X-1.3833 Y0.2896 
G01 X-1.3888 Y0.2840 
G01 X-1.3953 Y0.2797 
G01 X-1.4026 Y0.2767 
G01 X-1.4103 Y0.2752 
G01 X-1.4896 Y0.2752 
G01 X-1.4973 Y0.2767 
G01 X-1.5046 Y0.2797 
G01 X-1.5111 Y0.2840 
G01 X-1.5167 Y0.2896 
G01 X-1.5210 Y0.2961 
G01 X-1.5240 Y0.3034 
G01 X-1.5255 Y0.3111 
G01 X-1.5255 Y0.3189 
G01 X-1.5240 Y0.3266 
G01 X-1.5210 Y0.3339 
G01 X-1.5167 Y0.3404 
G01 X-1.5111 Y0.3460 
G01 X-1.5046 Y0.3503 
G01 X-1.4973 Y0.3533 
G01 X-1.4896 Y0.3548 
G01 X-1.4103 Y0.3548 
G01 X-1.4026 Y0.3533 
G01 X-1.3953 Y0.3503 
G01 X-1.3888 Y0.3460 
G01 X-1.3833 Y0.3404 
G01 X-1.3824 Y0.3391 
G01 X-1.2926 Y0.3391 
G01 X-1.2880 Y0.3382 
G01 X-1.2836 Y0.3364 
G01 X-1.2796 Y0.3337 
G01 X-1.2200 Y0.2741 
G01 X-1.1218 Y0.2741 
G01 X-1.1218 Y0.2797 
G01 X-1.1207 Y0.2864 
G01 X-1.1186 Y0.2929 
G01 X-1.1155 Y0.2990 
G01 X-1.1115 Y0.3045 
G01 X-1.1067 Y0.3093 
G01 X-1.1011 Y0.3133 
G01 X-1.0951 Y0.3164 
G01 X-1.0886 Y0.3185 
G01 X-1.0818 Y0.3196 
G01 X-1.0750 Y0.3196 
G01 X-1.0683 Y0.3185 
G01 X-1.0618 Y0.3164 
G01 X-1.0557 Y0.3133 
G01 X-1.0502 Y0.3093 
G01 X-1.0454 Y0.3045 
G01 X-1.0414 Y0.2990 
G01 X-1.0383 Y0.2929 
G01 X-1.0361 Y0.2864 
G01 X-1.0351 Y0.2797 
G00 Z0.1000 
G00 X-0.6003 Y1.0902 
G01 Z-0.0100 F10.00 
G01 X-0.6797 Y1.0902 
G01 X-0.6874 Y1.0917 
G01 X-0.6946 Y1.0947 
G01 X-0.7011 Y1.0990 
G01 X-0.7067 Y1.1046 
G01 X-0.7111 Y1.1111 
G01 X-0.7141 Y1.1184 
G01 X-0.7156 Y1.1261 
G01 X-0.7156 Y1.1339 
G01 X-0.7141 Y1.1416 
G01 X-0.7111 Y1.1489 
G01 X-0.7067 Y1.1554 
G01 X-0.7011 Y1.1610 
G01 X-0.6946 Y1.1653 
G01 X-0.6874 Y1.1683 
G01 X-0.6797 Y1.1698 
G01 X-0.6003 Y1.1698 
G01 X-0.5926 Y1.1683 
G01 X-0.5854 Y1.1653 
G01 X-0.5789 Y1.1610 
G01 X-0.5733 Y1.1554 
G01 X-0.5689 Y1.1489 
G01 X-0.5659 Y1.1416 
G01 X-0.5644 Y1.1339 
G01 X-0.5644 Y1.1261 
G01 X-0.5659 Y1.1184 
G01 X-0.5689 Y1.1111 
G01 X-0.5733 Y1.1046 
G01 X-0.5789 Y1.0990 
G01 X-0.5854 Y1.0947 
G01 X-0.5926 Y1.0917 
G01 X-0.6003 Y1.0902 
G00 Z0.1000 
G00 X-0.6003 Y0.9902 
G01 Z-0.0100 F10.00 
G01 X-0.6797 Y0.9902 
G01 X-0.6874 Y0.9917 
G01 X-0.6946 Y0.9947 
G01 X-0.7011 Y0.9990 
G01 X-0.7067 Y1.0046 
G01 X-0.7111 Y1.0111 
G01 X-0.7141 Y1.0184 
G01 X-0.7156 Y1.0261 
G01 X-0.7156 Y1.0339 
G01 X-0.7141 Y1.0416 
G01 X-0.7111 Y1.0489 
G01 X-0.7067 Y1.0554 
G01 X-0.7011 Y1.0610 
G01 X-0.6946 Y1.0653 
G01 X-0.6874 Y1.0683 
G01 X-0.6797 Y1.0698 
G01 X-0.6003 Y1.0698 
G01 X-0.5926 Y1.0683 
G01 X-0.5854 Y1.0653 
G01 X-0.5789 Y1.0610 
G01 X-0.5733 Y1.0554 
G01 X-0.5689 Y1.0489 
G01 X-0.5659 Y1.0416 
G01 X-0.5644 Y1.0339 
G01 X-0.5644 Y1.0261 
G01 X-0.5659 Y1.0184 
G01 X-0.5689 Y1.0111 
G01 X-0.5733 Y1.0046 
G01 X-0.5789 Y0.9990 
G01 X-0.5854 Y0.9947 
G01 X-0.5926 Y0.9917 
G01 X-0.6003 Y0.9902 
G00 Z0.1000 
G00 X-0.6003 Y0.8902 
G01 Z-0.0100 F10.00 
G01 X-0.6797 Y0.8902 
G01 X-0.6874 Y0.8917 
G01 X-0.6946 Y0.8947 
G01 X-0.7011 Y0.8990 
G01 X-0.7067 Y0.9046 
G01 X-0.7111 Y0.9111 
G01 X-0.7141 Y0.9184 
G01 X-0.7156 Y0.9261 
G01 X-0.7156 Y0.9339 
G01 X-0.7141 Y0.9416 
G01 X-0.7111 Y0.9489 
G01 X-0.7067 Y0.9554 
G01 X-0.7011 Y0.9610 
G01 X-0.6946 Y0.9653 
G01 X-0.6874 Y0.9683 
G01 X-0.6797 Y0.9698 
G01 X-0.6003 Y0.9698 
G01 X-0.5926 Y0.9683 
G01 X-0.5854 Y0.9653 
G01 X-0.5789 Y0.9610 
G01 X-0.5733 Y0.9554 
G01 X-0.5689 Y0.9489 
G01 X-0.5659 Y0.9416 
G01 X-0.5644 Y0.9339 
G01 X-0.5644 Y0.9261 
G01 X-0.5659 Y0.9184 
G01 X-0.5689 Y0.9111 
G01 X-0.5733 Y0.9046 
G01 X-0.5789 Y0.8990 
G01 X-0.5854 Y0.8947 
G01 X-0.5926 Y0.8917 
G01 X-0.6003 Y0.8902 
G00 Z0.1000 
G00 X-0.6003 Y0.7902 
G01 Z-0.0100 F10.00 
G01 X-0.6797 Y0.7902 
G01 X-0.6874 Y0.7917 
G01 X-0.6946 Y0.7947 
G01 X-0.7011 Y0.7990 
G01 X-0.7067 Y0.8046 
G01 X-0.7111 Y0.8111 
G01 X-0.7141 Y0.8184 
G01 X-0.7156 Y0.8261 
G01 X-0.7156 Y0.8339 
G01 X-0.7141 Y0.8416 
G01 X-0.7111 Y0.8489 
G01 X-0.7067 Y0.8554 
G01 X-0.7011 Y0.8610 
G01 X-0.6946 Y0.8653 
G01 X-0.6874 Y0.8683 
G01 X-0.6797 Y0.8698 
G01 X-0.6003 Y0.8698 
G01 X-0.5926 Y0.8683 
G01 X-0.5854 Y0.8653 
G01 X-0.5789 Y0.8610 
G01 X-0.5733 Y0.8554 
G01 X-0.5689 Y0.8489 
G01 X-0.5659 Y0.8416 
G01 X-0.5644 Y0.8339 
G01 X-0.5644 Y0.8261 
G01 X-0.5659 Y0.8184 
G01 X-0.5689 Y0.8111 
G01 X-0.5733 Y0.8046 
G01 X-0.5789 Y0.7990 
G01 X-0.5854 Y0.7947 
G01 X-0.5926 Y0.7917 
G01 X-0.6003 Y0.7902 
G00 Z0.1000 
G00 X-0.6003 Y0.6902 
G01 Z-0.0100 F10.00 
G01 X-0.6797 Y0.6902 
G01 X-0.6874 Y0.6917 
G01 X-0.6946 Y0.6947 
G01 X-0.7011 Y0.6990 
G01 X-0.7067 Y0.7046 
G01 X-0.7111 Y0.7111 
G01 X-0.7141 Y0.7184 
G01 X-0.7156 Y0.7261 
G01 X-0.7156 Y0.7339 
G01 X-0.7141 Y0.7416 
G01 X-0.7111 Y0.7489 
G01 X-0.7067 Y0.7554 
G01 X-0.7011 Y0.7610 
G01 X-0.6946 Y0.7653 
G01 X-0.6874 Y0.7683 
G01 X-0.6797 Y0.7698 
G01 X-0.6003 Y0.7698 
G01 X-0.5926 Y0.7683 
G01 X-0.5854 Y0.7653 
G01 X-0.5789 Y0.7610 
G01 X-0.5733 Y0.7554 
G01 X-0.5689 Y0.7489 
G01 X-0.5659 Y0.7416 
G01 X-0.5644 Y0.7339 
G01 X-0.5644 Y0.7261 
G01 X-0.5659 Y0.7184 
G01 X-0.5689 Y0.7111 
G01 X-0.5733 Y0.7046 
G01 X-0.5789 Y0.6990 
G01 X-0.5854 Y0.6947 
G01 X-0.5926 Y0.6917 
G01 X-0.6003 Y0.6902 
G00 Z0.1000 
G00 X-0.6003 Y0.5902 
G01 Z-0.0100 F10.00 
G01 X-0.6797 Y0.5902 
G01 X-0.6874 Y0.5917 
G01 X-0.6946 Y0.5947 
G01 X-0.7011 Y0.5990 
G01 X-0.7067 Y0.6046 
G01 X-0.7111 Y0.6111 
G01 X-0.7141 Y0.6184 
G01 X-0.7156 Y0.6261 
G01 X-0.7156 Y0.6339 
G01 X-0.7141 Y0.6416 
G01 X-0.7111 Y0.6489 
G01 X-0.7067 Y0.6554 
G01 X-0.7011 Y0.6610 
G01 X-0.6946 Y0.6653 
G01 X-0.6874 Y0.6683 
G01 X-0.6797 Y0.6698 
G01 X-0.6003 Y0.6698 
G01 X-0.5926 Y0.6683 
G01 X-0.5854 Y0.6653 
G01 X-0.5789 Y0.6610 
G01 X-0.5733 Y0.6554 
G01 X-0.5689 Y0.6489 
G01 X-0.5659 Y0.6416 
G01 X-0.5644 Y0.6339 
G01 X-0.5644 Y0.6261 
G01 X-0.5659 Y0.6184 
G01 X-0.5689 Y0.6111 
G01 X-0.5733 Y0.6046 
G01 X-0.5789 Y0.5990 
G01 X-0.5854 Y0.5947 
G01 X-0.5926 Y0.5917 
G01 X-0.6003 Y0.5902 
G00 Z0.1000 
G00 X-1.0929 Y2.8591 
G01 Z-0.0100 F10.00 
G01 X-0.5971 Y2.8591 
G01 X-0.5915 Y2.8580 
G01 X-0.5862 Y2.8558 
G01 X-0.5814 Y2.8526 
G01 X-0.5774 Y2.8486 
G01 X-0.0974 Y2.3686 
G01 X-0.0942 Y2.3638 
G01 X-0.0920 Y2.3585 
G01 X-0.0909 Y2.3529 
G01 X-0.0909 Y1.0071 
G01 X-0.0912 Y1.0056 
G01 X-0.0912 Y0.3944 
G01 X-0.0909 Y0.3929 
G01 X-0.0909 Y0.3871 
G01 X-0.0920 Y0.3815 
G01 X-0.0942 Y0.3762 
G01 X-0.0974 Y0.3714 
G01 X-0.2132 Y0.2556 
G01 X-0.2132 Y0.1919 
G01 X-0.2144 Y0.1844 
G01 X-0.2168 Y0.1772 
G01 X-0.2202 Y0.1704 
G01 X-0.2247 Y0.1643 
G01 X-0.2301 Y0.1589 
G01 X-0.2325 Y0.1571 
G01 X-0.2325 Y0.1556 
G01 X-0.2336 Y0.1499 
G01 X-0.2358 Y0.1446 
G01 X-0.2390 Y0.1399 
G01 X-0.2974 Y0.0814 
G01 X-0.3014 Y0.0774 
G01 X-0.3062 Y0.0742 
G01 X-0.3115 Y0.0720 
G01 X-0.3171 Y0.0709 
G01 X-0.7474 Y0.0709 
G01 X-0.7531 Y0.0720 
G01 X-0.7584 Y0.0742 
G01 X-0.7631 Y0.0774 
G01 X-0.8483 Y0.1626 
G01 X-0.8501 Y0.1609 
G01 X-0.8562 Y0.1564 
G01 X-0.8630 Y0.1529 
G01 X-0.8703 Y0.1506 
G01 X-0.8778 Y0.1494 
G01 X-0.8854 Y0.1494 
G01 X-0.8929 Y0.1506 
G01 X-0.9001 Y0.1529 
G01 X-0.9069 Y0.1564 
G01 X-0.9131 Y0.1609 
G01 X-0.9185 Y0.1663 
G01 X-0.9229 Y0.1724 
G01 X-0.9264 Y0.1792 
G01 X-0.9287 Y0.1864 
G01 X-0.9299 Y0.1939 
G01 X-0.9299 Y0.2801 
G01 X-0.9287 Y0.2876 
G01 X-0.9264 Y0.2948 
G01 X-0.9229 Y0.3016 
G01 X-0.9185 Y0.3077 
G01 X-0.9131 Y0.3131 
G01 X-0.9069 Y0.3176 
G01 X-0.9001 Y0.3211 
G01 X-0.8929 Y0.3234 
G01 X-0.8854 Y0.3246 
G01 X-0.8778 Y0.3246 
G01 X-0.8703 Y0.3234 
G01 X-0.8630 Y0.3211 
G01 X-0.8562 Y0.3176 
G01 X-0.8501 Y0.3131 
G01 X-0.8447 Y0.3077 
G01 X-0.8402 Y0.3016 
G01 X-0.8368 Y0.2948 
G01 X-0.8344 Y0.2876 
G01 X-0.8332 Y0.2801 
G01 X-0.8332 Y0.2298 
G01 X-0.7325 Y0.1291 
G01 X-0.3321 Y0.1291 
G01 X-0.2977 Y0.1635 
G01 X-0.2985 Y0.1643 
G01 X-0.3029 Y0.1704 
G01 X-0.3064 Y0.1772 
G01 X-0.3087 Y0.1844 
G01 X-0.3099 Y0.1919 
G01 X-0.3099 Y0.2781 
G01 X-0.3087 Y0.2856 
G01 X-0.3064 Y0.2928 
G01 X-0.3029 Y0.2996 
G01 X-0.2985 Y0.3057 
G01 X-0.2931 Y0.3111 
G01 X-0.2869 Y0.3156 
G01 X-0.2801 Y0.3191 
G01 X-0.2729 Y0.3214 
G01 X-0.2654 Y0.3226 
G01 X-0.2578 Y0.3226 
G01 X-0.2503 Y0.3214 
G01 X-0.2430 Y0.3191 
G01 X-0.2362 Y0.3156 
G01 X-0.2358 Y0.3153 
G01 X-0.1488 Y0.4024 
G01 X-0.1488 Y1.0056 
G01 X-0.1491 Y1.0071 
G01 X-0.1491 Y2.3379 
G01 X-0.6121 Y2.8009 
G01 X-1.0779 Y2.8009 
G01 X-1.1769 Y2.7019 
G01 X-1.1769 Y2.6419 
G01 X-1.1781 Y2.6344 
G01 X-1.1805 Y2.6272 
G01 X-1.1839 Y2.6204 
G01 X-1.1884 Y2.6143 
G01 X-1.1938 Y2.6089 
G01 X-1.1999 Y2.6044 
G01 X-1.2067 Y2.6009 
G01 X-1.2140 Y2.5986 
G01 X-1.2215 Y2.5974 
G01 X-1.2291 Y2.5974 
G01 X-1.2366 Y2.5986 
G01 X-1.2438 Y2.6009 
G01 X-1.2506 Y2.6044 
G01 X-1.2568 Y2.6089 
G01 X-1.2622 Y2.6143 
G01 X-1.2666 Y2.6204 
G01 X-1.2701 Y2.6272 
G01 X-1.2724 Y2.6344 
G01 X-1.2736 Y2.6419 
G01 X-1.2736 Y2.7281 
G01 X-1.2724 Y2.7356 
G01 X-1.2701 Y2.7428 
G01 X-1.2666 Y2.7496 
G01 X-1.2622 Y2.7557 
G01 X-1.2568 Y2.7611 
G01 X-1.2506 Y2.7656 
G01 X-1.2438 Y2.7691 
G01 X-1.2366 Y2.7714 
G01 X-1.2291 Y2.7726 
G01 X-1.2215 Y2.7726 
G01 X-1.2140 Y2.7714 
G01 X-1.2067 Y2.7691 
G01 X-1.1999 Y2.7656 
G01 X-1.1974 Y2.7638 
G01 X-1.1603 Y2.8009 
G01 X-2.2679 Y2.8009 
G01 X-2.3669 Y2.7019 
G01 X-2.3669 Y2.6469 
G01 X-2.3681 Y2.6394 
G01 X-2.3705 Y2.6322 
G01 X-2.3739 Y2.6254 
G01 X-2.3784 Y2.6193 
G01 X-2.3838 Y2.6139 
G01 X-2.3899 Y2.6094 
G01 X-2.3967 Y2.6059 
G01 X-2.4040 Y2.6036 
G01 X-2.4115 Y2.6024 
G01 X-2.4191 Y2.6024 
G01 X-2.4266 Y2.6036 
G01 X-2.4338 Y2.6059 
G01 X-2.4406 Y2.6094 
G01 X-2.4468 Y2.6139 
G01 X-2.4485 Y2.6156 
G01 X-2.6509 Y2.4132 
G01 X-2.6509 Y0.6221 
G01 X-2.4550 Y0.4262 
G01 X-2.4550 Y0.4262 
G01 X-2.4510 Y0.4221 
G01 X-2.4478 Y0.4174 
G01 X-2.4456 Y0.4121 
G01 X-2.4453 Y0.4104 
G01 X-2.4421 Y0.4081 
G01 X-2.4367 Y0.4027 
G01 X-2.4322 Y0.3966 
G01 X-2.4288 Y0.3898 
G01 X-2.4264 Y0.3826 
G01 X-2.4252 Y0.3751 
G01 X-2.4252 Y0.2889 
G01 X-2.4264 Y0.2814 
G01 X-2.4288 Y0.2742 
G01 X-2.4322 Y0.2674 
G01 X-2.4367 Y0.2613 
G01 X-2.4421 Y0.2559 
G01 X-2.4482 Y0.2514 
G01 X-2.4550 Y0.2479 
G01 X-2.4623 Y0.2456 
G01 X-2.4698 Y0.2444 
G01 X-2.4774 Y0.2444 
G01 X-2.4849 Y0.2456 
G01 X-2.4921 Y0.2479 
G01 X-2.4989 Y0.2514 
G01 X-2.5051 Y0.2559 
G01 X-2.5105 Y0.2613 
G01 X-2.5149 Y0.2674 
G01 X-2.5184 Y0.2742 
G01 X-2.5207 Y0.2814 
G01 X-2.5219 Y0.2889 
G01 X-2.5219 Y0.3751 
G01 X-2.5207 Y0.3826 
G01 X-2.5184 Y0.3898 
G01 X-2.5149 Y0.3966 
G01 X-2.5119 Y0.4007 
G01 X-2.6986 Y0.5874 
G01 X-2.7026 Y0.5914 
G01 X-2.7058 Y0.5962 
G01 X-2.7080 Y0.6015 
G01 X-2.7091 Y0.6071 
G01 X-2.7091 Y2.4329 
G01 X-2.7080 Y2.4385 
G01 X-2.7058 Y2.4438 
G01 X-2.7026 Y2.4486 
G01 X-2.6986 Y2.4526 
G01 X-2.6938 Y2.4558 
G01 X-2.6885 Y2.4580 
G01 X-2.6884 Y2.4580 
G01 X-2.4636 Y2.6828 
G01 X-2.4636 Y2.7331 
G01 X-2.4624 Y2.7406 
G01 X-2.4601 Y2.7478 
G01 X-2.4566 Y2.7546 
G01 X-2.4522 Y2.7607 
G01 X-2.4468 Y2.7661 
G01 X-2.4406 Y2.7706 
G01 X-2.4338 Y2.7741 
G01 X-2.4266 Y2.7764 
G01 X-2.4191 Y2.7776 
G01 X-2.4115 Y2.7776 
G01 X-2.4040 Y2.7764 
G01 X-2.3967 Y2.7741 
G01 X-2.3899 Y2.7706 
G01 X-2.3845 Y2.7667 
G01 X-2.2986 Y2.8526 
G01 X-2.2938 Y2.8558 
G01 X-2.2885 Y2.8580 
G01 X-2.2829 Y2.8591 
G01 X-2.2771 Y2.8591 
G01 X-1.0929 Y2.8591 
G00 Z0.1000 
G00 X-2.0808 Y0.5931 
G01 Z-0.0100 F10.00 
G01 X-2.0808 Y0.6269 
G01 X-2.0569 Y0.6508 
G01 X-2.0231 Y0.6508 
G01 X-2.0113 Y0.6391 
G01 X-1.9071 Y0.6391 
G01 X-1.9015 Y0.6380 
G01 X-1.8962 Y0.6358 
G01 X-1.8914 Y0.6326 
G01 X-1.7014 Y0.4425 
G01 X-1.5200 Y0.4425 
G01 X-1.5199 Y0.4426 
G01 X-1.5149 Y0.4476 
G01 X-1.5092 Y0.4518 
G01 X-1.5029 Y0.4550 
G01 X-1.4962 Y0.4572 
G01 X-1.4892 Y0.4583 
G01 X-1.4107 Y0.4583 
G01 X-1.4037 Y0.4572 
G01 X-1.3970 Y0.4550 
G01 X-1.3907 Y0.4518 
G01 X-1.3850 Y0.4476 
G01 X-1.3800 Y0.4426 
G01 X-1.3758 Y0.4369 
G01 X-1.3726 Y0.4306 
G01 X-1.3705 Y0.4239 
G01 X-1.3694 Y0.4170 
G01 X-1.3694 Y0.4099 
G01 X-1.3705 Y0.4029 
G01 X-1.3726 Y0.3962 
G01 X-1.3758 Y0.3899 
G01 X-1.3800 Y0.3842 
G01 X-1.3850 Y0.3792 
G01 X-1.3907 Y0.3751 
G01 X-1.3970 Y0.3719 
G01 X-1.4037 Y0.3697 
G01 X-1.4107 Y0.3686 
G01 X-1.4892 Y0.3686 
G01 X-1.4962 Y0.3697 
G01 X-1.5029 Y0.3719 
G01 X-1.5092 Y0.3751 
G01 X-1.5149 Y0.3792 
G01 X-1.5199 Y0.3842 
G01 X-1.5200 Y0.3843 
G01 X-1.7163 Y0.3843 
G01 X-1.7219 Y0.3854 
G01 X-1.7272 Y0.3876 
G01 X-1.7320 Y0.3908 
G01 X-1.9221 Y0.5809 
G01 X-2.0113 Y0.5809 
G01 X-2.0231 Y0.5692 
G01 X-2.0569 Y0.5692 
G01 X-2.0808 Y0.5931 
G00 Z0.1000 
G00 X-2.0808 Y1.1269 
G01 Z-0.0100 F10.00 
G01 X-2.0569 Y1.1508 
G01 X-2.0231 Y1.1508 
G01 X-1.9992 Y1.1269 
G01 X-1.9992 Y1.0931 
G01 X-2.0231 Y1.0692 
G01 X-2.0397 Y1.0692 
G01 X-2.2114 Y0.8974 
G01 X-2.2162 Y0.8942 
G01 X-2.2215 Y0.8920 
G01 X-2.2271 Y0.8909 
G01 X-2.3929 Y0.8909 
G01 X-2.3985 Y0.8920 
G01 X-2.4038 Y0.8942 
G01 X-2.4086 Y0.8974 
G01 X-2.4126 Y0.9014 
G01 X-2.4326 Y0.9214 
G01 X-2.4358 Y0.9262 
G01 X-2.4380 Y0.9315 
G01 X-2.4391 Y0.9371 
G01 X-2.4391 Y1.0779 
G01 X-2.4621 Y1.1009 
G01 X-2.4700 Y1.1009 
G01 X-2.4700 Y1.1008 
G01 X-2.4750 Y1.0958 
G01 X-2.4807 Y1.0916 
G01 X-2.4870 Y1.0884 
G01 X-2.4937 Y1.0863 
G01 X-2.5007 Y1.0852 
G01 X-2.5793 Y1.0852 
G01 X-2.5863 Y1.0863 
G01 X-2.5930 Y1.0884 
G01 X-2.5993 Y1.0916 
G01 X-2.6050 Y1.0958 
G01 X-2.6100 Y1.1008 
G01 X-2.6141 Y1.1065 
G01 X-2.6173 Y1.1128 
G01 X-2.6195 Y1.1195 
G01 X-2.6206 Y1.1265 
G01 X-2.6206 Y1.1335 
G01 X-2.6195 Y1.1405 
G01 X-2.6173 Y1.1472 
G01 X-2.6141 Y1.1535 
G01 X-2.6100 Y1.1592 
G01 X-2.6050 Y1.1642 
G01 X-2.5993 Y1.1684 
G01 X-2.5930 Y1.1716 
G01 X-2.5863 Y1.1737 
G01 X-2.5793 Y1.1748 
G01 X-2.5007 Y1.1748 
G01 X-2.4937 Y1.1737 
G01 X-2.4870 Y1.1716 
G01 X-2.4807 Y1.1684 
G01 X-2.4750 Y1.1642 
G01 X-2.4700 Y1.1592 
G01 X-2.4700 Y1.1591 
G01 X-2.4471 Y1.1591 
G01 X-2.4415 Y1.1580 
G01 X-2.4362 Y1.1558 
G01 X-2.4314 Y1.1526 
G01 X-2.3914 Y1.1126 
G01 X-2.3874 Y1.1086 
G01 X-2.3842 Y1.1038 
G01 X-2.3820 Y1.0985 
G01 X-2.3809 Y1.0929 
G01 X-2.3809 Y0.9521 
G01 X-2.3779 Y0.9491 
G01 X-2.2421 Y0.9491 
G01 X-2.0808 Y1.1103 
G01 X-2.0808 Y1.1269 
G00 Z0.1000 
G00 X-1.3658 Y1.6631 
G01 Z-0.0100 F10.00 
G01 X-1.3658 Y1.6969 
G01 X-1.3541 Y1.7087 
G01 X-1.3541 Y1.8829 
G01 X-1.3530 Y1.8885 
G01 X-1.3508 Y1.8938 
G01 X-1.3476 Y1.8986 
G01 X-1.2251 Y2.0210 
G01 X-1.2251 Y2.0737 
G01 X-1.2353 Y2.0737 
G01 X-1.2423 Y2.0748 
G01 X-1.2490 Y2.0770 
G01 X-1.2553 Y2.0802 
G01 X-1.2610 Y2.0844 
G01 X-1.2660 Y2.0894 
G01 X-1.2702 Y2.0951 
G01 X-1.2734 Y2.1014 
G01 X-1.2755 Y2.1081 
G01 X-1.2766 Y2.1150 
G01 X-1.2766 Y2.1221 
G01 X-1.2755 Y2.1291 
G01 X-1.2734 Y2.1358 
G01 X-1.2702 Y2.1421 
G01 X-1.2660 Y2.1478 
G01 X-1.2610 Y2.1528 
G01 X-1.2553 Y2.1569 
G01 X-1.2490 Y2.1601 
G01 X-1.2423 Y2.1623 
G01 X-1.2353 Y2.1634 
G01 X-1.1568 Y2.1634 
G01 X-1.1498 Y2.1623 
G01 X-1.1431 Y2.1601 
G01 X-1.1368 Y2.1569 
G01 X-1.1311 Y2.1528 
G01 X-1.1261 Y2.1478 
G01 X-1.1219 Y2.1421 
G01 X-1.1187 Y2.1358 
G01 X-1.1166 Y2.1291 
G01 X-1.1155 Y2.1221 
G01 X-1.1155 Y2.1150 
G01 X-1.1166 Y2.1081 
G01 X-1.1187 Y2.1014 
G01 X-1.1219 Y2.0951 
G01 X-1.1261 Y2.0894 
G01 X-1.1311 Y2.0844 
G01 X-1.1368 Y2.0802 
G01 X-1.1431 Y2.0770 
G01 X-1.1498 Y2.0748 
G01 X-1.1568 Y2.0737 
G01 X-1.1669 Y2.0737 
G01 X-1.1669 Y2.0061 
G01 X-1.1681 Y2.0005 
G01 X-1.1703 Y1.9952 
G01 X-1.1734 Y1.9904 
G01 X-1.2959 Y1.8679 
G01 X-1.2959 Y1.7087 
G01 X-1.2842 Y1.6969 
G01 X-1.2842 Y1.6631 
G01 X-1.3081 Y1.6392 
G01 X-1.3419 Y1.6392 
G01 X-1.3658 Y1.6631 
G00 Z0.1000 
G00 X-1.3419 Y1.3208 
G01 Z-0.0100 F10.00 
G01 X-1.3081 Y1.3208 
G01 X-1.2842 Y1.2969 
G01 X-1.2842 Y1.2631 
G01 X-1.3081 Y1.2392 
G01 X-1.3419 Y1.2392 
G01 X-1.3537 Y1.2509 
G01 X-2.0529 Y1.2509 
G01 X-2.0585 Y1.2520 
G01 X-2.0638 Y1.2542 
G01 X-2.0686 Y1.2574 
G01 X-2.0726 Y1.2614 
G01 X-2.2833 Y1.4722 
G01 X-2.3149 Y1.4722 
G01 X-2.3388 Y1.4961 
G01 X-2.3388 Y1.5277 
G01 X-2.3721 Y1.5609 
G01 X-2.4700 Y1.5609 
G01 X-2.4700 Y1.5608 
G01 X-2.4750 Y1.5558 
G01 X-2.4807 Y1.5516 
G01 X-2.4870 Y1.5484 
G01 X-2.4937 Y1.5463 
G01 X-2.5007 Y1.5452 
G01 X-2.5793 Y1.5452 
G01 X-2.5863 Y1.5463 
G01 X-2.5930 Y1.5484 
G01 X-2.5993 Y1.5516 
G01 X-2.6050 Y1.5558 
G01 X-2.6100 Y1.5608 
G01 X-2.6141 Y1.5665 
G01 X-2.6173 Y1.5728 
G01 X-2.6195 Y1.5795 
G01 X-2.6206 Y1.5865 
G01 X-2.6206 Y1.5935 
G01 X-2.6195 Y1.6005 
G01 X-2.6173 Y1.6072 
G01 X-2.6141 Y1.6135 
G01 X-2.6100 Y1.6192 
G01 X-2.6050 Y1.6242 
G01 X-2.5993 Y1.6284 
G01 X-2.5930 Y1.6316 
G01 X-2.5863 Y1.6337 
G01 X-2.5793 Y1.6348 
G01 X-2.5007 Y1.6348 
G01 X-2.4937 Y1.6337 
G01 X-2.4870 Y1.6316 
G01 X-2.4807 Y1.6284 
G01 X-2.4750 Y1.6242 
G01 X-2.4700 Y1.6192 
G01 X-2.4700 Y1.6191 
G01 X-2.3571 Y1.6191 
G01 X-2.3515 Y1.6180 
G01 X-2.3462 Y1.6158 
G01 X-2.3414 Y1.6126 
G01 X-2.2827 Y1.5538 
G01 X-2.2811 Y1.5538 
G01 X-2.2572 Y1.5299 
G01 X-2.2572 Y1.5283 
G01 X-2.0379 Y1.3091 
G01 X-1.3537 Y1.3091 
G01 X-1.3419 Y1.3208 
G00 Z0.1000 
G00 X-0.9568 Y1.6531 
G01 Z-0.0100 F10.00 
G01 X-0.9568 Y1.6869 
G01 X-0.9329 Y1.7108 
G01 X-0.9003 Y1.7108 
G01 X-0.8891 Y1.7221 
G01 X-0.8891 Y1.8929 
G01 X-0.8880 Y1.8985 
G01 X-0.8858 Y1.9038 
G01 X-0.8826 Y1.9086 
G01 X-0.7626 Y2.0286 
G01 X-0.7586 Y2.0326 
G01 X-0.7538 Y2.0358 
G01 X-0.7485 Y2.0380 
G01 X-0.7429 Y2.0391 
G01 X-0.4521 Y2.0391 
G01 X-0.4271 Y2.0640 
G01 X-0.4271 Y2.0797 
G01 X-0.4373 Y2.0797 
G01 X-0.4443 Y2.0808 
G01 X-0.4510 Y2.0830 
G01 X-0.4573 Y2.0862 
G01 X-0.4630 Y2.0904 
G01 X-0.4680 Y2.0954 
G01 X-0.4722 Y2.1011 
G01 X-0.4754 Y2.1074 
G01 X-0.4775 Y2.1141 
G01 X-0.4786 Y2.1210 
G01 X-0.4786 Y2.1281 
G01 X-0.4775 Y2.1351 
G01 X-0.4754 Y2.1418 
G01 X-0.4722 Y2.1481 
G01 X-0.4680 Y2.1538 
G01 X-0.4630 Y2.1588 
G01 X-0.4573 Y2.1629 
G01 X-0.4510 Y2.1661 
G01 X-0.4443 Y2.1683 
G01 X-0.4373 Y2.1694 
G01 X-0.3588 Y2.1694 
G01 X-0.3518 Y2.1683 
G01 X-0.3451 Y2.1661 
G01 X-0.3388 Y2.1629 
G01 X-0.3331 Y2.1588 
G01 X-0.3281 Y2.1538 
G01 X-0.3239 Y2.1481 
G01 X-0.3207 Y2.1418 
G01 X-0.3186 Y2.1351 
G01 X-0.3175 Y2.1281 
G01 X-0.3175 Y2.1210 
G01 X-0.3186 Y2.1141 
G01 X-0.3207 Y2.1074 
G01 X-0.3239 Y2.1011 
G01 X-0.3281 Y2.0954 
G01 X-0.3331 Y2.0904 
G01 X-0.3388 Y2.0862 
G01 X-0.3451 Y2.0830 
G01 X-0.3518 Y2.0808 
G01 X-0.3588 Y2.0797 
G01 X-0.3689 Y2.0797 
G01 X-0.3689 Y2.0491 
G01 X-0.3701 Y2.0435 
G01 X-0.3723 Y2.0382 
G01 X-0.3754 Y2.0334 
G01 X-0.4214 Y1.9874 
G01 X-0.4262 Y1.9842 
G01 X-0.4315 Y1.9820 
G01 X-0.4371 Y1.9809 
G01 X-0.7279 Y1.9809 
G01 X-0.8309 Y1.8779 
G01 X-0.8309 Y1.7071 
G01 X-0.8320 Y1.7015 
G01 X-0.8342 Y1.6962 
G01 X-0.8374 Y1.6914 
G01 X-0.8745 Y1.6544 
G01 X-0.8745 Y1.6544 
G01 X-0.8752 Y1.6537 
G01 X-0.8752 Y1.6531 
G01 X-0.8991 Y1.6292 
G01 X-0.9329 Y1.6292 
G01 X-0.9568 Y1.6531 
G00 Z0.1000 
G00 X-2.0249 Y1.5168 
G01 Z-0.0100 F10.00 
G01 X-1.9911 Y1.5168 
G01 X-1.9672 Y1.4929 
G01 X-1.9672 Y1.4783 
G01 X-1.8879 Y1.3991 
G01 X-1.2171 Y1.3991 
G01 X-1.2115 Y1.3980 
G01 X-1.2062 Y1.3958 
G01 X-1.2014 Y1.3926 
G01 X-1.1197 Y1.3108 
G01 X-1.1071 Y1.3108 
G01 X-1.0832 Y1.2869 
G01 X-1.0832 Y1.2531 
G01 X-1.1071 Y1.2292 
G01 X-1.1409 Y1.2292 
G01 X-1.1648 Y1.2531 
G01 X-1.1648 Y1.2737 
G01 X-1.2321 Y1.3409 
G01 X-1.9029 Y1.3409 
G01 X-1.9085 Y1.3420 
G01 X-1.9138 Y1.3442 
G01 X-1.9186 Y1.3474 
G01 X-2.0063 Y1.4352 
G01 X-2.0249 Y1.4352 
G01 X-2.0367 Y1.4469 
G01 X-2.0989 Y1.4469 
G01 X-2.1045 Y1.4480 
G01 X-2.1098 Y1.4502 
G01 X-2.1146 Y1.4534 
G01 X-2.1186 Y1.4574 
G01 X-2.1186 Y1.4574 
G01 X-2.3221 Y1.6609 
G01 X-2.4700 Y1.6609 
G01 X-2.4700 Y1.6608 
G01 X-2.4750 Y1.6558 
G01 X-2.4807 Y1.6516 
G01 X-2.4870 Y1.6484 
G01 X-2.4937 Y1.6463 
G01 X-2.5007 Y1.6452 
G01 X-2.5793 Y1.6452 
G01 X-2.5863 Y1.6463 
G01 X-2.5930 Y1.6484 
G01 X-2.5993 Y1.6516 
G01 X-2.6050 Y1.6558 
G01 X-2.6100 Y1.6608 
G01 X-2.6141 Y1.6665 
G01 X-2.6173 Y1.6728 
G01 X-2.6195 Y1.6795 
G01 X-2.6206 Y1.6865 
G01 X-2.6206 Y1.6935 
G01 X-2.6195 Y1.7005 
G01 X-2.6173 Y1.7072 
G01 X-2.6141 Y1.7135 
G01 X-2.6100 Y1.7192 
G01 X-2.6050 Y1.7242 
G01 X-2.5993 Y1.7284 
G01 X-2.5930 Y1.7316 
G01 X-2.5863 Y1.7337 
G01 X-2.5793 Y1.7348 
G01 X-2.5007 Y1.7348 
G01 X-2.4937 Y1.7337 
G01 X-2.4870 Y1.7316 
G01 X-2.4807 Y1.7284 
G01 X-2.4750 Y1.7242 
G01 X-2.4700 Y1.7192 
G01 X-2.4700 Y1.7191 
G01 X-2.3071 Y1.7191 
G01 X-2.3015 Y1.7180 
G01 X-2.2962 Y1.7158 
G01 X-2.2914 Y1.7126 
G01 X-2.2874 Y1.7086 
G01 X-2.0839 Y1.5051 
G01 X-2.0367 Y1.5051 
G01 X-2.0249 Y1.5168 
G00 Z0.1000 
G00 X-1.6918 Y1.5321 
G01 Z-0.0100 F10.00 
G01 X-1.6918 Y1.5507 
G01 X-1.7521 Y1.6109 
G01 X-2.1229 Y1.6109 
G01 X-2.1285 Y1.6120 
G01 X-2.1338 Y1.6142 
G01 X-2.1386 Y1.6174 
G01 X-2.2821 Y1.7609 
G01 X-2.4700 Y1.7609 
G01 X-2.4700 Y1.7608 
G01 X-2.4750 Y1.7558 
G01 X-2.4807 Y1.7516 
G01 X-2.4870 Y1.7484 
G01 X-2.4937 Y1.7463 
G01 X-2.5007 Y1.7452 
G01 X-2.5793 Y1.7452 
G01 X-2.5863 Y1.7463 
G01 X-2.5930 Y1.7484 
G01 X-2.5993 Y1.7516 
G01 X-2.6050 Y1.7558 
G01 X-2.6100 Y1.7608 
G01 X-2.6141 Y1.7665 
G01 X-2.6173 Y1.7728 
G01 X-2.6195 Y1.7795 
G01 X-2.6206 Y1.7865 
G01 X-2.6206 Y1.7935 
G01 X-2.6195 Y1.8005 
G01 X-2.6173 Y1.8072 
G01 X-2.6141 Y1.8135 
G01 X-2.6100 Y1.8192 
G01 X-2.6050 Y1.8242 
G01 X-2.5993 Y1.8284 
G01 X-2.5930 Y1.8316 
G01 X-2.5863 Y1.8337 
G01 X-2.5793 Y1.8348 
G01 X-2.5007 Y1.8348 
G01 X-2.4937 Y1.8337 
G01 X-2.4870 Y1.8316 
G01 X-2.4807 Y1.8284 
G01 X-2.4750 Y1.8242 
G01 X-2.4700 Y1.8192 
G01 X-2.4700 Y1.8191 
G01 X-2.2671 Y1.8191 
G01 X-2.2615 Y1.8180 
G01 X-2.2562 Y1.8158 
G01 X-2.2514 Y1.8126 
G01 X-2.2474 Y1.8086 
G01 X-2.2474 Y1.8085 
G01 X-2.1079 Y1.6691 
G01 X-1.7371 Y1.6691 
G01 X-1.7315 Y1.6680 
G01 X-1.7262 Y1.6658 
G01 X-1.7214 Y1.6626 
G01 X-1.6487 Y1.5898 
G01 X-1.6341 Y1.5898 
G01 X-1.6102 Y1.5659 
G01 X-1.6102 Y1.5493 
G01 X-1.5499 Y1.4891 
G01 X-0.9171 Y1.4891 
G01 X-0.9115 Y1.4880 
G01 X-0.9062 Y1.4858 
G01 X-0.9014 Y1.4826 
G01 X-0.8974 Y1.4786 
G01 X-0.8934 Y1.4746 
G01 X-0.8902 Y1.4698 
G01 X-0.8880 Y1.4645 
G01 X-0.8869 Y1.4589 
G01 X-0.8869 Y1.2987 
G01 X-0.8752 Y1.2869 
G01 X-0.8752 Y1.2531 
G01 X-0.8991 Y1.2292 
G01 X-0.9329 Y1.2292 
G01 X-0.9568 Y1.2531 
G01 X-0.9568 Y1.2869 
G01 X-0.9451 Y1.2987 
G01 X-0.9451 Y1.4309 
G01 X-1.5649 Y1.4309 
G01 X-1.5705 Y1.4320 
G01 X-1.5758 Y1.4342 
G01 X-1.5806 Y1.4374 
G01 X-1.6513 Y1.5082 
G01 X-1.6679 Y1.5082 
G01 X-1.6918 Y1.5321 
G00 Z0.1000 
G00 X-1.9708 Y2.1742 
G01 Z-0.0100 F10.00 
G01 X-2.0493 Y2.1742 
G01 X-2.0563 Y2.1753 
G01 X-2.0630 Y2.1774 
G01 X-2.0693 Y2.1806 
G01 X-2.0750 Y2.1848 
G01 X-2.0800 Y2.1898 
G01 X-2.0842 Y2.1955 
G01 X-2.0874 Y2.2018 
G01 X-2.0895 Y2.2085 
G01 X-2.0906 Y2.2155 
G01 X-2.0906 Y2.2225 
G01 X-2.0895 Y2.2295 
G01 X-2.0874 Y2.2362 
G01 X-2.0842 Y2.2425 
G01 X-2.0800 Y2.2482 
G01 X-2.0750 Y2.2532 
G01 X-2.0693 Y2.2574 
G01 X-2.0630 Y2.2606 
G01 X-2.0563 Y2.2627 
G01 X-2.0493 Y2.2638 
G01 X-1.9708 Y2.2638 
G01 X-1.9638 Y2.2627 
G01 X-1.9571 Y2.2606 
G01 X-1.9508 Y2.2574 
G01 X-1.9451 Y2.2532 
G01 X-1.9401 Y2.2482 
G01 X-1.9400 Y2.2481 
G01 X-1.9191 Y2.2481 
G01 X-1.9191 Y2.5464 
G01 X-1.9883 Y2.6156 
G01 X-1.9901 Y2.6139 
G01 X-1.9962 Y2.6094 
G01 X-2.0030 Y2.6059 
G01 X-2.0103 Y2.6036 
G01 X-2.0178 Y2.6024 
G01 X-2.0254 Y2.6024 
G01 X-2.0329 Y2.6036 
G01 X-2.0401 Y2.6059 
G01 X-2.0469 Y2.6094 
G01 X-2.0531 Y2.6139 
G01 X-2.0585 Y2.6193 
G01 X-2.0629 Y2.6254 
G01 X-2.0664 Y2.6322 
G01 X-2.0687 Y2.6394 
G01 X-2.0699 Y2.6469 
G01 X-2.0699 Y2.7331 
G01 X-2.0687 Y2.7406 
G01 X-2.0664 Y2.7478 
G01 X-2.0629 Y2.7546 
G01 X-2.0585 Y2.7607 
G01 X-2.0531 Y2.7661 
G01 X-2.0469 Y2.7706 
G01 X-2.0401 Y2.7741 
G01 X-2.0329 Y2.7764 
G01 X-2.0254 Y2.7776 
G01 X-2.0178 Y2.7776 
G01 X-2.0103 Y2.7764 
G01 X-2.0030 Y2.7741 
G01 X-1.9962 Y2.7706 
G01 X-1.9901 Y2.7661 
G01 X-1.9847 Y2.7607 
G01 X-1.9802 Y2.7546 
G01 X-1.9768 Y2.7478 
G01 X-1.9744 Y2.7406 
G01 X-1.9732 Y2.7331 
G01 X-1.9732 Y2.6828 
G01 X-1.8714 Y2.5810 
G01 X-1.8714 Y2.5810 
G01 X-1.8674 Y2.5770 
G01 X-1.8642 Y2.5722 
G01 X-1.8620 Y2.5669 
G01 X-1.8609 Y2.5613 
G01 X-1.8609 Y2.2171 
G01 X-1.8620 Y2.2115 
G01 X-1.8642 Y2.2062 
G01 X-1.8674 Y2.2014 
G01 X-1.8714 Y2.1974 
G01 X-1.8714 Y2.1974 
G01 X-1.8724 Y2.1964 
G01 X-1.8772 Y2.1932 
G01 X-1.8825 Y2.1910 
G01 X-1.8881 Y2.1899 
G01 X-1.9400 Y2.1899 
G01 X-1.9401 Y2.1898 
G01 X-1.9451 Y2.1848 
G01 X-1.9508 Y2.1806 
G01 X-1.9571 Y2.1774 
G01 X-1.9638 Y2.1753 
G01 X-1.9708 Y2.1742 
G00 Z0.1000 
G00 X-1.9708 Y2.0757 
G01 Z-0.0100 F10.00 
G01 X-1.9789 Y2.0757 
G01 X-1.9789 Y1.9047 
G01 X-1.9672 Y1.8929 
G01 X-1.9672 Y1.8591 
G01 X-1.9911 Y1.8352 
G01 X-2.0249 Y1.8352 
G01 X-2.0488 Y1.8591 
G01 X-2.0488 Y1.8929 
G01 X-2.0371 Y1.9047 
G01 X-2.0371 Y2.0757 
G01 X-2.0493 Y2.0757 
G01 X-2.0563 Y2.0768 
G01 X-2.0630 Y2.0790 
G01 X-2.0693 Y2.0822 
G01 X-2.0750 Y2.0864 
G01 X-2.0800 Y2.0914 
G01 X-2.0842 Y2.0971 
G01 X-2.0874 Y2.1034 
G01 X-2.0895 Y2.1101 
G01 X-2.0906 Y2.1170 
G01 X-2.0906 Y2.1241 
G01 X-2.0895 Y2.1311 
G01 X-2.0874 Y2.1378 
G01 X-2.0842 Y2.1441 
G01 X-2.0800 Y2.1498 
G01 X-2.0750 Y2.1548 
G01 X-2.0693 Y2.1589 
G01 X-2.0630 Y2.1621 
G01 X-2.0563 Y2.1643 
G01 X-2.0493 Y2.1654 
G01 X-1.9708 Y2.1654 
G01 X-1.9638 Y2.1643 
G01 X-1.9571 Y2.1621 
G01 X-1.9508 Y2.1589 
G01 X-1.9451 Y2.1548 
G01 X-1.9401 Y2.1498 
G01 X-1.9359 Y2.1441 
G01 X-1.9327 Y2.1378 
G01 X-1.9306 Y2.1311 
G01 X-1.9295 Y2.1241 
G01 X-1.9295 Y2.1170 
G01 X-1.9306 Y2.1101 
G01 X-1.9327 Y2.1034 
G01 X-1.9359 Y2.0971 
G01 X-1.9401 Y2.0914 
G01 X-1.9451 Y2.0864 
G01 X-1.9508 Y2.0822 
G01 X-1.9571 Y2.0790 
G01 X-1.9638 Y2.0768 
G01 X-1.9708 Y2.0757 
G00 Z0.1000 
G00 X-1.1568 Y2.1722 
G01 Z-0.0100 F10.00 
G01 X-1.2353 Y2.1722 
G01 X-1.2423 Y2.1733 
G01 X-1.2490 Y2.1754 
G01 X-1.2553 Y2.1786 
G01 X-1.2610 Y2.1828 
G01 X-1.2660 Y2.1878 
G01 X-1.2702 Y2.1935 
G01 X-1.2734 Y2.1998 
G01 X-1.2755 Y2.2065 
G01 X-1.2766 Y2.2135 
G01 X-1.2766 Y2.2205 
G01 X-1.2755 Y2.2275 
G01 X-1.2734 Y2.2342 
G01 X-1.2702 Y2.2405 
G01 X-1.2660 Y2.2462 
G01 X-1.2610 Y2.2512 
G01 X-1.2553 Y2.2554 
G01 X-1.2490 Y2.2586 
G01 X-1.2423 Y2.2607 
G01 X-1.2353 Y2.2618 
G01 X-1.1568 Y2.2618 
G01 X-1.1498 Y2.2607 
G01 X-1.1431 Y2.2586 
G01 X-1.1368 Y2.2554 
G01 X-1.1311 Y2.2512 
G01 X-1.1261 Y2.2462 
G01 X-1.1260 Y2.2461 
G01 X-1.1251 Y2.2461 
G01 X-1.0591 Y2.3121 
G01 X-1.0591 Y2.6083 
G01 X-1.0599 Y2.6089 
G01 X-1.0653 Y2.6143 
G01 X-1.0698 Y2.6204 
G01 X-1.0732 Y2.6272 
G01 X-1.0756 Y2.6344 
G01 X-1.0768 Y2.6419 
G01 X-1.0768 Y2.7281 
G01 X-1.0756 Y2.7356 
G01 X-1.0732 Y2.7428 
G01 X-1.0698 Y2.7496 
G01 X-1.0653 Y2.7557 
G01 X-1.0599 Y2.7611 
G01 X-1.0538 Y2.7656 
G01 X-1.0470 Y2.7691 
G01 X-1.0397 Y2.7714 
G01 X-1.0322 Y2.7726 
G01 X-1.0246 Y2.7726 
G01 X-1.0171 Y2.7714 
G01 X-1.0099 Y2.7691 
G01 X-1.0031 Y2.7656 
G01 X-0.9969 Y2.7611 
G01 X-0.9915 Y2.7557 
G01 X-0.9871 Y2.7496 
G01 X-0.9836 Y2.7428 
G01 X-0.9813 Y2.7356 
G01 X-0.9801 Y2.7281 
G01 X-0.9801 Y2.6419 
G01 X-0.9813 Y2.6344 
G01 X-0.9836 Y2.6272 
G01 X-0.9871 Y2.6204 
G01 X-0.9915 Y2.6143 
G01 X-0.9969 Y2.6089 
G01 X-1.0009 Y2.6060 
G01 X-1.0009 Y2.2971 
G01 X-1.0020 Y2.2915 
G01 X-1.0042 Y2.2862 
G01 X-1.0074 Y2.2814 
G01 X-1.0944 Y2.1944 
G01 X-1.0992 Y2.1912 
G01 X-1.1045 Y2.1890 
G01 X-1.1101 Y2.1879 
G01 X-1.1260 Y2.1879 
G01 X-1.1261 Y2.1878 
G01 X-1.1311 Y2.1828 
G01 X-1.1368 Y2.1786 
G01 X-1.1431 Y2.1754 
G01 X-1.1498 Y2.1733 
G01 X-1.1568 Y2.1722 
G00 Z0.1000 
G00 X-2.2648 Y2.2726 
G01 Z-0.0100 F10.00 
G01 X-2.3433 Y2.2726 
G01 X-2.3503 Y2.2737 
G01 X-2.3570 Y2.2759 
G01 X-2.3633 Y2.2791 
G01 X-2.3690 Y2.2832 
G01 X-2.3740 Y2.2882 
G01 X-2.3782 Y2.2939 
G01 X-2.3814 Y2.3002 
G01 X-2.3835 Y2.3069 
G01 X-2.3846 Y2.3139 
G01 X-2.3846 Y2.3210 
G01 X-2.3835 Y2.3279 
G01 X-2.3814 Y2.3346 
G01 X-2.3782 Y2.3409 
G01 X-2.3740 Y2.3466 
G01 X-2.3690 Y2.3516 
G01 X-2.3633 Y2.3558 
G01 X-2.3570 Y2.3590 
G01 X-2.3503 Y2.3612 
G01 X-2.3433 Y2.3623 
G01 X-2.2648 Y2.3623 
G01 X-2.2578 Y2.3612 
G01 X-2.2511 Y2.3590 
G01 X-2.2448 Y2.3558 
G01 X-2.2391 Y2.3516 
G01 X-2.2341 Y2.3466 
G01 X-2.2340 Y2.3465 
G01 X-2.0801 Y2.3465 
G01 X-2.0800 Y2.3466 
G01 X-2.0750 Y2.3516 
G01 X-2.0693 Y2.3558 
G01 X-2.0630 Y2.3590 
G01 X-2.0563 Y2.3612 
G01 X-2.0493 Y2.3623 
G01 X-1.9708 Y2.3623 
G01 X-1.9638 Y2.3612 
G01 X-1.9571 Y2.3590 
G01 X-1.9508 Y2.3558 
G01 X-1.9451 Y2.3516 
G01 X-1.9401 Y2.3466 
G01 X-1.9359 Y2.3409 
G01 X-1.9327 Y2.3346 
G01 X-1.9306 Y2.3279 
G01 X-1.9295 Y2.3210 
G01 X-1.9295 Y2.3139 
G01 X-1.9306 Y2.3069 
G01 X-1.9327 Y2.3002 
G01 X-1.9359 Y2.2939 
G01 X-1.9401 Y2.2882 
G01 X-1.9451 Y2.2832 
G01 X-1.9508 Y2.2791 
G01 X-1.9571 Y2.2759 
G01 X-1.9638 Y2.2737 
G01 X-1.9708 Y2.2726 
G01 X-2.0493 Y2.2726 
G01 X-2.0563 Y2.2737 
G01 X-2.0630 Y2.2759 
G01 X-2.0693 Y2.2791 
G01 X-2.0750 Y2.2832 
G01 X-2.0800 Y2.2882 
G01 X-2.0801 Y2.2883 
G01 X-2.1509 Y2.2883 
G01 X-2.1509 Y1.8521 
G01 X-2.0879 Y1.7891 
G01 X-1.5191 Y1.7891 
G01 X-1.5191 Y2.2863 
G01 X-1.5933 Y2.2863 
G01 X-1.5941 Y2.2852 
G01 X-1.5991 Y2.2802 
G01 X-1.6048 Y2.2761 
G01 X-1.6111 Y2.2729 
G01 X-1.6178 Y2.2707 
G01 X-1.6248 Y2.2696 
G01 X-1.7033 Y2.2696 
G01 X-1.7103 Y2.2707 
G01 X-1.7170 Y2.2729 
G01 X-1.7233 Y2.2761 
G01 X-1.7290 Y2.2802 
G01 X-1.7340 Y2.2852 
G01 X-1.7382 Y2.2909 
G01 X-1.7414 Y2.2972 
G01 X-1.7435 Y2.3039 
G01 X-1.7446 Y2.3109 
G01 X-1.7446 Y2.3180 
G01 X-1.7435 Y2.3249 
G01 X-1.7414 Y2.3316 
G01 X-1.7382 Y2.3379 
G01 X-1.7340 Y2.3436 
G01 X-1.7290 Y2.3486 
G01 X-1.7233 Y2.3528 
G01 X-1.7170 Y2.3560 
G01 X-1.7103 Y2.3582 
G01 X-1.7033 Y2.3593 
G01 X-1.6248 Y2.3593 
G01 X-1.6178 Y2.3582 
G01 X-1.6111 Y2.3560 
G01 X-1.6048 Y2.3528 
G01 X-1.5991 Y2.3486 
G01 X-1.5950 Y2.3445 
G01 X-1.2661 Y2.3445 
G01 X-1.2660 Y2.3446 
G01 X-1.2610 Y2.3496 
G01 X-1.2553 Y2.3538 
G01 X-1.2490 Y2.3570 
G01 X-1.2423 Y2.3592 
G01 X-1.2353 Y2.3603 
G01 X-1.1568 Y2.3603 
G01 X-1.1498 Y2.3592 
G01 X-1.1431 Y2.3570 
G01 X-1.1368 Y2.3538 
G01 X-1.1311 Y2.3496 
G01 X-1.1261 Y2.3446 
G01 X-1.1219 Y2.3389 
G01 X-1.1187 Y2.3326 
G01 X-1.1166 Y2.3259 
G01 X-1.1155 Y2.3190 
G01 X-1.1155 Y2.3119 
G01 X-1.1166 Y2.3049 
G01 X-1.1187 Y2.2982 
G01 X-1.1219 Y2.2919 
G01 X-1.1261 Y2.2862 
G01 X-1.1311 Y2.2812 
G01 X-1.1368 Y2.2771 
G01 X-1.1431 Y2.2739 
G01 X-1.1498 Y2.2717 
G01 X-1.1568 Y2.2706 
G01 X-1.2353 Y2.2706 
G01 X-1.2423 Y2.2717 
G01 X-1.2490 Y2.2739 
G01 X-1.2553 Y2.2771 
G01 X-1.2610 Y2.2812 
G01 X-1.2660 Y2.2862 
G01 X-1.2661 Y2.2863 
G01 X-1.4609 Y2.2863 
G01 X-1.4609 Y1.6421 
G01 X-1.4279 Y1.6091 
G01 X-1.2491 Y1.6091 
G01 X-1.2491 Y1.7729 
G01 X-1.2480 Y1.7785 
G01 X-1.2458 Y1.7838 
G01 X-1.2426 Y1.7886 
G01 X-1.2386 Y1.7926 
G01 X-1.2385 Y1.7926 
G01 X-0.9291 Y2.1021 
G01 X-0.9291 Y2.2329 
G01 X-0.9280 Y2.2385 
G01 X-0.9258 Y2.2438 
G01 X-0.9226 Y2.2486 
G01 X-0.9186 Y2.2526 
G01 X-0.9185 Y2.2526 
G01 X-0.8381 Y2.3330 
G01 X-0.8334 Y2.3362 
G01 X-0.8293 Y2.3379 
G01 X-0.8280 Y2.3396 
G01 X-0.8230 Y2.3446 
G01 X-0.8173 Y2.3488 
G01 X-0.8110 Y2.3520 
G01 X-0.8043 Y2.3542 
G01 X-0.7973 Y2.3553 
G01 X-0.7188 Y2.3553 
G01 X-0.7118 Y2.3542 
G01 X-0.7051 Y2.3520 
G01 X-0.6988 Y2.3488 
G01 X-0.6931 Y2.3446 
G01 X-0.6881 Y2.3396 
G01 X-0.6839 Y2.3339 
G01 X-0.6807 Y2.3276 
G01 X-0.6786 Y2.3209 
G01 X-0.6775 Y2.3140 
G01 X-0.6775 Y2.3069 
G01 X-0.6786 Y2.2999 
G01 X-0.6807 Y2.2932 
G01 X-0.6839 Y2.2869 
G01 X-0.6881 Y2.2812 
G01 X-0.6931 Y2.2762 
G01 X-0.6988 Y2.2721 
G01 X-0.7051 Y2.2689 
G01 X-0.7118 Y2.2667 
G01 X-0.7188 Y2.2656 
G01 X-0.7973 Y2.2656 
G01 X-0.8043 Y2.2667 
G01 X-0.8110 Y2.2689 
G01 X-0.8170 Y2.2719 
G01 X-0.8709 Y2.2179 
G01 X-0.8709 Y2.0871 
G01 X-0.8720 Y2.0815 
G01 X-0.8742 Y2.0762 
G01 X-0.8774 Y2.0714 
G01 X-0.8814 Y2.0674 
G01 X-0.8815 Y2.0674 
G01 X-1.1909 Y1.7579 
G01 X-1.1909 Y1.6091 
G01 X-0.8821 Y1.6091 
G01 X-0.8091 Y1.6821 
G01 X-0.8091 Y1.8529 
G01 X-0.8080 Y1.8585 
G01 X-0.8058 Y1.8638 
G01 X-0.8026 Y1.8686 
G01 X-0.7226 Y1.9486 
G01 X-0.7186 Y1.9526 
G01 X-0.7138 Y1.9558 
G01 X-0.7085 Y1.9580 
G01 X-0.7029 Y1.9591 
G01 X-0.2891 Y1.9591 
G01 X-0.2891 Y2.2379 
G01 X-0.3361 Y2.2850 
G01 X-0.3388 Y2.2831 
G01 X-0.3451 Y2.2799 
G01 X-0.3518 Y2.2777 
G01 X-0.3588 Y2.2766 
G01 X-0.4373 Y2.2766 
G01 X-0.4443 Y2.2777 
G01 X-0.4510 Y2.2799 
G01 X-0.4573 Y2.2831 
G01 X-0.4630 Y2.2872 
G01 X-0.4680 Y2.2922 
G01 X-0.4722 Y2.2979 
G01 X-0.4754 Y2.3042 
G01 X-0.4775 Y2.3109 
G01 X-0.4786 Y2.3179 
G01 X-0.4786 Y2.3250 
G01 X-0.4775 Y2.3319 
G01 X-0.4754 Y2.3386 
G01 X-0.4722 Y2.3449 
G01 X-0.4680 Y2.3506 
G01 X-0.4630 Y2.3556 
G01 X-0.4573 Y2.3598 
G01 X-0.4510 Y2.3630 
G01 X-0.4443 Y2.3652 
G01 X-0.4373 Y2.3663 
G01 X-0.3588 Y2.3663 
G01 X-0.3518 Y2.3652 
G01 X-0.3451 Y2.3630 
G01 X-0.3388 Y2.3598 
G01 X-0.3331 Y2.3556 
G01 X-0.3281 Y2.3506 
G01 X-0.3269 Y2.3491 
G01 X-0.3215 Y2.3480 
G01 X-0.3162 Y2.3458 
G01 X-0.3114 Y2.3426 
G01 X-0.3074 Y2.3386 
G01 X-0.2374 Y2.2686 
G01 X-0.2342 Y2.2638 
G01 X-0.2320 Y2.2585 
G01 X-0.2309 Y2.2529 
G01 X-0.2309 Y0.4306 
G01 X-0.2320 Y0.4249 
G01 X-0.2342 Y0.4196 
G01 X-0.2374 Y0.4149 
G01 X-0.4101 Y0.2422 
G01 X-0.4101 Y0.1919 
G01 X-0.4113 Y0.1844 
G01 X-0.4136 Y0.1772 
G01 X-0.4171 Y0.1704 
G01 X-0.4215 Y0.1643 
G01 X-0.4269 Y0.1589 
G01 X-0.4331 Y0.1544 
G01 X-0.4399 Y0.1509 
G01 X-0.4471 Y0.1486 
G01 X-0.4546 Y0.1474 
G01 X-0.4622 Y0.1474 
G01 X-0.4697 Y0.1486 
G01 X-0.4770 Y0.1509 
G01 X-0.4838 Y0.1544 
G01 X-0.4899 Y0.1589 
G01 X-0.4953 Y0.1643 
G01 X-0.4998 Y0.1704 
G01 X-0.5032 Y0.1772 
G01 X-0.5056 Y0.1844 
G01 X-0.5068 Y0.1919 
G01 X-0.5068 Y0.2422 
G01 X-0.6255 Y0.3609 
G01 X-0.8629 Y0.3609 
G01 X-0.8644 Y0.3612 
G01 X-0.9509 Y0.3612 
G01 X-0.9509 Y0.1471 
G01 X-0.9520 Y0.1415 
G01 X-0.9542 Y0.1362 
G01 X-0.9574 Y0.1314 
G01 X-0.9614 Y0.1274 
G01 X-0.9615 Y0.1274 
G01 X-1.0174 Y0.0715 
G01 X-1.0174 Y0.0714 
G01 X-1.0214 Y0.0674 
G01 X-1.0262 Y0.0642 
G01 X-1.0315 Y0.0620 
G01 X-1.0371 Y0.0609 
G01 X-1.3262 Y0.0609 
G01 X-1.3319 Y0.0620 
G01 X-1.3372 Y0.0642 
G01 X-1.3419 Y0.0674 
G01 X-1.4463 Y0.1717 
G01 X-1.4892 Y0.1717 
G01 X-1.4962 Y0.1728 
G01 X-1.5029 Y0.1750 
G01 X-1.5092 Y0.1782 
G01 X-1.5149 Y0.1824 
G01 X-1.5199 Y0.1874 
G01 X-1.5200 Y0.1875 
G01 X-1.9729 Y0.1875 
G01 X-1.9730 Y0.1874 
G01 X-1.9780 Y0.1824 
G01 X-1.9837 Y0.1782 
G01 X-1.9900 Y0.1750 
G01 X-1.9967 Y0.1728 
G01 X-2.0037 Y0.1717 
G01 X-2.0822 Y0.1717 
G01 X-2.0892 Y0.1728 
G01 X-2.0959 Y0.1750 
G01 X-2.1022 Y0.1782 
G01 X-2.1079 Y0.1824 
G01 X-2.1129 Y0.1874 
G01 X-2.1171 Y0.1931 
G01 X-2.1203 Y0.1994 
G01 X-2.1224 Y0.2061 
G01 X-2.1235 Y0.2130 
G01 X-2.1235 Y0.2201 
G01 X-2.1224 Y0.2271 
G01 X-2.1203 Y0.2338 
G01 X-2.1171 Y0.2401 
G01 X-2.1129 Y0.2458 
G01 X-2.1079 Y0.2508 
G01 X-2.1022 Y0.2549 
G01 X-2.0959 Y0.2581 
G01 X-2.0892 Y0.2603 
G01 X-2.0822 Y0.2614 
G01 X-2.0037 Y0.2614 
G01 X-1.9967 Y0.2603 
G01 X-1.9900 Y0.2581 
G01 X-1.9837 Y0.2549 
G01 X-1.9780 Y0.2508 
G01 X-1.9730 Y0.2458 
G01 X-1.9729 Y0.2457 
G01 X-1.5200 Y0.2457 
G01 X-1.5199 Y0.2458 
G01 X-1.5149 Y0.2508 
G01 X-1.5092 Y0.2549 
G01 X-1.5029 Y0.2581 
G01 X-1.4962 Y0.2603 
G01 X-1.4892 Y0.2614 
G01 X-1.4107 Y0.2614 
G01 X-1.4037 Y0.2603 
G01 X-1.3970 Y0.2581 
G01 X-1.3907 Y0.2549 
G01 X-1.3850 Y0.2508 
G01 X-1.3800 Y0.2458 
G01 X-1.3758 Y0.2401 
G01 X-1.3726 Y0.2338 
G01 X-1.3705 Y0.2271 
G01 X-1.3694 Y0.2201 
G01 X-1.3694 Y0.2130 
G01 X-1.3705 Y0.2061 
G01 X-1.3726 Y0.1994 
G01 X-1.3758 Y0.1931 
G01 X-1.3798 Y0.1876 
G01 X-1.3113 Y0.1191 
G01 X-1.0521 Y0.1191 
G01 X-1.0091 Y0.1621 
G01 X-1.0091 Y0.6009 
G01 X-1.6400 Y0.6009 
G01 X-1.6400 Y0.6008 
G01 X-1.6450 Y0.5958 
G01 X-1.6507 Y0.5916 
G01 X-1.6570 Y0.5884 
G01 X-1.6637 Y0.5863 
G01 X-1.6707 Y0.5852 
G01 X-1.7493 Y0.5852 
G01 X-1.7563 Y0.5863 
G01 X-1.7630 Y0.5884 
G01 X-1.7693 Y0.5916 
G01 X-1.7750 Y0.5958 
G01 X-1.7800 Y0.6008 
G01 X-1.7841 Y0.6065 
G01 X-1.7873 Y0.6128 
G01 X-1.7895 Y0.6195 
G01 X-1.7906 Y0.6265 
G01 X-1.7906 Y0.6335 
G01 X-1.7895 Y0.6405 
G01 X-1.7873 Y0.6472 
G01 X-1.7841 Y0.6535 
G01 X-1.7800 Y0.6592 
G01 X-1.7750 Y0.6642 
G01 X-1.7693 Y0.6684 
G01 X-1.7630 Y0.6716 
G01 X-1.7563 Y0.6737 
G01 X-1.7493 Y0.6748 
G01 X-1.6707 Y0.6748 
G01 X-1.6637 Y0.6737 
G01 X-1.6570 Y0.6716 
G01 X-1.6507 Y0.6684 
G01 X-1.6450 Y0.6642 
G01 X-1.6400 Y0.6592 
G01 X-1.6400 Y0.6591 
G01 X-0.9771 Y0.6591 
G01 X-0.9715 Y0.6580 
G01 X-0.9662 Y0.6558 
G01 X-0.9614 Y0.6526 
G01 X-0.9574 Y0.6486 
G01 X-0.9542 Y0.6438 
G01 X-0.9520 Y0.6385 
G01 X-0.9509 Y0.6329 
G01 X-0.9509 Y0.4188 
G01 X-0.8644 Y0.4188 
G01 X-0.8629 Y0.4191 
G01 X-0.6106 Y0.4191 
G01 X-0.6049 Y0.4180 
G01 X-0.5996 Y0.4158 
G01 X-0.5949 Y0.4126 
G01 X-0.5908 Y0.4086 
G01 X-0.4917 Y0.3094 
G01 X-0.4899 Y0.3111 
G01 X-0.4838 Y0.3156 
G01 X-0.4770 Y0.3191 
G01 X-0.4697 Y0.3214 
G01 X-0.4622 Y0.3226 
G01 X-0.4546 Y0.3226 
G01 X-0.4471 Y0.3214 
G01 X-0.4399 Y0.3191 
G01 X-0.4331 Y0.3156 
G01 X-0.4269 Y0.3111 
G01 X-0.4252 Y0.3094 
G01 X-0.2891 Y0.4455 
G01 X-0.2891 Y1.4009 
G01 X-0.5700 Y1.4009 
G01 X-0.5700 Y1.4008 
G01 X-0.5750 Y1.3958 
G01 X-0.5807 Y1.3916 
G01 X-0.5870 Y1.3884 
G01 X-0.5937 Y1.3863 
G01 X-0.6007 Y1.3852 
G01 X-0.6793 Y1.3852 
G01 X-0.6863 Y1.3863 
G01 X-0.6930 Y1.3884 
G01 X-0.6993 Y1.3916 
G01 X-0.7050 Y1.3958 
G01 X-0.7100 Y1.4008 
G01 X-0.7141 Y1.4065 
G01 X-0.7173 Y1.4128 
G01 X-0.7195 Y1.4195 
G01 X-0.7206 Y1.4265 
G01 X-0.7206 Y1.4335 
G01 X-0.7195 Y1.4405 
G01 X-0.7173 Y1.4472 
G01 X-0.7141 Y1.4535 
G01 X-0.7100 Y1.4592 
G01 X-0.7050 Y1.4642 
G01 X-0.6993 Y1.4684 
G01 X-0.6930 Y1.4716 
G01 X-0.6863 Y1.4737 
G01 X-0.6793 Y1.4748 
G01 X-0.6007 Y1.4748 
G01 X-0.5937 Y1.4737 
G01 X-0.5870 Y1.4716 
G01 X-0.5807 Y1.4684 
G01 X-0.5750 Y1.4642 
G01 X-0.5700 Y1.4592 
G01 X-0.5700 Y1.4591 
G01 X-0.2891 Y1.4591 
G01 X-0.2891 Y1.9009 
G01 X-0.6879 Y1.9009 
G01 X-0.7509 Y1.8379 
G01 X-0.7509 Y1.6671 
G01 X-0.7520 Y1.6615 
G01 X-0.7542 Y1.6562 
G01 X-0.7574 Y1.6514 
G01 X-0.7614 Y1.6474 
G01 X-0.7614 Y1.6474 
G01 X-0.8474 Y1.5614 
G01 X-0.8474 Y1.5614 
G01 X-0.8514 Y1.5574 
G01 X-0.8562 Y1.5542 
G01 X-0.8615 Y1.5520 
G01 X-0.8671 Y1.5509 
G01 X-1.4429 Y1.5509 
G01 X-1.4485 Y1.5520 
G01 X-1.4538 Y1.5542 
G01 X-1.4586 Y1.5574 
G01 X-1.4626 Y1.5614 
G01 X-1.5086 Y1.6074 
G01 X-1.5126 Y1.6114 
G01 X-1.5158 Y1.6162 
G01 X-1.5180 Y1.6215 
G01 X-1.5191 Y1.6271 
G01 X-1.5191 Y1.7309 
G01 X-2.1029 Y1.7309 
G01 X-2.1085 Y1.7320 
G01 X-2.1138 Y1.7342 
G01 X-2.1186 Y1.7374 
G01 X-2.1226 Y1.7414 
G01 X-2.2026 Y1.8214 
G01 X-2.2058 Y1.8262 
G01 X-2.2080 Y1.8315 
G01 X-2.2091 Y1.8371 
G01 X-2.2091 Y2.2883 
G01 X-2.2340 Y2.2883 
